public/overlays/1.cube
LUT_3D_SIZE 6
-0.078650 -0.082227 -0.071271
0.159604 -0.084173 -0.071271
0.454452 -0.084815 -0.071271
0.733378 -0.084539 -0.071271
0.915041 -0.083634 -0.071271
0.980723 -0.082355 -0.071271
-0.080517 0.204878 -0.071271
0.158828 0.203712 -0.071271
0.454452 0.231573 -0.071271
0.733378 0.235450 -0.071271
0.915041 0.213742 -0.071271
0.980723 0.175752 -0.071271
-0.081130 0.502490 -0.071271
0.188000 0.502490 -0.071271
0.456984 0.502253 -0.071271
0.733378 0.508714 -0.071271
0.915041 0.465092 -0.071271
0.980723 0.390565 -0.071271
-0.080872 0.779721 -0.071271
0.190609 0.779721 -0.071271
0.463470 0.779721 -0.071271
0.735712 0.782150 -0.071271
0.915041 0.712751 -0.071271
0.980723 0.600593 -0.071271
-0.080004 0.954849 -0.071271
0.167660 0.954849 -0.071271
0.417337 0.954849 -0.071271
0.662831 0.954849 -0.071271
0.916032 0.960605 -0.071271
0.980723 0.810200 -0.071271
-0.078782 1.080865 -0.075226
0.119015 1.080865 -0.077340
0.320059 1.080865 -0.078036
0.521762 1.080865 -0.077742
0.736290 1.080865 -0.076759
0.980598 1.086860 -0.075368
-0.079616 -0.479658 0.219876
0.165702 -0.479539 0.217971
0.471282 -0.479539 0.241925
0.754893 -0.479539 0.244645
0.930931 -0.479539 0.223876
0.982316 -0.479539 0.190106
-0.078650 0.204410 0.208587
0.159604 0.204872 0.209253
0.454452 0.204584 0.209256
0.733378 0.205893 0.209981
0.915041 0.209034 0.211170
0.980723 0.213190 0.212989
-0.078650 0.502490 0.232171
0.159336 0.502490 0.210428
0.456738 0.502671 0.209438
0.733378 0.502151 0.209438
0.915041 0.463132 0.209438
0.980723 0.402189 0.209438
-0.078650 0.779721 0.234444
0.160624 0.779721 0.211722
0.455698 0.779721 0.209438
0.735406 0.782226 0.209438
0.915041 0.712165 0.209438
0.980723 0.606002 0.209438
-0.078650 0.954849 0.214842
0.163787 0.954849 0.212470
0.414826 0.954849 0.209438
0.661787 0.954849 0.209438
0.915723 0.960405 0.209438
0.980723 0.812565 0.209438
-0.079220 1.080865 0.150125
0.166045 1.080865 0.195660
0.336384 1.080865 0.191194
0.528952 1.080865 0.192797
0.738926 1.080865 0.198048
0.980393 1.086764 0.204984
-0.079918 -0.479688 0.484428
0.190727 -0.479539 0.482025
0.464411 -0.479539 0.474988
0.750752 -0.479539 0.479465
0.929497 -0.479539 0.434438
0.982221 -0.479539 0.360824
-0.078650 0.232702 0.461961
0.158783 0.205427 0.461961
0.456106 0.204878 0.462252
0.733378 0.204878 0.462395
0.915041 0.204878 0.426667
0.980723 0.204878 0.371556
-0.078650 0.502124 0.462537
0.159604 0.502380 0.462648
0.454452 0.502490 0.462093
0.733377 0.503881 0.463042
0.915041 0.506497 0.465158
0.980723 0.510126 0.467915
-0.078650 0.779721 0.468694
0.159604 0.779721 0.462579
0.455813 0.779721 0.463350
0.733362 0.781403 0.461961
0.915041 0.726598 0.461961
0.980723 0.657810 0.461961
-0.078650 0.954849 0.426977
0.159604 0.954849 0.425016
0.458832 0.954849 0.464202
0.676461 0.954849 0.461961
0.914578 0.959611 0.461961
0.980723 0.834445 0.461961
-0.079286 1.080865 0.318899
0.157743 1.080865 0.332952
0.460503 1.080865 0.450077
0.591439 1.080865 0.448096
0.765149 1.080865 0.456261
0.980090 1.086171 0.467257
-0.079779 -0.479685 0.744050
0.191649 -0.479539 0.742801
0.461283 -0.479539 0.736508
0.739868 -0.479539 0.729419
0.925324 -0.479539 0.657337
0.981948 -0.479539 0.539650
-0.078650 0.235777 0.716604
0.160266 0.207666 0.716604
0.455522 0.204878 0.716604
0.734500 0.204878 0.718736
0.915041 0.204878 0.653979
0.980723 0.204878 0.554803
-0.078650 0.508556 0.716604
0.159604 0.502129 0.716604
0.456258 0.504694 0.716604
0.732949 0.502490 0.718112
0.915041 0.502490 0.667008
0.980723 0.502490 0.602261
-0.078650 0.780862 0.718546
0.159604 0.780907 0.718408
0.454452 0.780576 0.717472
0.733378 0.779721 0.716790
0.915041 0.780971 0.718904
0.980723 0.783999 0.721727
-0.078650 0.954849 0.651250
0.159604 0.954849 0.650410
0.454452 0.954849 0.663524
0.735587 0.954849 0.716750
0.915426 0.957518 0.716604
0.980723 0.889702 0.716604
-0.079162 1.080865 0.503039
0.159628 1.080865 0.509292
0.457947 1.080865 0.568595
0.739447 1.080865 0.707285
0.835094 1.080865 0.712384
0.980951 1.084841 0.726949
-0.079341 -0.479613 0.910316
0.164731 -0.479539 0.909937
0.408138 -0.479539 0.906961
0.653100 -0.479539 0.900342
0.916585 -0.479539 0.897486
0.981451 -0.479539 0.735004
-0.078650 0.213127 0.886642
0.164033 0.210960 0.886642
0.414806 0.204878 0.886642
0.662573 0.204878 0.886642
0.915046 0.204878 0.891579
0.980723 0.204878 0.747986
-0.078650 0.463243 0.886642
0.159604 0.461252 0.886642
0.460312 0.506979 0.886642
0.677021 0.502490 0.886642
0.914334 0.502490 0.890858
0.980723 0.502490 0.768649
-0.078650 0.709923 0.886642
0.159604 0.709125 0.886642
0.454452 0.723479 0.886642
0.736616 0.780042 0.886642
0.915032 0.779721 0.889204
0.980723 0.779721 0.822829
-0.078650 0.958163 0.889751
0.159604 0.958097 0.889586
0.454452 0.957544 0.888854
0.733378 0.956190 0.888073
0.915041 0.954849 0.887030
0.980723 0.956777 0.889468
-0.078897 1.080865 0.710806
0.163590 1.080865 0.713174
0.465325 1.080865 0.738142
0.745862 1.080865 0.803577
0.921095 1.080865 0.882357
0.981198 1.082661 0.892873
-0.078656 -0.479539 0.964559
0.121770 -0.479539 0.964424
0.324865 -0.479539 0.963502
0.528751 -0.479539 0.961485
0.745272 -0.479539 0.958237
0.983064 -0.479539 0.956789
-0.078650 0.177650 0.955473
0.169562 0.216187 0.955473
0.357129 0.204878 0.955473
0.563191 0.204878 0.955473
0.770944 0.204878 0.955473
0.984966 0.204878 0.955473
-0.078650 0.393559 0.955473
0.159604 0.403456 0.955473
0.466043 0.511923 0.955473
0.613126 0.502490 0.955473
0.791574 0.502490 0.955473
0.984273 0.502490 0.955473
-0.078650 0.604985 0.955473
0.159604 0.609493 0.955473
0.454452 0.658193 0.955473
0.742126 0.784535 0.955473
0.849381 0.779721 0.955473
0.983855 0.779721 0.955473
-0.078650 0.816083 0.955473
0.159604 0.817842 0.955473
0.454452 0.837876 0.955473
0.733378 0.890645 0.955473
0.919190 0.958151 0.955473
0.982525 0.954849 0.955473
-0.078650 1.023653 0.954431
0.159604 1.023508 0.954404
0.454452 1.022634 0.954398
0.733378 1.020674 0.954629
0.915041 1.017548 0.954849
0.980723 1.014983 0.954942
