public/overlays/1.cube
LUT_3D_SIZE 16
-0.078650 -0.082227 -0.071271
-0.072986 -0.082593 -0.071271
0.065218 -0.083464 -0.071271
0.159604 -0.084173 -0.071271
0.255604 -0.084517 -0.071271
0.354325 -0.084718 -0.071271
0.454452 -0.084815 -0.071271
0.554107 -0.084803 -0.071271
0.648465 -0.084714 -0.071271
0.733378 -0.084539 -0.071271
0.805925 -0.084304 -0.071271
0.866309 -0.084001 -0.071271
0.915041 -0.083634 -0.071271
0.950920 -0.083214 -0.071271
0.972509 -0.082737 -0.071271
0.980723 -0.082355 -0.071271
-0.079005 -0.076301 -0.071271
-0.073767 -0.077115 -0.071271
0.065059 -0.061181 -0.071271
0.159604 -0.057702 -0.071271
0.255604 -0.056322 -0.071271
0.354325 -0.055354 -0.071271
0.454452 -0.054963 -0.071271
0.554107 -0.055044 -0.071271
0.648465 -0.055561 -0.071271
0.733378 -0.056452 -0.071271
0.805925 -0.057665 -0.071271
0.866309 -0.059129 -0.071271
0.915041 -0.060798 -0.071271
0.950920 -0.062655 -0.071271
0.972509 -0.064679 -0.071271
0.980723 -0.068059 -0.071271
-0.079839 0.107763 -0.071271
-0.058523 0.107572 -0.071271
0.064114 0.106403 -0.071271
0.159430 0.119136 -0.071271
0.255604 0.126453 -0.071271
0.354325 0.131878 -0.071271
0.454452 0.135951 -0.071271
0.554107 0.138620 -0.071271
0.648465 0.139313 -0.071271
0.733378 0.137817 -0.071271
0.805925 0.134255 -0.071271
0.866309 0.129149 -0.071271
0.915041 0.122942 -0.071271
0.950920 0.115697 -0.071271
0.972509 0.107302 -0.071271
0.980723 0.095288 -0.071271
-0.080517 0.204878 -0.071271
-0.055196 0.204878 -0.071271
0.075572 0.204676 -0.071271
0.158828 0.203712 -0.071271
0.255401 0.216031 -0.071271
0.354325 0.225030 -0.071271
0.454452 0.231573 -0.071271
0.554107 0.236022 -0.071271
0.648465 0.237439 -0.071271
0.733378 0.235450 -0.071271
0.805925 0.230299 -0.071271
0.866309 0.222796 -0.071271
0.915041 0.213742 -0.071271
0.950920 0.203356 -0.071271
0.972509 0.191544 -0.071271
0.980723 0.175752 -0.071271
-0.080847 0.301501 -0.071271
-0.053874 0.301501 -0.071271
0.082532 0.301501 -0.071271
0.171926 0.301340 -0.071271
0.255513 0.300435 -0.071271
0.354143 0.312900 -0.071271
0.454452 0.322171 -0.071271
0.554107 0.328297 -0.071271
0.648465 0.330312 -0.071271
0.733378 0.327763 -0.071271
0.805925 0.320889 -0.071271
0.866309 0.310905 -0.071271
0.915041 0.298817 -0.071271
0.950920 0.285026 -0.071271
0.972509 0.269433 -0.071271
0.980723 0.248919 -0.071271
-0.081044 0.401147 -0.071271
-0.052949 0.401147 -0.071271
0.087834 0.401147 -0.071271
0.181202 0.401147 -0.071271
0.269459 0.401014 -0.071271
0.355341 0.400395 -0.071271
0.454399 0.411114 -0.071271
0.554107 0.419094 -0.071271
0.648465 0.421726 -0.071271
0.733378 0.418551 -0.071271
0.805925 0.409901 -0.071271
0.866309 0.397350 -0.071271
0.915041 0.382267 -0.071271
0.950920 0.364996 -0.071271
0.972509 0.345548 -0.071271
0.980723 0.320097 -0.071271
-0.081130 0.502490 -0.071271
-0.052572 0.502490 -0.071271
0.091930 0.502490 -0.071271
0.188000 0.502490 -0.071271
0.279011 0.502490 -0.071271
0.368369 0.502384 -0.071271
0.456984 0.502253 -0.071271
0.554113 0.509395 -0.071271
0.648465 0.512524 -0.071271
0.733378 0.508714 -0.071271
0.805925 0.498379 -0.071271
0.866309 0.483276 -0.071271
0.915041 0.465092 -0.071271
0.950920 0.444356 -0.071271
0.972509 0.420967 -0.071271
0.980723 0.390565 -0.071271
-0.081123 0.602725 -0.071271
-0.052650 0.602725 -0.071271
0.094524 0.602725 -0.071271
0.192404 0.602725 -0.071271
0.285082 0.602725 -0.071271
0.376158 0.602725 -0.071271
0.466676 0.602715 -0.071271
0.557687 0.603281 -0.071271
0.648646 0.603370 -0.071271
0.733378 0.598683 -0.071271
0.805925 0.586630 -0.071271
0.866309 0.568934 -0.071271
0.915041 0.547668 -0.071271
0.950920 0.523374 -0.071271
0.972509 0.496104 -0.071271
0.980723 0.460649 -0.071271
-0.081036 0.696707 -0.071271
-0.053150 0.696707 -0.071271
0.094909 0.696707 -0.071271
0.193370 0.696707 -0.071271
0.286489 0.696707 -0.071271
0.378048 0.696707 -0.071271
0.468898 0.696707 -0.071271
0.559661 0.696777 -0.071271
0.652106 0.698056 -0.071271
0.733666 0.689154 -0.071271
0.805925 0.674784 -0.071271
0.866309 0.654504 -0.071271
0.915041 0.630264 -0.071271
0.950920 0.602441 -0.071271
0.972509 0.571159 -0.071271
0.980723 0.530620 -0.071271
-0.080872 0.779721 -0.071271
-0.054001 0.779721 -0.071271
0.092991 0.779721 -0.071271
0.190609 0.779721 -0.071271
0.282861 0.779721 -0.071271
0.373490 0.779721 -0.071271
0.463470 0.779721 -0.071271
0.553153 0.779721 -0.071271
0.643306 0.780083 -0.071271
0.735712 0.782150 -0.071271
0.806283 0.763703 -0.071271
0.866309 0.740202 -0.071271
0.915041 0.712751 -0.071271
0.950920 0.681403 -0.071271
0.972509 0.646194 -0.071271
0.980723 0.600593 -0.071271
-0.080640 0.849963 -0.071271
-0.055157 0.849963 -0.071271
0.089100 0.849963 -0.071271
0.184699 0.849963 -0.071271
0.275018 0.849963 -0.071271
0.363641 0.849963 -0.071271
0.451600 0.849963 -0.071271
0.539277 0.849963 -0.071271
0.626911 0.849963 -0.071271
0.715093 0.850503 -0.071271
0.806826 0.853590 -0.071271
0.867009 0.826661 -0.071271
0.915041 0.795194 -0.071271
0.950920 0.760372 -0.071271
0.972509 0.721134 -0.071271
0.980723 0.670420 -0.071271
-0.080350 0.909031 -0.071271
-0.056559 0.909031 -0.071271
0.084036 0.909031 -0.071271
0.176896 0.909031 -0.071271
0.264530 0.909031 -0.071271
0.350509 0.909031 -0.071271
0.435796 0.909031 -0.071271
0.520843 0.909031 -0.071271
0.605763 0.909031 -0.071271
0.690629 0.909031 -0.071271
0.776307 0.909758 -0.071271
0.866858 0.913745 -0.071271
0.916070 0.879266 -0.071271
0.950920 0.839455 -0.071271
0.972509 0.796204 -0.071271
0.980723 0.740445 -0.071271
-0.080004 0.954849 -0.071271
-0.058158 0.954849 -0.071271
0.078173 0.954849 -0.071271
0.167660 0.954849 -0.071271
0.252262 0.954849 -0.071271
0.335158 0.954849 -0.071271
0.417337 0.954849 -0.071271
0.499303 0.954849 -0.071271
0.581074 0.954849 -0.071271
0.662831 0.954849 -0.071271
0.744452 0.954849 -0.071271
0.827451 0.955675 -0.071271
0.916032 0.960605 -0.071271
0.952019 0.919794 -0.071271
0.972509 0.871184 -0.071271
0.980723 0.810200 -0.071271
-0.079597 0.986920 -0.071271
-0.059935 0.986920 -0.071271
0.071613 0.986920 -0.071271
0.157262 0.986920 -0.071271
0.238457 0.986920 -0.071271
0.317889 0.986920 -0.071271
0.396628 0.986920 -0.071271
0.474997 0.986920 -0.071271
0.553336 0.986920 -0.071271
0.631581 0.986920 -0.071271
0.709682 0.986920 -0.071271
0.787976 0.986920 -0.071271
0.867714 0.987899 -0.071271
0.953088 0.993221 -0.071271
0.973894 0.946998 -0.071271
0.980723 0.880394 -0.071271
-0.079146 1.004382 -0.071271
-0.061869 1.004382 -0.071271
0.064294 1.004382 -0.071271
0.145501 1.004382 -0.071271
0.222922 1.004382 -0.071271
0.298531 1.004382 -0.071271
0.373370 1.004382 -0.071271
0.447868 1.004382 -0.071271
0.522217 1.004382 -0.071271
0.596588 1.004382 -0.071271
0.670777 1.004382 -0.071271
0.745231 1.004382 -0.071271
0.819265 1.004382 -0.071271
0.896132 1.006102 -0.071271
0.977433 1.015736 -0.071271
0.982336 0.950964 -0.071271
-0.078782 1.080865 -0.075226
-0.067480 1.080865 -0.075627
0.048045 1.080865 -0.076568
0.119015 1.080865 -0.077340
0.187684 1.080865 -0.077718
0.254114 1.080865 -0.077933
0.320059 1.080865 -0.078036
0.386279 1.080865 -0.078029
0.453407 1.080865 -0.077925
0.521762 1.080865 -0.077742
0.591486 1.080865 -0.077484
0.663078 1.080865 -0.077154
0.736290 1.080865 -0.076759
0.812058 1.080865 -0.076299
0.892545 1.082887 -0.075783
0.980598 1.086860 -0.075368
-0.078650 -0.479539 -0.011913
-0.070869 -0.479539 -0.019210
0.069855 -0.479539 0.064346
0.167032 -0.479539 0.070937
0.266120 -0.479539 0.075096
0.368218 -0.479539 0.077937
0.471853 -0.479539 0.079677
0.574277 -0.479539 0.080406
0.670233 -0.479539 0.079957
0.754991 -0.479539 0.078280
0.826358 -0.479539 0.075394
0.885131 -0.479539 0.071295
0.931002 -0.479539 0.065595
0.962395 -0.479539 0.056509
0.978772 -0.479539 0.032778
0.982336 -0.479539 -0.015074
-0.078650 -0.076301 -0.036152
-0.072986 -0.076301 -0.034999
0.065218 -0.076727 -0.036567
0.159604 -0.077884 -0.038666
0.255604 -0.079117 -0.039645
0.354325 -0.079893 -0.040206
0.454452 -0.080223 -0.040451
0.554107 -0.080139 -0.040434
0.648465 -0.079673 -0.040180
0.733378 -0.078851 -0.039716
0.805925 -0.077696 -0.039044
0.866309 -0.076209 -0.038172
0.915041 -0.074382 -0.037094
0.950920 -0.072198 -0.035796
0.972509 -0.069661 -0.034264
0.980723 -0.067545 -0.032976
-0.078650 0.107763 0.053358
-0.073393 0.107763 -0.036567
0.064946 0.107359 -0.032520
0.159521 0.114970 -0.032520
0.255604 0.120702 -0.032520
0.354325 0.125295 -0.032520
0.454452 0.128883 -0.032520
0.554107 0.131318 -0.032520
0.648465 0.132051 -0.032520
0.733378 0.130845 -0.032520
0.805925 0.127824 -0.032520
0.866309 0.123456 -0.032520
0.915041 0.118204 -0.032520
0.950920 0.112177 -0.032520
0.972509 0.105317 -0.032520
0.980723 0.095653 -0.032520
-0.078650 0.204878 0.062205
-0.074502 0.204878 -0.038666
0.071813 0.204767 -0.032520
0.159233 0.204087 -0.032520
0.255472 0.214288 -0.032520
0.354325 0.222420 -0.032520
0.454452 0.228514 -0.032520
0.554107 0.232712 -0.032520
0.648465 0.234082 -0.032520
0.733378 0.232187 -0.032520
0.805925 0.227233 -0.032520
0.866309 0.220109 -0.032520
0.915041 0.211482 -0.032520
0.950920 0.201687 -0.032520
0.972509 0.190596 -0.032520
0.980723 0.175900 -0.032520
-0.078650 0.301501 0.067014
-0.075681 0.301501 -0.039645
0.077184 0.301502 -0.032520
0.170132 0.301366 -0.032520
0.255762 0.300646 -0.032520
0.354151 0.311844 -0.032520
0.454452 0.320640 -0.032520
0.554107 0.326486 -0.032520
0.648465 0.328377 -0.032520
0.733378 0.325823 -0.032520
0.805925 0.319040 -0.032520
0.866309 0.309226 -0.032520
0.915041 0.297433 -0.032520
0.950920 0.283974 -0.032520
0.972509 0.268832 -0.032520
0.980723 0.249025 -0.032520
-0.078650 0.401147 0.070042
-0.076421 0.401147 -0.040206
0.081573 0.401147 -0.032520
0.178566 0.401147 -0.032520
0.268413 0.401041 -0.032520
0.355529 0.400560 -0.032520
0.454416 0.410514 -0.032520
0.554107 0.418065 -0.032520
0.648465 0.420528 -0.032520
0.733378 0.417272 -0.032520
0.805925 0.408692 -0.032520
0.866309 0.396276 -0.032520
0.915041 0.381299 -0.032520
0.950920 0.364291 -0.032520
0.972509 0.345106 -0.032520
0.980723 0.320171 -0.032520
-0.078650 0.502490 0.071737
-0.076740 0.502490 -0.040451
0.085095 0.502490 -0.032520
0.184929 0.502490 -0.032520
0.277485 0.502490 -0.032520
0.367720 0.502389 -0.032520
0.457066 0.502350 -0.032520
0.554077 0.508948 -0.032520
0.648465 0.511850 -0.032520
0.733378 0.507924 -0.032520
0.805925 0.497548 -0.032520
0.866309 0.482499 -0.032520
0.915041 0.464426 -0.032520
0.950920 0.443824 -0.032520
0.972509 0.420685 -0.032520
0.980723 0.390601 -0.032520
-0.078650 0.602725 0.072285
-0.076660 0.602725 -0.040434
0.087388 0.602725 -0.032520
0.189086 0.602725 -0.032520
0.283269 0.602725 -0.032520
0.375175 0.602725 -0.032520
0.466228 0.602715 -0.032520
0.557763 0.603338 -0.032520
0.648659 0.603095 -0.032520
0.733378 0.598208 -0.032520
0.805925 0.586053 -0.032520
0.866309 0.568376 -0.032520
0.915041 0.547158 -0.032520
0.950920 0.523013 -0.032520
0.972509 0.495855 -0.032520
0.980723 0.460685 -0.032520
-0.078650 0.696707 0.071549
-0.076214 0.696707 -0.040180
0.087838 0.696707 -0.032520
0.190007 0.696707 -0.032520
0.284539 0.696707 -0.032520
0.376854 0.696707 -0.032520
0.468188 0.696707 -0.032520
0.559411 0.696792 -0.032520
0.652101 0.698090 -0.032520
0.733699 0.688972 -0.032520
0.805925 0.674439 -0.032520
0.866309 0.654175 -0.032520
0.915041 0.629908 -0.032520
0.950920 0.602150 -0.032520
0.972509 0.570990 -0.032520
0.980723 0.530688 -0.032520
-0.078650 0.779721 0.069465
-0.075427 0.779721 -0.039716
0.086258 0.779721 -0.032520
0.187347 0.779721 -0.032520
0.280910 0.779721 -0.032520
0.372254 0.779721 -0.032520
0.462655 0.779721 -0.032520
0.552674 0.779721 -0.032520
0.643080 0.780094 -0.032520
0.735836 0.782209 -0.032520
0.806292 0.763503 -0.032520
0.866309 0.739939 -0.032520
0.915041 0.712526 -0.032520
0.950920 0.681204 -0.032520
0.972509 0.646040 -0.032520
0.980723 0.600614 -0.032520
-0.078650 0.849962 0.065912
-0.074321 0.849963 -0.039044
0.082995 0.849963 -0.032520
0.181699 0.849963 -0.032520
0.273158 0.849963 -0.032520
0.362406 0.849963 -0.032520
0.450789 0.849963 -0.032520
0.538699 0.849963 -0.032520
0.626556 0.849963 -0.032520
0.714893 0.850512 -0.032520
0.806786 0.853638 -0.032520
0.867016 0.826642 -0.032520
0.915041 0.794993 -0.032520
0.950920 0.760178 -0.032520
0.972509 0.721016 -0.032520
0.980723 0.670439 -0.032520
-0.078650 0.909031 0.060499
-0.072899 0.909031 -0.038172
0.078756 0.909031 -0.032520
0.174172 0.909031 -0.032520
0.262885 0.909031 -0.032520
0.349347 0.909031 -0.032520
0.435022 0.909031 -0.032520
0.520242 0.909031 -0.032520
0.605410 0.909031 -0.032520
0.690439 0.909031 -0.032520
0.776157 0.909705 -0.032520
0.866827 0.913651 -0.032520
0.916075 0.879214 -0.032520
0.950920 0.839361 -0.032520
0.972509 0.796192 -0.032520
0.980723 0.740477 -0.032520
-0.078650 0.954849 0.050607
-0.071150 0.954849 -0.037094
0.073887 0.954849 -0.032520
0.165440 0.954849 -0.032520
0.250879 0.954849 -0.032520
0.334230 0.954849 -0.032520
0.416704 0.954849 -0.032520
0.498774 0.954849 -0.032520
0.580682 0.954849 -0.032520
0.662566 0.954849 -0.032520
0.744249 0.954849 -0.032520
0.827441 0.955680 -0.032520
0.916013 0.960522 -0.032520
0.952022 0.919713 -0.032520
0.972509 0.871107 -0.032520
0.980723 0.810210 -0.032520
-0.078650 0.986920 0.030829
-0.069064 0.986920 -0.035796
0.068506 0.986920 -0.032520
0.155594 0.986920 -0.032520
0.237409 0.986920 -0.032520
0.317141 0.986920 -0.032520
0.396130 0.986920 -0.032520
0.474643 0.986920 -0.032520
0.553030 0.986920 -0.032520
0.631342 0.986920 -0.032520
0.709489 0.986920 -0.032520
0.787876 0.986920 -0.032520
0.867640 0.987902 -0.032520
0.953101 0.993111 -0.032520
0.973896 0.946957 -0.032520
0.980723 0.880400 -0.032520
-0.078650 1.004382 -0.006947
-0.066632 1.004382 -0.034264
0.062614 1.004382 -0.032520
0.144573 1.004382 -0.032520
0.222359 1.004382 -0.032520
0.298100 1.004382 -0.032520
0.373068 1.004382 -0.032520
0.447656 1.004382 -0.032520
0.522115 1.004382 -0.032520
0.596482 1.004382 -0.032520
0.670654 1.004382 -0.032520
0.745091 1.004382 -0.032520
0.819197 1.004382 -0.032520
0.896091 1.006103 -0.032520
0.977436 1.015738 -0.032520
0.982336 0.950965 -0.032520
-0.079005 1.080865 -0.073294
-0.067892 1.080865 -0.072999
0.048135 1.080865 -0.073670
0.119172 1.080865 -0.075763
0.187812 1.080865 -0.077772
0.254201 1.080865 -0.078921
0.320066 1.080865 -0.079433
0.386270 1.080865 -0.079391
0.453451 1.080865 -0.078877
0.521733 1.080865 -0.077918
0.591503 1.080865 -0.076537
0.663092 1.080865 -0.074745
0.736311 1.080865 -0.072526
0.812063 1.080865 -0.069837
0.892546 1.082887 -0.066660
0.980598 1.086860 -0.063976
-0.079357 -0.479616 0.142826
-0.052782 -0.479548 0.142826
0.069798 -0.479539 0.142258
0.167032 -0.479539 0.150926
0.266120 -0.479539 0.157155
0.368218 -0.479539 0.162281
0.471853 -0.479539 0.166177
0.574277 -0.479539 0.168671
0.670233 -0.479539 0.169206
0.754991 -0.479539 0.167607
0.826358 -0.479539 0.164168
0.885131 -0.479539 0.159464
0.931001 -0.479539 0.153881
0.962395 -0.479539 0.147448
0.978772 -0.479539 0.140125
0.982336 -0.479539 0.130950
-0.079005 -0.059638 0.135414
-0.073767 -0.077115 0.135414
0.065239 -0.076301 0.134906
0.159604 -0.076301 0.139966
0.255604 -0.076301 0.144509
0.354325 -0.076301 0.148551
0.454452 -0.076301 0.151688
0.554107 -0.076301 0.153758
0.648465 -0.076301 0.154291
0.733378 -0.076301 0.153048
0.805925 -0.076301 0.150166
0.866309 -0.076301 0.146053
0.915041 -0.076301 0.141085
0.950920 -0.076301 0.135343
0.972509 -0.076301 0.128757
0.980723 -0.076301 0.120384
-0.078650 0.107345 0.134542
-0.072986 0.107702 0.134906
0.065218 0.107770 0.135148
0.159604 0.107520 0.135135
0.255604 0.106911 0.135107
0.354325 0.106332 0.135290
0.454452 0.106128 0.135637
0.554107 0.106287 0.136064
0.648465 0.106820 0.136460
0.733378 0.107637 0.136753
0.805925 0.108763 0.136948
0.866309 0.110120 0.137143
0.915041 0.111711 0.137409
0.950920 0.113499 0.137769
0.972509 0.115455 0.138232
0.980723 0.116973 0.138622
-0.078650 0.204878 0.143360
-0.072986 0.204878 0.140162
0.065025 0.204878 0.135283
0.159637 0.204642 0.135414
0.255518 0.210745 0.135414
0.354325 0.215859 0.135414
0.454452 0.219797 0.135414
0.554107 0.222522 0.135414
0.648465 0.223312 0.135414
0.733378 0.221822 0.135414
0.805925 0.218268 0.135414
0.866309 0.213240 0.135414
0.915041 0.207341 0.135414
0.950921 0.200778 0.135414
0.972509 0.193553 0.135414
0.980723 0.184239 0.135414
-0.078650 0.301501 0.149217
-0.072986 0.301501 0.144876
0.064497 0.301502 0.135462
0.166098 0.301427 0.135414
0.255945 0.301002 0.135414
0.354277 0.309582 0.135414
0.454452 0.316432 0.135414
0.554107 0.321039 0.135414
0.648465 0.322332 0.135414
0.733378 0.319816 0.135414
0.805925 0.313719 0.135414
0.866309 0.305112 0.135414
0.915041 0.294901 0.135414
0.950921 0.283439 0.135414
0.972509 0.270708 0.135414
0.980723 0.254308 0.135414
-0.078650 0.401147 0.154051
-0.072986 0.401147 0.149059
0.064001 0.401147 0.135872
0.171288 0.401147 0.135414
0.265583 0.401085 0.135414
0.355573 0.400803 0.135414
0.454470 0.408907 0.135414
0.554107 0.415175 0.135414
0.648465 0.416941 0.135414
0.733378 0.413505 0.135414
0.805925 0.405272 0.135414
0.866309 0.393515 0.135414
0.915041 0.379572 0.135414
0.950921 0.363886 0.135414
0.972509 0.346454 0.135414
0.980723 0.323885 0.135414
-0.078650 0.502490 0.157753
-0.072986 0.502490 0.152336
0.063826 0.502490 0.136445
0.175234 0.502490 0.135414
0.272661 0.502490 0.135414
0.365599 0.502398 0.135414
0.457032 0.502526 0.135414
0.554104 0.507787 0.135414
0.648465 0.509874 0.135414
0.733378 0.505577 0.135414
0.805925 0.495240 0.135414
0.866309 0.480623 0.135414
0.915041 0.463213 0.135414
0.950921 0.443587 0.135414
0.972509 0.421622 0.135414
0.980723 0.393379 0.135414
-0.078650 0.602725 0.160039
-0.072986 0.602725 0.154383
0.063966 0.602725 0.137052
0.177758 0.602725 0.135414
0.277100 0.602725 0.135414
0.371743 0.602725 0.135414
0.464685 0.602763 0.135414
0.557677 0.603447 0.135414
0.648676 0.602271 0.135414
0.733378 0.596896 0.135414
0.805925 0.584586 0.135414
0.866309 0.567114 0.135414
0.915041 0.546334 0.135414
0.950921 0.522887 0.135414
0.972509 0.496626 0.135414
0.980723 0.462801 0.135414
-0.078650 0.696707 0.160444
-0.072986 0.696707 0.154674
0.064409 0.696707 0.137511
0.178163 0.696707 0.135414
0.277801 0.696707 0.135414
0.372749 0.696707 0.135414
0.465787 0.696707 0.135414
0.558238 0.696767 0.135414
0.652045 0.698223 0.135414
0.733624 0.688377 0.135414
0.805925 0.673638 0.135414
0.866309 0.653354 0.135414
0.915041 0.629304 0.135414
0.950921 0.602070 0.135414
0.972509 0.571561 0.135414
0.980723 0.532347 0.135414
-0.078650 0.779721 0.158778
-0.072986 0.779721 0.153051
0.065130 0.779721 0.137766
0.176094 0.779721 0.135414
0.274329 0.779721 0.135414
0.368041 0.779721 0.135414
0.459930 0.779721 0.135414
0.550981 0.779721 0.135414
0.642177 0.780106 0.135414
0.735764 0.782257 0.135414
0.806297 0.763283 0.135414
0.866309 0.739495 0.135414
0.915041 0.712191 0.135414
0.950921 0.681168 0.135414
0.972509 0.646467 0.135414
0.980723 0.601861 0.135414
-0.078650 0.849962 0.155389
-0.072986 0.849963 0.149816
0.066089 0.849962 0.137873
0.172041 0.849963 0.135414
0.267394 0.849963 0.135414
0.358619 0.849963 0.135414
0.448199 0.849963 0.135414
0.536962 0.849963 0.135414
0.625501 0.849963 0.135414
0.714386 0.850518 0.135414
0.806840 0.853649 0.135414
0.867016 0.826461 0.135414
0.915041 0.794824 0.135414
0.950921 0.760147 0.135414
0.972509 0.721308 0.135414
0.980723 0.671459 0.135414
-0.078650 0.909031 0.150864
-0.072986 0.909031 0.145527
0.067268 0.909031 0.137990
0.166844 0.909031 0.135414
0.258415 0.909031 0.135414
0.346360 0.909031 0.135414
0.432917 0.909031 0.135414
0.518802 0.909031 0.135414
0.604312 0.909031 0.135414
0.689729 0.909031 0.135414
0.775899 0.909705 0.135414
0.866679 0.913627 0.135414
0.916069 0.879128 0.135414
0.950921 0.839326 0.135414
0.972509 0.796431 0.135414
0.980723 0.741115 0.135414
-0.078650 0.954849 0.145549
-0.072986 0.954849 0.140492
0.068655 0.954849 0.138193
0.160875 0.954849 0.135414
0.248080 0.954849 0.135414
0.332268 0.954849 0.135414
0.415269 0.954849 0.135414
0.497759 0.954849 0.135414
0.579947 0.954849 0.135414
0.661981 0.954849 0.135414
0.743930 0.954849 0.135414
0.827228 0.955674 0.135414
0.915977 0.960568 0.135414
0.952011 0.919784 0.135414
0.972509 0.871353 0.135414
0.980723 0.810805 0.135414
-0.078650 0.986920 0.139447
-0.072986 0.986920 0.134752
0.070220 0.986920 0.138519
0.154316 0.986920 0.135414
0.236601 0.986920 0.135414
0.316615 0.986920 0.135414
0.395672 0.986920 0.135414
0.474286 0.986920 0.135414
0.552786 0.986920 0.135414
0.631134 0.986920 0.135414
0.709344 0.986920 0.135414
0.787652 0.986920 0.135414
0.867461 0.987892 0.135414
0.952964 0.993148 0.135414
0.973880 0.947012 0.135414
0.980723 0.880760 0.135414
-0.078650 1.004382 0.132483
-0.072986 1.004382 0.128201
0.071962 1.004382 0.138976
0.147183 1.004382 0.135414
0.223962 1.004382 0.135414
0.299190 1.004382 0.135414
0.373867 1.004382 0.135414
0.448229 1.004382 0.135414
0.522565 1.004382 0.135414
0.596773 1.004382 0.135414
0.670903 1.004382 0.135414
0.745212 1.004382 0.135414
0.819250 1.004382 0.135414
0.896032 1.006096 0.135414
0.977382 1.015697 0.135414
0.982316 0.951088 0.135414
-0.079141 1.080865 0.085293
-0.074807 1.080865 0.079898
0.072451 1.080865 0.118171
0.132994 1.080865 0.115344
0.196907 1.080865 0.113960
0.260698 1.080865 0.112599
0.324931 1.080865 0.111982
0.389956 1.080865 0.112032
0.456199 1.080865 0.112658
0.523871 1.080865 0.113788
0.593052 1.080865 0.115348
0.664198 1.080865 0.117276
0.737065 1.080865 0.119502
0.812487 1.080865 0.121970
0.892621 1.082878 0.124647
0.980498 1.086834 0.126693
-0.079616 -0.479658 0.219876
-0.050674 -0.479562 0.219543
0.079514 -0.479539 0.218852
0.165702 -0.479539 0.217971
0.264992 -0.479539 0.227693
0.367501 -0.479539 0.235742
0.471282 -0.479539 0.241925
0.573832 -0.479539 0.245952
0.669886 -0.479539 0.246951
0.754893 -0.479539 0.244645
0.826149 -0.479539 0.239422
0.885087 -0.479539 0.232319
0.930931 -0.479539 0.223876
0.962374 -0.479539 0.214300
0.978747 -0.479539 0.203524
0.982316 -0.479539 0.190106
-0.079141 -0.056070 0.209438
-0.075594 -0.079023 0.209438
0.072029 -0.076727 0.209438
0.159826 -0.076301 0.208790
0.255604 -0.076301 0.216547
0.354325 -0.076301 0.223192
0.454452 -0.076301 0.228448
0.554107 -0.076301 0.232036
0.648465 -0.076301 0.233156
0.733378 -0.076301 0.231436
0.805925 -0.076301 0.227049
0.866309 -0.076301 0.220739
0.915041 -0.076301 0.213179
0.950920 -0.076301 0.204550
0.972509 -0.076301 0.194811
0.980723 -0.076301 0.182382
-0.078650 0.120263 0.209438
-0.073393 0.115440 0.209438
0.064887 0.107553 0.209438
0.159888 0.107763 0.209090
0.255604 0.107763 0.213884
0.354325 0.107763 0.218300
0.454452 0.107763 0.221895
0.554107 0.107763 0.224389
0.648465 0.107763 0.225040
0.733378 0.107763 0.223614
0.805925 0.107763 0.220241
0.866309 0.107763 0.215477
0.915041 0.107763 0.209918
0.950920 0.107763 0.203706
0.972509 0.107763 0.196863
0.980723 0.107763 0.188525
-0.078650 0.204410 0.208587
-0.072986 0.204677 0.208790
0.065218 0.204866 0.209091
0.159604 0.204872 0.209253
0.255604 0.204764 0.209221
0.354325 0.204632 0.209168
0.454452 0.204584 0.209256
0.554107 0.204769 0.209427
0.648465 0.205222 0.209657
0.733378 0.205893 0.209981
0.805925 0.206748 0.210306
0.866309 0.207829 0.210700
0.915041 0.209034 0.211170
0.950920 0.210432 0.211779
0.972509 0.211966 0.212437
0.980723 0.213190 0.212989
-0.078650 0.301501 0.218699
-0.072986 0.301501 0.217187
0.065218 0.301502 0.214420
0.159511 0.301502 0.209602
0.255986 0.301446 0.209438
0.354301 0.305953 0.209438
0.454452 0.309684 0.209438
0.554106 0.312191 0.209438
0.648465 0.312611 0.209438
0.733378 0.310652 0.209438
0.805925 0.306548 0.209438
0.866309 0.300957 0.209438
0.915041 0.294573 0.209438
0.950920 0.287627 0.209438
0.972509 0.280098 0.209438
0.980723 0.270725 0.209438
-0.078650 0.401147 0.226285
-0.072986 0.401147 0.224054
0.065218 0.401147 0.219144
0.159371 0.401147 0.209935
0.260912 0.401139 0.209438
0.355356 0.401022 0.209438
0.454491 0.406468 0.209438
0.554106 0.410697 0.209438
0.648465 0.411312 0.209438
0.733378 0.407847 0.209438
0.805925 0.400742 0.209438
0.866309 0.390867 0.209438
0.915041 0.379418 0.209438
