public/overlays/2.cube
LUT_3D_SIZE 16
-0.120944 -0.120944 -0.116290
-0.111756 -0.120871 -0.116290
0.001495 -0.120596 -0.116290
0.015514 -0.120288 -0.116290
0.050052 -0.120222 -0.116290
0.112725 -0.120356 -0.116290
0.193235 -0.120544 -0.116290
0.288189 -0.120726 -0.116290
0.394617 -0.120896 -0.116290
0.503926 -0.121026 -0.116290
0.606041 -0.121105 -0.116290
0.693454 -0.121139 -0.116290
0.762730 -0.121118 -0.116290
0.817837 -0.121063 -0.116290
0.862601 -0.120978 -0.116290
0.909685 -0.120909 -0.116290
-0.120871 -0.111756 -0.116290
-0.111583 -0.111583 -0.116290
0.001518 -0.113540 -0.116290
0.015514 -0.116348 -0.116290
0.050052 -0.115588 -0.116290
0.112725 -0.115043 -0.116290
0.193235 -0.114518 -0.116290
0.288189 -0.114033 -0.116290
0.394617 -0.113581 -0.116290
0.503926 -0.113259 -0.116290
0.606041 -0.113058 -0.116290
0.693454 -0.112986 -0.116290
0.762730 -0.113037 -0.116290
0.817837 -0.113212 -0.116290
0.862601 -0.113474 -0.116290
0.909685 -0.113926 -0.116290
-0.120596 0.008609 -0.116290
-0.113540 0.008704 -0.116290
0.001973 0.010462 -0.116290
0.015705 -0.071597 -0.116290
0.050052 -0.068833 -0.116290
0.112725 -0.057955 -0.116290
0.193235 -0.040637 -0.116290
0.288189 0.004217 -0.116290
0.394617 0.013615 -0.116290
0.503926 0.019760 -0.116290
0.606041 0.023365 -0.116290
0.693454 0.024530 -0.116290
0.762730 0.023421 -0.116290
0.817837 0.020537 -0.116290
0.862601 0.016432 -0.116290
0.909685 0.010696 -0.116290
-0.120288 0.044429 -0.116290
-0.116348 0.044429 -0.116290
-0.071597 0.044812 -0.116290
0.016014 0.045431 -0.116290
0.050012 0.048274 -0.116290
0.112725 0.059736 -0.116290
0.193235 0.074152 -0.116290
0.288189 0.089238 -0.116290
0.394617 0.103355 -0.116290
0.503926 0.114286 -0.116290
0.606041 0.120596 -0.116290
0.693454 0.122044 -0.116290
0.762730 0.119266 -0.116290
0.817837 0.113891 -0.116290
0.862601 0.107304 -0.116290
0.909685 0.099351 -0.116290
-0.120222 0.100039 -0.116290
-0.115588 0.100039 -0.116290
-0.068833 0.100039 -0.116290
0.017464 0.099995 -0.116290
0.049044 0.098710 -0.116290
0.112413 0.117529 -0.116290
0.193235 0.139037 -0.116290
0.288189 0.160261 -0.116290
0.394617 0.180144 -0.116290
0.503926 0.195614 -0.116290
0.606041 0.204495 -0.116290
0.693454 0.206383 -0.116290
0.762730 0.202301 -0.116290
0.817837 0.194685 -0.116290
0.862601 0.185550 -0.116290
0.909685 0.174704 -0.116290
-0.120356 0.171821 -0.116290
-0.115043 0.171821 -0.116290
-0.057955 0.171821 -0.116290
0.023666 0.171821 -0.116290
0.064292 0.171484 -0.116290
0.110015 0.168812 -0.116290
0.192723 0.199989 -0.116290
0.288189 0.228648 -0.116290
0.394617 0.254550 -0.116290
0.503926 0.274661 -0.116290
0.606041 0.286234 -0.116290
0.693454 0.288646 -0.116290
0.762730 0.283219 -0.116290
0.817837 0.273325 -0.116290
0.862601 0.261483 -0.116290
0.909685 0.247569 -0.116290
-0.120544 0.260334 -0.116290
-0.114518 0.260334 -0.116290
-0.040637 0.260334 -0.116290
0.032209 0.260334 -0.116290
0.083331 0.260334 -0.116290
0.138201 0.259755 -0.116290
0.189383 0.256119 -0.116290
0.287495 0.295716 -0.116290
0.394617 0.329017 -0.116290
0.503926 0.353851 -0.116290
0.606041 0.368174 -0.116290
0.693454 0.371110 -0.116290
0.762730 0.364378 -0.116290
0.817837 0.352113 -0.116290
0.862601 0.337530 -0.116290
0.909685 0.320368 -0.116290
-0.120726 0.363498 -0.116290
-0.114033 0.363498 -0.116290
0.000540 0.363498 -0.116290
0.042143 0.363498 -0.116290
0.102322 0.363498 -0.116290
0.164280 0.363498 -0.116290
0.225724 0.362731 -0.116290
0.283602 0.358515 -0.116290
0.393844 0.402903 -0.116290
0.503926 0.433897 -0.116290
0.606041 0.451025 -0.116290
0.693454 0.454462 -0.116290
0.762730 0.446414 -0.116290
0.817837 0.431719 -0.116290
0.862601 0.414294 -0.116290
0.909685 0.393868 -0.116290
-0.120896 0.478255 -0.116290
-0.113581 0.478255 -0.116290
0.002873 0.478255 -0.116290
0.052613 0.478255 -0.116290
0.120254 0.478255 -0.116290
0.187960 0.478255 -0.116290
0.256379 0.478255 -0.116290
0.324670 0.477422 -0.116290
0.390061 0.473371 -0.116290
0.503273 0.513914 -0.116290
0.606041 0.534867 -0.116290
0.693454 0.538905 -0.116290
0.762730 0.529470 -0.116290
0.817837 0.512357 -0.116290
0.862601 0.491993 -0.116290
0.909685 0.468254 -0.116290
-0.121026 0.595606 -0.116290
-0.113259 0.595606 -0.116290
0.004886 0.595606 -0.116290
0.061517 0.595606 -0.116290
0.134229 0.595606 -0.116290
0.206391 0.595606 -0.116290
0.279331 0.595606 -0.116290
0.353444 0.595606 -0.116290
0.427783 0.594917 -0.116290
0.500357 0.591771 -0.116290
0.605559 0.619054 -0.116290
0.693454 0.624415 -0.116290
0.762730 0.613549 -0.116290
0.817837 0.593936 -0.116290
0.862601 0.570728 -0.116290
0.909685 0.543513 -0.116290
-0.121105 0.704906 -0.116290
-0.113058 0.704906 -0.116290
0.006205 0.704906 -0.116290
0.066974 0.704906 -0.116290
0.142295 0.704906 -0.116290
0.217009 0.704906 -0.116290
0.292550 0.704906 -0.116290
0.369329 0.704906 -0.116290
0.447286 0.704906 -0.116290
0.525822 0.704355 -0.116290
0.604022 0.702776 -0.116290
0.693373 0.710482 -0.116290
0.762730 0.698592 -0.116290
0.817837 0.676479 -0.116290
0.862601 0.650250 -0.116290
0.909685 0.619610 -0.116290
-0.121139 0.798216 -0.116290
-0.112986 0.798216 -0.116290
0.006650 0.798216 -0.116290
0.068250 0.798216 -0.116290
0.144009 0.798216 -0.116290
0.219205 0.798216 -0.116290
0.295270 0.798216 -0.116290
0.372532 0.798216 -0.116290
0.451055 0.798216 -0.116290
0.530825 0.798216 -0.116290
0.611274 0.798163 -0.116290
0.693352 0.798139 -0.116290
0.762903 0.784901 -0.116290
0.817837 0.760059 -0.116290
0.862601 0.730888 -0.116290
0.909685 0.696597 -0.116290
-0.121118 0.872181 -0.116290
-0.113037 0.872181 -0.116290
0.006225 0.872181 -0.116290
0.065805 0.872181 -0.116290
0.140301 0.872181 -0.116290
0.214219 0.872181 -0.116290
0.289047 0.872181 -0.116290
0.365023 0.872181 -0.116290
0.442259 0.872181 -0.116290
0.520680 0.872181 -0.116290
0.600132 0.872181 -0.116290
0.680921 0.872266 -0.116290
0.764121 0.873617 -0.116290
0.818218 0.844895 -0.116290
0.862601 0.812091 -0.116290
0.909685 0.774347 -0.116290
-0.121063 0.928930 -0.116290
-0.113212 0.928930 -0.116290
0.005163 0.928930 -0.116290
0.061187 0.928930 -0.116290
0.133400 0.928930 -0.116290
0.205164 0.928930 -0.116290
0.277682 0.928930 -0.116290
0.351416 0.928930 -0.116290
0.426337 0.928930 -0.116290
0.502407 0.928930 -0.116290
0.579445 0.928930 -0.116290
0.657687 0.928930 -0.116290
0.737141 0.929341 -0.116290
0.820436 0.931477 -0.116290
0.863108 0.895211 -0.116290
0.909685 0.853157 -0.116290
-0.120978 0.969079 -0.116290
-0.113474 0.969079 -0.116290
0.003756 0.969079 -0.116290
0.055753 0.969079 -0.116290
0.125122 0.969079 -0.116290
0.194313 0.969079 -0.116290
0.264217 0.969079 -0.116290
0.335234 0.969079 -0.116290
0.407438 0.969079 -0.116290
0.480710 0.969079 -0.116290
0.554990 0.969079 -0.116290
0.630348 0.969079 -0.116290
0.706436 0.969079 -0.116290
0.784398 0.969458 -0.116290
0.865972 0.971777 -0.116290
0.910358 0.931212 -0.116290
-0.120919 1.068511 -0.118613
-0.113607 1.068511 -0.118537
0.003596 1.068511 -0.118256
0.054046 1.068511 -0.117940
0.121198 1.068511 -0.117873
0.186975 1.068511 -0.118011
0.252320 1.068511 -0.118202
0.317762 1.068511 -0.118395
0.383809 1.068511 -0.118563
0.450828 1.068511 -0.118701
0.519335 1.068511 -0.118781
0.589800 1.068511 -0.118816
0.662333 1.068511 -0.118802
0.737519 1.068511 -0.118735
0.815441 1.069150 -0.118646
0.909738 1.070526 -0.118576
-0.120930 -0.496417 -0.099388
-0.112078 -0.496417 -0.099191
0.000544 -0.496417 -0.102277
0.012456 -0.496417 -0.106953
0.043968 -0.496417 -0.106514
0.105704 -0.496417 -0.105049
0.187784 -0.496417 -0.103250
0.285595 -0.496417 -0.101444
0.395586 -0.496417 -0.099763
0.508230 -0.496417 -0.098456
0.612373 -0.496417 -0.097647
0.700264 -0.496417 -0.097320
0.768720 -0.496417 -0.097488
0.822428 -0.496417 -0.098126
0.864965 -0.496417 -0.099043
0.910358 -0.496417 -0.100105
-0.120944 -0.111756 -0.101978
-0.111756 -0.111756 -0.102077
0.001495 -0.111210 -0.101830
0.015514 -0.110168 -0.101442
0.050052 -0.109966 -0.101360
0.112725 -0.110696 -0.101528
0.193235 -0.111618 -0.101763
0.288189 -0.112529 -0.101998
0.394617 -0.113326 -0.102208
0.503926 -0.113939 -0.102379
0.606041 -0.114323 -0.102476
0.693454 -0.114469 -0.102521
0.762730 -0.114390 -0.102497
0.817837 -0.114126 -0.102426
0.862601 -0.113721 -0.102315
0.909685 -0.113379 -0.102221
-0.120944 0.008609 -0.104622
-0.111210 0.008609 -0.101830
0.001789 0.009768 -0.102279
0.015664 -0.064095 -0.102279
0.050052 -0.059623 -0.102279
0.112725 -0.048157 -0.102279
0.193235 -0.028429 -0.102279
0.288189 0.006840 -0.102279
0.394617 0.013919 -0.102279
0.503926 0.018925 -0.102279
0.606041 0.021887 -0.102279
0.693454 0.022820 -0.102279
0.762730 0.021860 -0.102279
0.817837 0.019464 -0.102279
0.862601 0.016120 -0.102279
0.909685 0.011534 -0.102279
-0.120944 0.044429 -0.108810
-0.110168 0.044429 -0.101442
-0.064095 0.044726 -0.102279
0.015826 0.045051 -0.102279
0.049983 0.049738 -0.102279
0.112725 0.061287 -0.102279
0.193235 0.075321 -0.102279
0.288189 0.089877 -0.102279
0.394617 0.103459 -0.102279
0.503926 0.113973 -0.102279
0.606041 0.120030 -0.102279
0.693454 0.121384 -0.102279
0.762730 0.118670 -0.102279
0.817837 0.113501 -0.102279
0.862601 0.107207 -0.102279
0.909685 0.099639 -0.102279
-0.120944 0.100039 -0.108298
-0.109966 0.100039 -0.101360
-0.059623 0.100039 -0.102279
0.018224 0.099952 -0.102279
0.048909 0.098542 -0.102279
0.112392 0.118138 -0.102279
0.193235 0.139631 -0.102279
0.288189 0.160608 -0.102279
0.394617 0.180225 -0.102279
0.503926 0.195427 -0.102279
0.606041 0.204158 -0.102279
0.693454 0.205975 -0.102279
0.762730 0.201927 -0.102279
0.817837 0.194442 -0.102279
0.862601 0.185473 -0.102279
0.909685 0.174881 -0.102279
-0.120944 0.171821 -0.107030
-0.110696 0.171821 -0.101528
-0.048157 0.171821 -0.102279
0.024546 0.171821 -0.102279
0.064824 0.171453 -0.102279
0.109939 0.168714 -0.102279
0.192713 0.200234 -0.102279
0.288189 0.228871 -0.102279
0.394617 0.254611 -0.102279
0.503926 0.274571 -0.102279
0.606041 0.286037 -0.102279
0.693454 0.288366 -0.102279
0.762730 0.282966 -0.102279
0.817837 0.273133 -0.102279
0.862601 0.261428 -0.102279
0.909685 0.247659 -0.102279
-0.120944 0.260334 -0.105503
-0.111618 0.260334 -0.101763
-0.028429 0.260334 -0.102279
0.032937 0.260334 -0.102279
0.083859 0.260334 -0.102279
0.138428 0.259746 -0.102279
0.189327 0.256050 -0.102279
0.287491 0.295839 -0.102279
0.394617 0.329055 -0.102279
0.503926 0.353844 -0.102279
0.606041 0.368049 -0.102279
0.693454 0.370915 -0.102279
0.762730 0.364202 -0.102279
0.817837 0.352003 -0.102279
0.862601 0.337437 -0.102279
0.909685 0.320501 -0.102279
-0.120944 0.363498 -0.103978
-0.112529 0.363498 -0.101998
0.001077 0.363498 -0.102279
0.042589 0.363498 -0.102279
0.102639 0.363498 -0.102279
0.164472 0.363498 -0.102279
0.225816 0.362725 -0.102279
0.283607 0.358515 -0.102279
0.393843 0.402937 -0.102279
0.503926 0.433871 -0.102279
0.606041 0.450879 -0.102279
0.693454 0.454322 -0.102279
0.762730 0.446284 -0.102279
0.817837 0.431621 -0.102279
0.862601 0.414240 -0.102279
0.909685 0.393929 -0.102279
-0.120944 0.478255 -0.102562
-0.113326 0.478255 -0.102208
0.002964 0.478255 -0.102279
0.052692 0.478255 -0.102279
0.120315 0.478255 -0.102279
0.187989 0.478255 -0.102279
0.256417 0.478255 -0.102279
0.324689 0.477421 -0.102279
0.390069 0.473352 -0.102279
0.503274 0.513930 -0.102279
0.606041 0.534791 -0.102279
0.693454 0.538801 -0.102279
0.762730 0.529346 -0.102279
0.817837 0.512256 -0.102279
0.862601 0.491992 -0.102279
0.909685 0.468313 -0.102279
-0.120944 0.595606 -0.101478
-0.113939 0.595606 -0.102379
0.004595 0.595606 -0.102279
0.061251 0.595606 -0.102279
0.134068 0.595606 -0.102279
0.206311 0.595606 -0.102279
0.279321 0.595606 -0.102279
0.353437 0.595606 -0.102279
0.427796 0.594918 -0.102279
0.500366 0.591778 -0.102279
0.605560 0.619025 -0.102279
0.693454 0.624268 -0.102279
0.762730 0.613457 -0.102279
0.817837 0.593893 -0.102279
0.862601 0.570716 -0.102279
0.909685 0.543548 -0.102279
-0.120944 0.704906 -0.100801
-0.114323 0.704906 -0.102476
0.005653 0.704906 -0.102279
0.066476 0.704906 -0.102279
0.141993 0.704906 -0.102279
0.216804 0.704906 -0.102279
0.292442 0.704906 -0.102279
0.369179 0.704906 -0.102279
0.447225 0.704906 -0.102279
0.525788 0.704357 -0.102279
0.604034 0.702792 -0.102279
0.693375 0.710500 -0.102279
0.762730 0.698614 -0.102279
0.817837 0.676430 -0.102279
0.862601 0.650234 -0.102279
0.909685 0.619644 -0.102279
-0.120944 0.798216 -0.100535
-0.114469 0.798216 -0.102521
0.006000 0.798216 -0.102279
0.067667 0.798216 -0.102279
0.143656 0.798216 -0.102279
0.218977 0.798216 -0.102279
0.295063 0.798216 -0.102279
0.372380 0.798216 -0.102279
0.450950 0.798216 -0.102279
0.530690 0.798216 -0.102279
0.611253 0.798165 -0.102279
0.693360 0.798148 -0.102279
0.762904 0.784999 -0.102279
0.817837 0.760024 -0.102279
0.862601 0.730902 -0.102279
0.909685 0.696601 -0.102279
-0.120944 0.872181 -0.100684
-0.114390 0.872180 -0.102497
0.005644 0.872180 -0.102279
0.065279 0.872180 -0.102279
0.139970 0.872180 -0.102279
0.214014 0.872180 -0.102279
0.288875 0.872180 -0.102279
0.364949 0.872180 -0.102279
0.442197 0.872180 -0.102279
0.520601 0.872180 -0.102279
0.600151 0.872180 -0.102279
0.681046 0.872267 -0.102279
0.764126 0.873622 -0.102279
0.818218 0.844874 -0.102279
0.862601 0.812080 -0.102279
0.909685 0.774370 -0.102279
-0.120944 0.928930 -0.101209
-0.114126 0.928929 -0.102426
0.004782 0.928929 -0.102279
0.060855 0.928929 -0.102279
0.133179 0.928929 -0.102279
0.204983 0.928929 -0.102279
0.277582 0.928929 -0.102279
0.351322 0.928929 -0.102279
0.426231 0.928929 -0.102279
0.502340 0.928929 -0.102279
0.579405 0.928929 -0.102279
0.657657 0.928929 -0.102279
0.737111 0.929342 -0.102279
0.820438 0.931479 -0.102279
0.863108 0.895204 -0.102279
0.909685 0.853173 -0.102279
-0.120944 0.969079 -0.101985
-0.113721 0.969079 -0.102315
0.003655 0.969079 -0.102279
0.055670 0.969079 -0.102279
0.125066 0.969079 -0.102279
0.194252 0.969079 -0.102279
0.264171 0.969079 -0.102279
0.335214 0.969079 -0.102279
0.407394 0.969079 -0.102279
0.480691 0.969079 -0.102279
0.554971 0.969079 -0.102279
0.630332 0.969079 -0.102279
0.706426 0.969079 -0.102279
0.784454 0.969458 -0.102279
0.865970 0.971776 -0.102279
0.910358 0.931220 -0.102279
-0.120871 1.068511 -0.112298
-0.112832 1.068511 -0.111662
0.003893 1.068511 -0.110991
0.054282 1.068511 -0.109620
0.121371 1.068511 -0.109217
0.187087 1.068511 -0.110026
0.252377 1.068511 -0.111128
0.317833 1.068511 -0.112233
0.383875 1.068511 -0.113208
0.450876 1.068511 -0.113962
0.519355 1.068511 -0.114422
0.589841 1.068511 -0.114607
0.662355 1.068511 -0.114518
0.737515 1.068511 -0.114184
0.815418 1.069150 -0.113688
0.909737 1.070525 -0.113266
-0.120787 -0.496379 0.066996
-0.114999 -0.496404 0.066965
0.000579 -0.496417 0.068665
0.012434 -0.496417 -0.023752
0.043940 -0.496417 0.024744
0.105671 -0.496417 0.054856
0.187742 -0.496417 0.067632
0.285570 -0.496417 0.078141
0.395564 -0.496417 0.087159
0.508222 -0.496417 0.093854
0.612459 -0.496417 0.097723
0.700259 -0.496417 0.098717
0.768717 -0.496417 0.097261
0.822426 -0.496417 0.094134
0.864963 -0.496417 0.089998
0.910358 -0.496417 0.085060
-0.120871 -0.114469 0.057289
-0.111583 -0.111583 0.057289
0.001524 -0.111756 0.059571
0.015514 -0.111756 -0.043893
0.050052 -0.111756 -0.027165
0.112725 -0.111756 0.045645
0.193235 -0.111756 0.060479
0.288189 -0.111756 0.070439
0.394617 -0.111756 0.078599
0.503926 -0.111756 0.084566
0.606041 -0.111756 0.088032
0.693455 -0.111756 0.089025
0.762730 -0.111756 0.087793
0.817837 -0.111756 0.084979
0.862601 -0.111756 0.081225
0.909685 -0.111756 0.076639
-0.120944 0.008917 0.060566
-0.111756 0.008726 0.059571
0.001495 0.008609 0.058715
0.015514 0.008051 0.059501
0.050052 0.006215 0.060370
0.112725 0.003130 0.060788
0.193235 -0.021422 0.061305
0.288189 -0.034868 0.061291
0.394617 -0.042316 0.061087
0.503926 -0.046923 0.060746
0.606041 -0.049488 0.060356
0.693454 -0.050408 0.060018
0.762730 -0.049869 0.059878
0.817837 -0.048024 0.060058
0.862601 -0.045115 0.060482
0.909686 -0.042435 0.060687
-0.120944 0.044429 -0.053498
-0.111756 0.044429 -0.043893
0.001358 0.044429 0.059501
0.015243 0.043880 0.057289
0.049890 0.053451 0.057289
0.112725 0.063493 0.057289
0.193235 0.074636 0.057289
0.288189 0.086136 0.057289
0.394617 0.096898 0.057289
0.503926 0.105214 0.057289
0.606041 0.109958 0.057289
0.693454 0.110836 0.057289
0.762730 0.108491 0.057289
0.817837 0.104298 0.057289
0.862601 0.099362 0.057289
0.909685 0.093526 0.057289
-0.120944 0.100039 -0.044754
-0.111756 0.100039 -0.027165
0.000939 0.100039 0.060370
0.020198 0.099837 0.057289
0.048597 0.098132 0.057289
0.112360 0.119085 0.057289
0.193235 0.139391 0.057289
0.288189 0.158702 0.057289
0.394617 0.176640 0.057289
0.503926 0.190497 0.057289
0.606041 0.198371 0.057289
0.693454 0.199852 0.057289
0.762730 0.195954 0.057289
0.817837 0.189010 0.057289
0.862601 0.180825 0.057289
0.909685 0.171230 0.057289
-0.120944 0.171821 0.016349
-0.111756 0.171821 0.045645
0.000353 0.171821 0.060788
0.025815 0.171821 0.057289
0.065642 0.171400 0.057289
0.109869 0.168635 0.057289
0.192710 0.200190 0.057289
0.288189 0.227831 0.057289
0.394617 0.252447 0.057289
0.503926 0.271438 0.057289
0.606041 0.282179 0.057289
0.693454 0.284265 0.057289
0.762730 0.278903 0.057289
0.817837 0.269406 0.057289
0.862601 0.258199 0.057289
0.909685 0.245129 0.057289
-0.120944 0.260334 0.054915
-0.111756 0.260334 0.060479
-0.021422 0.260334 0.061305
0.032509 0.260334 0.057289
0.083642 0.260334 0.057289
0.138386 0.259743 0.057289
0.189400 0.256135 0.057289
0.287508 0.295445 0.057289
0.394617 0.327803 0.057289
0.503926 0.351798 0.057289
0.606041 0.365481 0.057289
0.693454 0.368047 0.057289
0.762730 0.361242 0.057289
0.817837 0.349267 0.057289
0.862601 0.335087 0.057289
0.909685 0.318586 0.057289
-0.120944 0.363498 0.067163
-0.111756 0.363498 0.070439
-0.034868 0.363498 0.061291
0.039990 0.363498 0.057289
0.100933 0.363498 0.057289
0.163527 0.363498 0.057289
0.225465 0.362747 0.057289
0.283683 0.358617 0.057289
0.393824 0.402418 0.057289
0.503926 0.432675 0.057289
0.606041 0.449185 0.057289
0.693454 0.452283 0.057289
0.762730 0.444122 0.057289
0.817837 0.429573 0.057289
0.862601 0.412444 0.057289
0.909685 0.392489 0.057289
-0.120944 0.478255 0.076437
-0.111756 0.478255 0.078599
-0.042316 0.478255 0.061087
0.047681 0.478255 0.057289
0.117077 0.478255 0.057289
0.186022 0.478255 0.057289
0.255253 0.478255 0.057289
0.324219 0.477406 0.057289
0.390192 0.473484 0.057289
0.503297 0.513430 0.057289
0.606041 0.533778 0.057289
0.693454 0.537412 0.057289
0.762730 0.527822 0.057289
0.817837 0.510689 0.057289
0.862601 0.490579 0.057289
0.909685 0.467169 0.057289
-0.120944 0.595606 0.083028
-0.111756 0.595606 0.084566
-0.046923 0.595606 0.060746
0.054079 0.595606 0.057289
0.129605 0.595606 0.057289
0.203420 0.595606 0.057289
0.277415 0.595606 0.057289
0.352285 0.595606 0.057289
0.427324 0.594938 0.057289
0.500512 0.591923 0.057289
0.605572 0.618609 0.057289
0.693454 0.623450 0.057289
0.762730 0.612430 0.057289
0.817837 0.592743 0.057289
0.862601 0.569618 0.057289
0.909685 0.542606 0.057289
-0.120944 0.704906 0.086839
-0.111756 0.704906 0.088032
-0.049488 0.704906 0.060356
0.057906 0.704906 0.057289
0.136728 0.704906 0.057289
0.213285 0.704906 0.057289
0.290036 0.704906 0.057289
0.367579 0.704906 0.057289
0.446270 0.704906 0.057289
0.525373 0.704392 0.057289
0.604073 0.702839 0.057289
0.693392 0.710095 0.057289
0.762730 0.697895 0.057289
0.817837 0.675580 0.057289
0.862601 0.649423 0.057289
0.909685 0.618938 0.057289
-0.120944 0.798216 0.087950
-0.111756 0.798217 0.089025
-0.050408 0.798216 0.060018
0.058631 0.798216 0.057289
0.138080 0.798216 0.057289
0.215181 0.798216 0.057289
0.292416 0.798216 0.057289
0.370506 0.798216 0.057289
0.449652 0.798216 0.057289
0.529932 0.798216 0.057289
0.610892 0.798185 0.057289
0.693415 0.798172 0.057289
0.762918 0.784602 0.057289
0.817837 0.759559 0.057289
0.862601 0.730231 0.057289
0.909685 0.696185 0.057289
-0.120944 0.872181 0.086663
-0.111756 0.872180 0.087793
-0.049869 0.872180 0.059878
0.056713 0.872181 0.057289
0.134532 0.872181 0.057289
0.210266 0.872181 0.057289
0.286175 0.872181 0.057289
0.362885 0.872181 0.057289
0.440738 0.872181 0.057289
0.519614 0.872181 0.057289
0.599472 0.872181 0.057289
0.680679 0.872285 0.057289
0.764202 0.873712 0.057289
0.818230 0.844537 0.057289
0.862601 0.811713 0.057289
0.909685 0.774065 0.057289
-0.120944 0.928930 0.083600
-0.111756 0.928929 0.084979
-0.048024 0.928930 0.060058
0.053359 0.928929 0.057289
0.128244 0.928929 0.057289
0.201556 0.928929 0.057289
0.275079 0.928929 0.057289
0.349400 0.928929 0.057289
0.424808 0.928929 0.057289
0.501268 0.928929 0.057289
0.578655 0.928929 0.057289
0.657226 0.928929 0.057289
0.736880 0.929355 0.057289
0.820497 0.931542 0.057289
0.863117 0.894984 0.057289
0.909685 0.852958 0.057289
-0.120944 0.969079 0.079383
-0.111756 0.969079 0.081225
-0.045115 0.969079 0.060482
0.049538 0.969079 0.057289
0.120846 0.969079 0.057289
0.191288 0.969079 0.057289
0.261973 0.969079 0.057289
0.333515 0.969079 0.057289
0.406098 0.969079 0.057289
0.479683 0.969079 0.057289
0.554199 0.969079 0.057289
0.629748 0.969079 0.057289
0.706118 0.969079 0.057289
0.784219 0.969466 0.057289
0.866013 0.971719 0.057289
0.910365 0.930999 0.057289
-0.120756 1.068511 0.058527
-0.110621 1.068511 0.062249
-0.017235 1.068511 -0.030932
0.050774 1.068511 -0.022302
0.118702 1.068511 -0.028686
0.185182 1.068511 -0.039576
0.250955 1.068511 -0.049895
0.316700 1.068511 -0.058000
0.382989 1.068511 -0.064089
0.450177 1.068511 -0.068301
0.518769 1.068511 -0.070792
0.589415 1.068511 -0.071729
0.662003 1.068511 -0.071265
0.737328 1.068511 -0.069528
0.815371 1.069153 -0.066837
0.909750 1.070533 -0.064427
-0.120555 -0.496344 0.103540
-0.117009 -0.496385 0.103685
-0.076662 -0.496417 0.104012
0.013619 -0.496417 0.104006
0.044386 -0.496417 0.105955
0.106064 -0.496417 0.116560
0.188079 -0.496417 0.129950
0.285815 -0.496417 0.143743
0.395802 -0.496417 0.156721
0.508326 -0.496417 0.166790
0.612517 -0.496417 0.172543
0.700401 -0.496417 0.173690
0.768694 -0.496417 0.171017
0.822440 -0.496417 0.166147
0.864988 -0.496417 0.160270
0.910365 -0.496417 0.153553
-0.120756 -0.115942 0.099108
-0.109500 -0.109500 0.099108
-0.062193 -0.111210 0.099108
0.016092 -0.111756 0.098626
0.050052 -0.111756 0.102120
0.112725 -0.111756 0.112230
0.193235 -0.111756 0.124390
0.288189 -0.111756 0.136723
0.394617 -0.111756 0.148293
0.503926 -0.111756 0.157284
0.606041 -0.111756 0.162525
0.693455 -0.111756 0.163687
0.762730 -0.111756 0.161365
0.817837 -0.111756 0.156954
0.862601 -0.111756 0.151595
0.909685 -0.111756 0.145318
-0.120944 -0.069338 0.099108
-0.111210 -0.062193 0.099108
0.001789 0.009768 0.099108
0.015754 0.008609 0.098546
0.050052 0.008609 0.106829
0.112725 0.008609 0.116255
0.193235 0.008609 0.126678
0.288189 0.008609 0.137060
0.394617 0.008609 0.146722
0.503926 0.008609 0.154205
0.606041 0.008609 0.158485
0.693454 0.008609 0.159290
0.762730 0.008609 0.157180
0.817837 0.008609 0.153405
0.862601 0.008609 0.149006
0.909685 0.008609 0.143992
-0.120944 0.046022 0.098867
-0.111756 0.045579 0.098626
0.001495 0.044906 0.098546
0.015514 0.044429 0.098638
0.050052 0.043996 0.098465
0.112725 0.042670 0.098031
0.193235 0.040920 0.097966
0.288189 0.039263 0.098156
0.394617 0.037842 0.098576
0.503926 0.036752 0.099000
0.606041 0.036098 0.099198
0.693454 0.035904 0.099093
0.762730 0.036142 0.098742
0.817837 0.036745 0.098417
0.862601 0.037593 0.098213
0.909685 0.038294 0.097999
-0.120944 0.100039 0.100925
-0.111756 0.100039 0.102120
0.001495 0.100039 0.106829
0.015299 0.100039 0.098465
0.049554 0.099387 0.099108
0.112517 0.112439 0.099108
0.193235 0.125485 0.099108
0.288189 0.138126 0.099108
0.394617 0.150113 0.099108
0.503926 0.159417 0.099108
0.606041 0.164540 0.099108
0.693454 0.165179 0.099108
0.762730 0.162007 0.099108
0.817837 0.156769 0.099108
0.862601 0.150741 0.099108
0.909685 0.143784 0.099108
-0.120944 0.171821 0.110964
-0.111756 0.171821 0.112230
0.001495 0.171821 0.116255
0.014646 0.171821 0.098031
0.059962 0.171594 0.099108
0.110867 0.169754 0.099108
0.192865 0.194788 0.099108
0.288189 0.217110 0.099108
0.394617 0.237187 0.099108
0.503926 0.252594 0.099108
