public/overlays/2.cube
LUT_3D_SIZE 6
-0.120944 -0.120944 -0.116290
0.015514 -0.120288 -0.116290
0.193235 -0.120544 -0.116290
0.503926 -0.121026 -0.116290
0.762730 -0.121118 -0.116290
0.909685 -0.120909 -0.116290
-0.120288 0.044429 -0.116290
0.016014 0.045431 -0.116290
0.193235 0.074152 -0.116290
0.503926 0.114286 -0.116290
0.762730 0.119266 -0.116290
0.909685 0.099351 -0.116290
-0.120544 0.260334 -0.116290
0.032209 0.260334 -0.116290
0.189383 0.256119 -0.116290
0.503926 0.353851 -0.116290
0.762730 0.364378 -0.116290
0.909685 0.320368 -0.116290
-0.121026 0.595606 -0.116290
0.061517 0.595606 -0.116290
0.279331 0.595606 -0.116290
0.500357 0.591771 -0.116290
0.762730 0.613549 -0.116290
0.909685 0.543513 -0.116290
-0.121118 0.872181 -0.116290
0.065805 0.872181 -0.116290
0.289047 0.872181 -0.116290
0.520680 0.872181 -0.116290
0.764121 0.873617 -0.116290
0.909685 0.774347 -0.116290
-0.120919 1.068511 -0.118613
0.054046 1.068511 -0.117940
0.252320 1.068511 -0.118202
0.450828 1.068511 -0.118701
0.662333 1.068511 -0.118802
0.909738 1.070526 -0.118576
-0.120555 -0.496344 0.103540
0.013619 -0.496417 0.104006
0.188079 -0.496417 0.129950
0.508326 -0.496417 0.166790
0.768694 -0.496417 0.171017
0.910365 -0.496417 0.153553
-0.120944 0.046022 0.098867
0.015514 0.044429 0.098638
0.193235 0.040920 0.097966
0.503926 0.036752 0.099000
0.762730 0.036142 0.098742
0.909685 0.038294 0.097999
-0.120944 0.260334 0.123252
0.013796 0.260334 0.097966
0.190249 0.257084 0.099108
0.503926 0.339964 0.099108
0.762730 0.345790 0.099108
0.909685 0.305118 0.099108
-0.120944 0.595606 0.156722
0.011838 0.595606 0.099000
0.266481 0.595606 0.099108
0.501032 0.592476 0.099108
0.762730 0.606915 0.099108
0.909685 0.536452 0.099108
-0.120944 0.872181 0.160941
0.011559 0.872180 0.098742
0.271854 0.872181 0.099108
0.514459 0.872181 0.099108
0.764308 0.873837 0.099108
0.909685 0.771400 0.099108
-0.120753 1.068511 0.139003
0.015167 1.068511 0.082939
0.238737 1.068511 0.080872
0.444813 1.068511 0.070045
0.659758 1.068511 0.067407
0.909826 1.070555 0.073013
-0.120746 -0.496366 0.284792
0.034682 -0.496417 0.286912
0.195137 -0.496417 0.287997
0.510907 -0.496417 0.374705
0.769466 -0.496417 0.383776
0.910317 -0.496417 0.342349
-0.120944 0.074329 0.277815
0.013028 0.039310 0.277815
0.192382 0.044429 0.275347
0.503926 0.044429 0.345951
0.762730 0.044429 0.351363
0.909685 0.044429 0.315041
-0.120944 0.258814 0.274663
0.015514 0.259384 0.275347
0.193235 0.260334 0.277391
0.503926 0.258899 0.276707
0.762730 0.259457 0.276500
0.909686 0.262152 0.277536
-0.120944 0.595606 0.357023
0.015514 0.595606 0.345951
0.191947 0.595606 0.276707
0.503132 0.594766 0.277815
0.762730 0.580230 0.277815
0.909685 0.518037 0.277815
-0.120944 0.872181 0.366440
0.015514 0.872181 0.351363
0.192446 0.872181 0.276500
0.489581 0.872181 0.277815
0.764871 0.874473 0.277815
0.909685 0.763801 0.277815
-0.120893 1.068511 0.316330
0.013134 1.068511 0.302302
0.191926 1.068511 0.259287
0.424875 1.068511 0.252386
0.651368 1.068511 0.249920
0.909851 1.070657 0.255353
-0.120994 -0.496429 0.596991
0.068300 -0.496417 0.598078
0.287484 -0.496417 0.599721
0.508209 -0.496417 0.594849
0.768640 -0.496417 0.611083
0.910335 -0.496417 0.540704
-0.120944 0.113974 0.578505
0.010484 0.033752 0.578505
0.267122 0.044429 0.578505
0.502227 0.044429 0.576815
0.762730 0.044429 0.589224
0.909685 0.044429 0.522671
-0.120944 0.353428 0.578505
0.015514 0.340658 0.578505
0.190663 0.257517 0.578505
0.503428 0.260334 0.578142
0.762730 0.260334 0.563711
0.909685 0.260334 0.504405
-0.120944 0.593232 0.576277
0.015514 0.593774 0.576815
0.193235 0.595066 0.578142
0.503926 0.595606 0.578571
0.762730 0.597116 0.579341
0.909685 0.600187 0.581491
-0.120944 0.872181 0.595049
0.015514 0.872181 0.589224
0.193235 0.872181 0.563711
0.505329 0.872181 0.579341
0.764491 0.873998 0.578505
0.909685 0.797267 0.578505
-0.120991 1.068511 0.506437
0.011357 1.068511 0.499597
0.183391 1.068511 0.478631
0.500417 1.068511 0.559804
0.683447 1.068511 0.556951
0.909583 1.070251 0.564802
-0.121038 -0.496442 0.862576
0.071992 -0.496417 0.863029
0.294665 -0.496417 0.863488
0.519364 -0.496417 0.861021
0.762243 -0.496417 0.858076
0.910103 -0.496417 0.756875
-0.120944 0.118964 0.845139
0.010072 0.032817 0.845139
0.272579 0.044429 0.845139
0.514000 0.044429 0.845139
0.762982 0.044429 0.847087
0.909685 0.044429 0.747376
-0.120944 0.363755 0.845139
0.015514 0.346577 0.845139
0.191027 0.257897 0.845139
0.488910 0.260334 0.845139
0.763401 0.260334 0.847315
0.909685 0.260334 0.739374
-0.120944 0.612488 0.845139
0.015514 0.606402 0.845139
0.193235 0.579500 0.845139
0.505714 0.597490 0.845139
0.763347 0.595606 0.847003
0.909685 0.595606 0.771575
-0.120944 0.872250 0.846890
0.015514 0.872452 0.847087
0.193235 0.872892 0.847315
0.503926 0.872828 0.847003
0.762730 0.872181 0.845603
0.909685 0.873439 0.847107
-0.120977 1.068511 0.725678
0.011572 1.068511 0.722568
0.184279 1.068511 0.713518
0.503011 1.068511 0.750825
0.762992 1.068511 0.834613
0.909344 1.069200 0.838772
-0.120908 -0.496409 1.000020
0.054739 -0.496417 1.000020
0.253763 -0.496417 1.000020
0.453516 -0.496417 1.000020
0.666455 -0.496417 0.999718
0.910883 -0.496417 0.998274
-0.120944 0.100648 0.992347
0.011420 0.035837 0.992347
0.237473 0.044429 0.992347
0.452995 0.044429 0.992347
0.673856 0.044429 0.992347
0.910883 0.044429 0.987994
-0.120944 0.322999 0.992347
0.015514 0.308494 0.992347
0.194552 0.261760 0.992347
0.433869 0.260334 0.992347
0.666261 0.260334 0.992347
0.910883 0.260334 0.987681
-0.120944 0.547657 0.992347
0.015514 0.540946 0.992347
0.193235 0.520480 0.992347
0.510054 0.602163 0.992347
0.694905 0.595606 0.992347
0.910883 0.595606 0.989177
-0.120944 0.780103 0.992347
0.015514 0.777418 0.992347
0.193235 0.769163 0.992347
0.503926 0.799836 0.992347
0.765168 0.874717 0.992347
0.910511 0.872181 0.991481
-0.120944 1.000031 0.988222
0.015514 1.000031 0.987994
0.193235 1.000031 0.987681
0.503926 1.000031 0.989177
0.762730 0.999919 0.991481
0.909685 0.999717 0.992347
