public/overlays/3.cube
LUT_3D_SIZE 16
-0.080622 -0.081253 -0.073909
-0.065065 -0.081240 -0.073909
0.115295 -0.081204 -0.073909
0.201730 -0.081177 -0.073909
0.271351 -0.081171 -0.073909
0.329622 -0.081168 -0.073909
0.382082 -0.081167 -0.073909
0.433740 -0.081166 -0.073909
0.489346 -0.081169 -0.073909
0.551515 -0.081168 -0.073909
0.617917 -0.081168 -0.073909
0.685731 -0.081168 -0.073909
0.751892 -0.081167 -0.073909
0.815288 -0.081167 -0.073909
0.876321 -0.081168 -0.073909
0.945051 -0.081168 -0.073909
-0.080607 -0.065578 -0.073909
-0.065025 -0.065534 -0.073909
0.115315 -0.066327 -0.073909
0.201730 -0.066433 -0.073909
0.271351 -0.066430 -0.073909
0.329622 -0.066438 -0.073909
0.382082 -0.066443 -0.073909
0.433740 -0.066442 -0.073909
0.489346 -0.066445 -0.073909
0.551515 -0.066445 -0.073909
0.617917 -0.066444 -0.073909
0.685731 -0.066448 -0.073909
0.751892 -0.066448 -0.073909
0.815288 -0.066453 -0.073909
0.876321 -0.066447 -0.073909
0.945051 -0.066446 -0.073909
-0.080573 0.124186 -0.073909
-0.065809 0.124207 -0.073909
0.115367 0.124269 -0.073909
0.201748 0.119910 -0.073909
0.271351 0.114757 -0.073909
0.329622 0.108888 -0.073909
0.382082 0.103720 -0.073909
0.433740 0.100028 -0.073909
0.489346 0.098134 -0.073909
0.551515 0.097891 -0.073909
0.617917 0.098439 -0.073909
0.685731 0.099072 -0.073909
0.751892 0.099406 -0.073909
0.815288 0.099325 -0.073909
0.876321 0.099026 -0.073909
0.945051 0.098528 -0.073909
-0.080547 0.212856 -0.073909
-0.065916 0.212856 -0.073909
0.111032 0.212872 -0.073909
0.201620 0.212896 -0.073909
0.271348 0.204043 -0.073909
0.329622 0.193763 -0.073909
0.382082 0.184769 -0.073909
0.433740 0.178310 -0.073909
0.489346 0.174976 -0.073909
0.551515 0.174567 -0.073909
0.617917 0.175490 -0.073909
0.685731 0.176621 -0.073909
0.751892 0.177212 -0.073909
0.815288 0.177078 -0.073909
0.876321 0.176563 -0.073909
0.945051 0.175674 -0.073909
-0.080540 0.284130 -0.073909
-0.065913 0.284130 -0.073909
0.105943 0.284130 -0.073909
0.192740 0.284135 -0.073909
0.271017 0.284156 -0.073909
0.329624 0.270317 -0.073909
0.382082 0.257803 -0.073909
0.433740 0.248855 -0.073909
0.489346 0.244265 -0.073909
0.551515 0.243686 -0.073909
0.617917 0.244989 -0.073909
0.685731 0.246550 -0.073909
0.751892 0.247381 -0.073909
0.815288 0.247191 -0.073909
0.876321 0.246434 -0.073909
0.945051 0.245221 -0.073909
-0.080538 0.343771 -0.073909
-0.065920 0.343771 -0.073909
0.100180 0.343771 -0.073909
0.182624 0.343771 -0.073909
0.257007 0.343773 -0.073909
0.329035 0.343769 -0.073909
0.382086 0.328530 -0.073909
0.433740 0.317159 -0.073909
0.489346 0.311326 -0.073909
0.551515 0.310599 -0.073909
0.617917 0.312283 -0.073909
0.685731 0.314237 -0.073909
0.751892 0.315295 -0.073909
0.815288 0.315061 -0.073909
0.876321 0.314080 -0.073909
0.945051 0.312531 -0.073909
-0.080537 0.397501 -0.073909
-0.065926 0.397501 -0.073909
0.095164 0.397501 -0.073909
0.173914 0.397501 -0.073909
0.244874 0.397501 -0.073909
0.313609 0.397505 -0.073909
0.381358 0.397520 -0.073909
0.433741 0.384551 -0.073909
0.489346 0.377448 -0.073909
0.551515 0.376545 -0.073909
0.617917 0.378605 -0.073909
0.685731 0.380967 -0.073909
0.751892 0.382228 -0.073909
0.815288 0.381969 -0.073909
0.876321 0.380799 -0.073909
0.945051 0.378920 -0.073909
-0.080536 0.450722 -0.073909
-0.065925 0.450722 -0.073909
0.091635 0.450722 -0.073909
0.167682 0.450722 -0.073909
0.236283 0.450722 -0.073909
0.302691 0.450722 -0.073909
0.368134 0.450722 -0.073909
0.433109 0.450730 -0.073909
0.489349 0.443071 -0.073909
0.551515 0.442058 -0.073909
0.617917 0.444399 -0.073909
0.685731 0.447218 -0.073909
0.751892 0.448708 -0.073909
0.815288 0.448372 -0.073909
0.876321 0.446987 -0.073909
0.945051 0.444804 -0.073909
-0.080535 0.508172 -0.073909
-0.065931 0.508172 -0.073909
0.089888 0.508172 -0.073909
0.164639 0.508172 -0.073909
0.232034 0.508172 -0.073909
0.297267 0.508172 -0.073909
0.361653 0.508172 -0.073909
0.425462 0.508175 -0.073909
0.489079 0.508184 -0.073909
0.551516 0.507275 -0.073909
0.617917 0.509946 -0.073909
0.685731 0.513168 -0.073909
0.751892 0.514892 -0.073909
0.815288 0.514512 -0.073909
0.876321 0.512945 -0.073909
0.945051 0.510445 -0.073909
-0.080535 0.572450 -0.073909
-0.065931 0.572450 -0.073909
0.089729 0.572450 -0.073909
0.164361 0.572450 -0.073909
0.231642 0.572450 -0.073909
0.296814 0.572450 -0.073909
0.361016 0.572450 -0.073909
0.424790 0.572450 -0.073909
0.488301 0.572450 -0.073909
0.551638 0.572451 -0.073909
0.617917 0.575337 -0.073909
0.685731 0.578964 -0.073909
0.751892 0.580870 -0.073909
0.815288 0.580459 -0.073909
0.876321 0.578703 -0.073909
0.945051 0.575872 -0.073909
-0.080535 0.640821 -0.073909
-0.065930 0.640821 -0.073909
0.090280 0.640821 -0.073909
0.165320 0.640821 -0.073909
0.232988 0.640821 -0.073909
0.298492 0.640821 -0.073909
0.363101 0.640821 -0.073909
0.427214 0.640821 -0.073909
0.491035 0.640821 -0.073909
0.554710 0.640821 -0.073909
0.618225 0.640827 -0.073909
0.685733 0.644561 -0.073909
0.751892 0.646701 -0.073909
0.815288 0.646229 -0.073909
0.876321 0.644264 -0.073909
0.945051 0.641110 -0.073909
-0.080535 0.710482 -0.073909
-0.065929 0.710482 -0.073909
0.090888 0.710482 -0.073909
0.166408 0.710482 -0.073909
0.234483 0.710482 -0.073909
0.300406 0.710482 -0.073909
0.365363 0.710482 -0.073909
0.429859 0.710482 -0.073909
0.494124 0.710482 -0.073909
0.558231 0.710482 -0.073909
0.622086 0.710487 -0.073909
0.686005 0.710503 -0.073909
0.751893 0.712564 -0.073909
0.815288 0.711969 -0.073909
0.876321 0.709923 -0.073909
0.945051 0.706405 -0.073909
-0.080534 0.778178 -0.073909
-0.065929 0.778178 -0.073909
0.091196 0.778178 -0.073909
0.166945 0.778178 -0.073909
0.235228 0.778178 -0.073909
0.301347 0.778178 -0.073909
0.366498 0.778178 -0.073909
0.431228 0.778178 -0.073909
0.495648 0.778178 -0.073909
0.559941 0.778178 -0.073909
0.624018 0.778178 -0.073909
0.688094 0.778179 -0.073909
0.751934 0.778190 -0.073909
0.815291 0.777490 -0.073909
0.876321 0.775212 -0.073909
0.945051 0.771435 -0.073909
-0.080534 0.843172 -0.073909
-0.065934 0.843172 -0.073909
0.091089 0.843172 -0.073909
0.166739 0.843172 -0.073909
0.234949 0.843172 -0.073909
0.301021 0.843172 -0.073909
0.366128 0.843172 -0.073909
0.430743 0.843172 -0.073909
0.495113 0.843172 -0.073909
0.559330 0.843172 -0.073909
0.623290 0.843172 -0.073909
0.687305 0.843172 -0.073909
0.751156 0.843174 -0.073909
0.815116 0.843168 -0.073909
0.876317 0.840763 -0.073909
0.945051 0.836652 -0.073909
-0.080535 0.905531 -0.073909
-0.065928 0.905531 -0.073909
0.090764 0.905531 -0.073909
0.166152 0.905531 -0.073909
0.234173 0.905531 -0.073909
0.300000 0.905531 -0.073909
0.364943 0.905531 -0.073909
0.429314 0.905531 -0.073909
0.493479 0.905531 -0.073909
0.557448 0.905531 -0.073909
0.621225 0.905531 -0.073909
0.685098 0.905531 -0.073909
0.748648 0.905531 -0.073909
0.812484 0.905526 -0.073909
0.875852 0.905509 -0.073909
0.945048 0.901547 -0.073909
-0.080553 1.029170 -0.076749
-0.066036 1.029170 -0.076732
0.089938 1.029170 -0.076701
0.164841 1.029170 -0.076676
0.232345 1.029170 -0.076670
0.297724 1.029170 -0.076668
0.362154 1.029170 -0.076667
0.426079 1.029170 -0.076666
0.489772 1.029170 -0.076666
0.553290 1.029170 -0.076665
0.616607 1.029170 -0.076666
0.679975 1.029170 -0.076666
0.743017 1.029170 -0.076666
0.806424 1.029170 -0.076666
0.869435 1.029169 -0.076666
0.942158 1.029167 -0.076666
-0.080599 -0.437151 -0.042175
-0.064959 -0.437151 -0.042107
0.115405 -0.437151 -0.043420
0.201771 -0.437151 -0.043695
0.271389 -0.437151 -0.043765
0.329677 -0.437151 -0.043804
0.382051 -0.437151 -0.043823
0.433753 -0.437151 -0.043829
0.489356 -0.437151 -0.043841
0.551520 -0.437151 -0.043845
0.617919 -0.437151 -0.043846
0.685728 -0.437151 -0.043853
0.751880 -0.437151 -0.043856
0.815323 -0.437151 -0.043863
0.876309 -0.437151 -0.043855
0.945048 -0.437151 -0.043850
-0.080622 -0.065578 -0.047916
-0.065065 -0.065578 -0.047942
0.115295 -0.065569 -0.047905
0.201730 -0.065541 -0.047857
0.271351 -0.065523 -0.047843
0.329622 -0.065517 -0.047840
0.382082 -0.065515 -0.047837
0.433740 -0.065516 -0.047836
0.489346 -0.065514 -0.047839
0.551515 -0.065513 -0.047838
0.617917 -0.065513 -0.047837
0.685731 -0.065512 -0.047837
0.751892 -0.065510 -0.047836
0.815288 -0.065509 -0.047836
0.876322 -0.065511 -0.047836
0.945051 -0.065513 -0.047837
-0.080622 0.124186 -0.048947
-0.065055 0.124186 -0.047905
0.115303 0.124210 -0.047995
0.201737 0.120257 -0.047995
0.271351 0.115191 -0.047995
0.329622 0.109323 -0.047995
0.382082 0.104159 -0.047995
0.433740 0.100457 -0.047995
0.489346 0.098557 -0.047995
0.551515 0.098322 -0.047995
0.617917 0.098868 -0.047995
0.685731 0.099511 -0.047995
0.751892 0.099846 -0.047995
0.815288 0.099769 -0.047995
0.876322 0.099468 -0.047995
0.945051 0.098954 -0.047995
-0.080622 0.212856 -0.049136
-0.065028 0.212856 -0.047857
0.111369 0.212864 -0.047995
0.201609 0.212886 -0.047995
0.271352 0.204165 -0.047995
0.329622 0.193943 -0.047995
0.382082 0.184934 -0.047995
0.433740 0.178473 -0.047995
0.489346 0.175198 -0.047995
0.551515 0.174770 -0.047995
0.617917 0.175698 -0.047995
0.685731 0.176836 -0.047995
0.751892 0.177437 -0.047995
0.815288 0.177306 -0.047995
0.876322 0.176766 -0.047995
0.945051 0.175866 -0.047995
-0.080622 0.284130 -0.049187
-0.065010 0.284130 -0.047843
0.106355 0.284130 -0.047995
0.192844 0.284132 -0.047995
0.271001 0.284139 -0.047995
0.329623 0.270363 -0.047995
0.382082 0.257886 -0.047995
0.433740 0.248955 -0.047995
0.489346 0.244367 -0.047995
0.551515 0.243798 -0.047995
0.617917 0.245101 -0.047995
0.685731 0.246667 -0.047995
0.751892 0.247496 -0.047995
0.815288 0.247309 -0.047995
0.876322 0.246565 -0.047995
0.945051 0.245345 -0.047995
-0.080622 0.343771 -0.049215
-0.065009 0.343771 -0.047840
0.100603 0.343771 -0.047995
0.182798 0.343771 -0.047995
0.257077 0.343772 -0.047995
0.329022 0.343764 -0.047995
0.382083 0.328555 -0.047995
0.433740 0.317216 -0.047995
0.489346 0.311408 -0.047995
0.551515 0.310707 -0.047995
0.617917 0.312343 -0.047995
0.685731 0.314315 -0.047995
0.751892 0.315374 -0.047995
0.815288 0.315145 -0.047995
0.876322 0.314202 -0.047995
0.945051 0.312637 -0.047995
-0.080622 0.397501 -0.049232
-0.065006 0.397501 -0.047837
0.095592 0.397501 -0.047995
0.174049 0.397501 -0.047995
0.244962 0.397501 -0.047995
0.313622 0.397503 -0.047995
0.381346 0.397506 -0.047995
0.433740 0.384557 -0.047995
0.489346 0.377450 -0.047995
0.551515 0.376584 -0.047995
0.617917 0.378597 -0.047995
0.685731 0.381049 -0.047995
0.751892 0.382316 -0.047995
0.815288 0.382020 -0.047995
0.876322 0.380833 -0.047995
0.945051 0.378998 -0.047995
-0.080622 0.450722 -0.049227
-0.065005 0.450722 -0.047836
0.092045 0.450722 -0.047995
0.167875 0.450722 -0.047995
0.236380 0.450722 -0.047995
0.302725 0.450722 -0.047995
0.368141 0.450722 -0.047995
0.433133 0.450726 -0.047995
0.489348 0.443092 -0.047995
0.551515 0.442082 -0.047995
0.617917 0.444442 -0.047995
0.685731 0.447239 -0.047995
0.751892 0.448731 -0.047995
0.815288 0.448382 -0.047995
0.876322 0.447048 -0.047995
0.945051 0.444867 -0.047995
-0.080622 0.508172 -0.049243
-0.065003 0.508172 -0.047839
0.090296 0.508172 -0.047995
0.164799 0.508172 -0.047995
0.232140 0.508172 -0.047995
0.297341 0.508172 -0.047995
0.361676 0.508172 -0.047995
0.425468 0.508174 -0.047995
0.489074 0.508179 -0.047995
0.551515 0.507294 -0.047995
0.617917 0.509979 -0.047995
0.685731 0.513211 -0.047995
0.751892 0.514943 -0.047995
0.815288 0.514499 -0.047995
0.876322 0.512959 -0.047995
0.945051 0.510473 -0.047995
-0.080622 0.572450 -0.049243
-0.065002 0.572450 -0.047838
0.090149 0.572450 -0.047995
0.164537 0.572450 -0.047995
0.231762 0.572450 -0.047995
0.296861 0.572450 -0.047995
0.361046 0.572450 -0.047995
0.424822 0.572450 -0.047995
0.488319 0.572450 -0.047995
0.551636 0.572449 -0.047995
0.617917 0.575346 -0.047995
0.685731 0.578979 -0.047995
0.751892 0.580909 -0.047995
0.815288 0.580481 -0.047995
0.876322 0.578727 -0.047995
0.945051 0.575898 -0.047995
-0.080622 0.640821 -0.049243
-0.065001 0.640821 -0.047837
0.090696 0.640821 -0.047995
0.165499 0.640821 -0.047995
0.233098 0.640821 -0.047995
0.298571 0.640821 -0.047995
0.363168 0.640821 -0.047995
0.427218 0.640821 -0.047995
0.491027 0.640821 -0.047995
0.554721 0.640821 -0.047995
0.618223 0.640825 -0.047995
0.685732 0.644530 -0.047995
0.751892 0.646715 -0.047995
0.815288 0.646248 -0.047995
0.876322 0.644286 -0.047995
0.945051 0.641135 -0.047995
-0.080622 0.710482 -0.049251
-0.065000 0.710482 -0.047837
0.091313 0.710482 -0.047995
0.166583 0.710482 -0.047995
0.234603 0.710482 -0.047995
0.300481 0.710482 -0.047995
0.365478 0.710482 -0.047995
0.429901 0.710482 -0.047995
0.494169 0.710482 -0.047995
0.558251 0.710482 -0.047995
0.622094 0.710485 -0.047995
0.686003 0.710499 -0.047995
0.751893 0.712579 -0.047995
0.815288 0.711996 -0.047995
0.876322 0.709962 -0.047995
0.945051 0.706435 -0.047995
-0.080622 0.778178 -0.049255
-0.064998 0.778178 -0.047836
0.091620 0.778178 -0.047995
0.167137 0.778178 -0.047995
0.235338 0.778178 -0.047995
0.301434 0.778178 -0.047995
0.366600 0.778178 -0.047995
0.431263 0.778178 -0.047995
0.495669 0.778178 -0.047995
0.559967 0.778178 -0.047995
0.624031 0.778178 -0.047995
0.688087 0.778179 -0.047995
0.751932 0.778188 -0.047995
0.815290 0.777497 -0.047995
0.876322 0.775224 -0.047995
0.945051 0.771451 -0.047995
-0.080622 0.843172 -0.049260
-0.064998 0.843172 -0.047836
0.091512 0.843172 -0.047995
0.166938 0.843172 -0.047995
0.235084 0.843172 -0.047995
0.301086 0.843172 -0.047995
0.366141 0.843172 -0.047995
0.430786 0.843172 -0.047995
0.495165 0.843172 -0.047995
0.559351 0.843172 -0.047995
0.623307 0.843172 -0.047995
0.687325 0.843172 -0.047995
0.751163 0.843174 -0.047995
0.815114 0.843166 -0.047995
0.876317 0.840769 -0.047995
0.945051 0.836663 -0.047995
-0.080622 0.905531 -0.049253
-0.064999 0.905531 -0.047836
0.091197 0.905531 -0.047995
0.166352 0.905531 -0.047995
0.234281 0.905531 -0.047995
0.300078 0.905531 -0.047995
0.364906 0.905531 -0.047995
0.429372 0.905531 -0.047995
0.493494 0.905531 -0.047995
0.557483 0.905531 -0.047995
0.621245 0.905531 -0.047995
0.685115 0.905531 -0.047995
0.748664 0.905531 -0.047995
0.812490 0.905527 -0.047995
0.875851 0.905507 -0.047995
0.945048 0.901555 -0.047995
-0.080607 1.029170 -0.066421
-0.064974 1.029170 -0.065446
0.090436 1.029170 -0.065499
0.165050 1.029170 -0.065443
0.232469 1.029170 -0.065397
0.297810 1.029170 -0.065384
0.362239 1.029170 -0.065375
0.426132 1.029170 -0.065370
0.489802 1.029170 -0.065370
0.553333 1.029170 -0.065367
0.616660 1.029170 -0.065366
0.679999 1.029170 -0.065364
0.743045 1.029170 -0.065362
0.806437 1.029170 -0.065361
0.869442 1.029169 -0.065362
0.942157 1.029167 -0.065364
-0.080590 -0.437146 0.105093
-0.065874 -0.437149 0.105060
0.114986 -0.437151 0.105087
0.201766 -0.437151 0.100478
0.271357 -0.437151 0.094381
0.329629 -0.437151 0.087566
0.382095 -0.437151 0.081710
0.433745 -0.437151 0.077615
0.489348 -0.437151 0.075531
0.551515 -0.437151 0.075264
0.617916 -0.437151 0.075847
0.685724 -0.437151 0.076555
0.751877 -0.437151 0.076934
0.815321 -0.437151 0.076838
0.876308 -0.437151 0.076500
0.945048 -0.437151 0.075950
-0.080607 -0.066368 0.095677
-0.065025 -0.065534 0.095677
0.115207 -0.065578 0.095685
0.201730 -0.065578 0.091554
0.271351 -0.065578 0.086120
0.329622 -0.065578 0.079933
0.382082 -0.065578 0.074612
0.433740 -0.065578 0.070875
0.489346 -0.065578 0.068981
0.551515 -0.065578 0.068748
0.617917 -0.065578 0.069276
0.685731 -0.065578 0.069926
0.751892 -0.065578 0.070269
0.815288 -0.065578 0.070197
0.876322 -0.065578 0.069886
0.945051 -0.065578 0.069383
-0.080622 0.124142 0.095717
-0.065065 0.124110 0.095685
0.115295 0.124181 0.095687
0.201730 0.124183 0.095511
0.271351 0.124182 0.095249
0.329622 0.124179 0.094977
0.382082 0.124178 0.094735
0.433740 0.124178 0.094584
0.489346 0.124180 0.094512
0.551515 0.124181 0.094506
0.617917 0.124181 0.094525
0.685731 0.124179 0.094566
0.751892 0.124182 0.094590
0.815288 0.124183 0.094589
0.876321 0.124179 0.094566
0.945051 0.124179 0.094552
-0.080622 0.212856 0.091092
-0.065065 0.212856 0.091458
0.115306 0.212856 0.095432
0.201623 0.212853 0.095677
0.271350 0.206909 0.095677
0.329622 0.200002 0.095677
0.382082 0.194133 0.095677
0.433740 0.190115 0.095677
0.489346 0.188154 0.095677
0.551515 0.188108 0.095677
0.617917 0.188857 0.095677
0.685731 0.189704 0.095677
0.751892 0.190174 0.095677
0.815288 0.190128 0.095677
0.876321 0.189798 0.095677
0.945051 0.189277 0.095677
-0.080622 0.284130 0.085500
-0.065065 0.284130 0.085950
0.115309 0.284130 0.095083
0.195715 0.284130 0.095677
0.271048 0.284129 0.095677
0.329622 0.272620 0.095677
0.382082 0.262441 0.095677
0.433740 0.255375 0.095677
0.489346 0.251951 0.095677
0.551515 0.251828 0.095677
0.617917 0.253167 0.095677
0.685731 0.254662 0.095677
0.751892 0.255468 0.095677
0.815288 0.255405 0.095677
0.876321 0.254847 0.095677
0.945051 0.253885 0.095677
-0.080622 0.343771 0.079261
-0.065065 0.343771 0.079708
0.115306 0.343771 0.094701
0.188983 0.343771 0.095677
0.259440 0.343771 0.095677
0.329076 0.343771 0.095677
0.382082 0.330394 0.095677
0.433740 0.320678 0.095677
0.489346 0.315961 0.095677
0.551515 0.315780 0.095677
0.617917 0.317643 0.095677
0.685731 0.319693 0.095677
0.751892 0.320828 0.095677
0.815288 0.320721 0.095677
0.876321 0.319939 0.095677
0.945051 0.318615 0.095677
-0.080622 0.397501 0.073973
-0.065065 0.397501 0.074409
0.115306 0.397501 0.094384
0.183345 0.397501 0.095677
0.249615 0.397501 0.095677
0.315572 0.397501 0.095677
0.381426 0.397498 0.095677
0.433740 0.385955 0.095677
0.489346 0.380041 0.095677
0.551515 0.379871 0.095677
0.617917 0.382181 0.095677
0.685731 0.384743 0.095677
0.751892 0.386142 0.095677
0.815288 0.386095 0.095677
0.876321 0.385090 0.095677
0.945051 0.383375 0.095677
-0.080622 0.450722 0.070302
-0.065065 0.450722 0.070729
0.115306 0.450722 0.094181
0.179515 0.450722 0.095677
0.242854 0.450722 0.095677
0.306276 0.450722 0.095677
0.369723 0.450721 0.095677
0.433186 0.450723 0.095677
0.489348 0.444212 0.095677
0.551515 0.443944 0.095677
0.617917 0.446742 0.095677
0.685731 0.449793 0.095677
0.751892 0.451509 0.095677
0.815288 0.451353 0.095677
0.876321 0.450197 0.095677
0.945051 0.448207 0.095677
-0.080622 0.508172 0.068498
-0.065065 0.508172 0.068928
0.115308 0.508172 0.094089
0.177751 0.508172 0.095677
0.239730 0.508172 0.095677
0.301952 0.508172 0.095677
0.364326 0.508172 0.095677
0.426700 0.508174 0.095677
0.489116 0.508176 0.095677
0.551515 0.508070 0.095677
0.617917 0.511342 0.095677
0.685731 0.514943 0.095677
0.751892 0.516853 0.095677
0.815288 0.516750 0.095677
0.876321 0.515376 0.095677
0.945051 0.513027 0.095677
-0.080622 0.572450 0.068338
-0.065065 0.572450 0.068760
0.115308 0.572450 0.094090
0.177774 0.572450 0.095677
0.239751 0.572450 0.095677
0.301995 0.572450 0.095677
0.364332 0.572450 0.095677
0.426752 0.572450 0.095677
0.489213 0.572450 0.095677
0.551651 0.572448 0.095677
0.617917 0.575953 0.095677
0.685731 0.579989 0.095677
0.751892 0.582221 0.095677
0.815288 0.582026 0.095677
0.876321 0.580503 0.095677
0.945051 0.577874 0.095677
-0.080622 0.640821 0.068905
-0.065065 0.640821 0.069332
0.115308 0.640821 0.094135
0.178547 0.640821 0.095677
0.241103 0.640821 0.095677
0.303867 0.640821 0.095677
0.366710 0.640821 0.095677
0.429538 0.640821 0.095677
0.492461 0.640821 0.095677
0.555364 0.640821 0.095677
0.618238 0.640823 0.095677
0.685732 0.645009 0.095677
0.751892 0.647513 0.095677
0.815288 0.647321 0.095677
0.876321 0.645569 0.095677
0.945051 0.642674 0.095677
-0.080622 0.710482 0.069528
-0.065065 0.710482 0.069976
0.115311 0.710482 0.094170
0.179351 0.710482 0.095677
0.242536 0.710482 0.095677
0.305805 0.710482 0.095677
0.369167 0.710482 0.095677
0.432519 0.710482 0.095677
0.495932 0.710482 0.095677
0.559331 0.710482 0.095677
0.622595 0.710485 0.095677
0.686094 0.710497 0.095677
0.751892 0.712918 0.095677
0.815288 0.712687 0.095677
0.876321 0.710735 0.095677
0.945051 0.707637 0.095677
-0.080622 0.778178 0.069847
-0.065065 0.778178 0.070287
0.115306 0.778178 0.094192
0.179757 0.778178 0.095677
0.243275 0.778178 0.095677
0.306861 0.778178 0.095677
0.370498 0.778178 0.095677
0.434047 0.778178 0.095677
0.497693 0.778178 0.095677
0.561287 0.778178 0.095677
0.624874 0.778178 0.095677
0.688498 0.778179 0.095677
0.751961 0.778187 0.095677
0.815290 0.777870 0.095677
0.876321 0.775714 0.095677
0.945051 0.772283 0.095677
-0.080622 0.843172 0.069725
-0.065065 0.843172 0.070173
0.115307 0.843172 0.094197
0.179674 0.843172 0.095677
0.243137 0.843172 0.095677
0.306666 0.843172 0.095677
0.370230 0.843172 0.095677
0.433758 0.843172 0.095677
0.497335 0.843172 0.095677
0.560919 0.843172 0.095677
0.624434 0.843172 0.095677
0.688062 0.843172 0.095677
0.751506 0.843174 0.095677
0.815117 0.843165 0.095677
0.876316 0.841051 0.095677
0.945051 0.837206 0.095677
-0.080622 0.905531 0.069396
-0.065065 0.905531 0.069839
0.115311 0.905531 0.094169
0.179350 0.905531 0.095677
0.242534 0.905531 0.095677
0.305828 0.905531 0.095677
0.369191 0.905531 0.095677
0.432520 0.905531 0.095677
0.495924 0.905531 0.095677
0.559322 0.905531 0.095677
0.622558 0.905531 0.095677
0.686075 0.905531 0.095677
0.749262 0.905531 0.095677
0.812796 0.905526 0.095677
0.875896 0.905506 0.095677
0.945048 0.901768 0.095677
-0.080601 1.029170 0.052675
-0.064985 1.029170 0.053223
0.109202 1.029170 0.074392
0.174335 1.029170 0.074378
0.238372 1.029170 0.074406
0.301926 1.029170 0.074439
0.365252 1.029170 0.074452
0.428443 1.029170 0.074462
0.491611 1.029170 0.074476
0.554738 1.029170 0.074483
0.617734 1.029170 0.074487
0.680820 1.029170 0.074485
0.743624 1.029170 0.074486
0.806778 1.029170 0.074489
0.869739 1.029169 0.074484
0.942285 1.029166 0.074484
-0.080582 -0.437144 0.194043
-0.066038 -0.437149 0.194035
0.110830 -0.437151 0.194023
0.201389 -0.437151 0.194036
0.271350 -0.437151 0.184242
0.329622 -0.437151 0.172615
0.382082 -0.437151 0.162389
0.433740 -0.437151 0.155066
0.489377 -0.437151 0.151322
0.551512 -0.437151 0.150846
0.617914 -0.437151 0.151928
0.685722 -0.437151 0.153190
0.751876 -0.437151 0.153880
0.815320 -0.437151 0.153732
0.876307 -0.437151 0.153091
0.945048 -0.437151 0.152092
-0.080601 -0.066477 0.185042
-0.064958 -0.065472 0.185042
0.111715 -0.065569 0.185042
0.201762 -0.065578 0.184593
0.271351 -0.065578 0.174976
0.329622 -0.065578 0.163867
0.382082 -0.065578 0.154044
0.433740 -0.065578 0.147058
0.489346 -0.065578 0.143452
0.551515 -0.065578 0.142995
0.617917 -0.065578 0.144026
0.685731 -0.065578 0.145266
0.751892 -0.065578 0.145903
0.815288 -0.065578 0.145763
0.876322 -0.065578 0.145172
0.945051 -0.065578 0.144222
-0.080622 0.120108 0.185042
-0.065055 0.120526 0.185042
0.115318 0.124144 0.185042
0.201737 0.124186 0.184742
0.271351 0.124186 0.178199
0.329622 0.124186 0.170756
0.382082 0.124186 0.164460
0.433740 0.124186 0.160095
0.489346 0.124186 0.157989
0.551515 0.124186 0.157898
0.617917 0.124186 0.158730
0.685731 0.124186 0.159623
0.751892 0.124186 0.160102
0.815288 0.124186 0.160082
0.876321 0.124186 0.159745
0.945051 0.124186 0.159140
-0.080622 0.212886 0.184435
-0.065065 0.212888 0.184413
0.115295 0.212864 0.184610
0.201726 0.212856 0.185040
0.271351 0.212289 0.185039
0.329622 0.211713 0.185038
0.382082 0.211240 0.185037
0.433740 0.210947 0.185037
0.489346 0.210818 0.185038
0.551515 0.210841 0.185038
0.617917 0.210947 0.185038
0.685731 0.211018 0.185040
0.751892 0.211086 0.185041
0.815288 0.211081 0.185042
0.876322 0.211071 0.185040
0.945051 0.211000 0.185038
-0.080622 0.284130 0.174509
-0.065065 0.284130 0.174648
0.115295 0.284130 0.177924
0.201320 0.284130 0.185039
0.271162 0.284131 0.185042
0.329622 0.277176 0.185042
0.382082 0.271372 0.185042
0.433740 0.267627 0.185042
0.489346 0.266106 0.185042
0.551515 0.266479 0.185042
0.617917 0.267628 0.185042
0.685731 0.268739 0.185042
0.751892 0.269405 0.185042
0.815288 0.269448 0.185042
0.876321 0.269188 0.185042
0.945051 0.268667 0.185042
-0.080622 0.343771 0.163260
-0.065065 0.343771 0.163446
0.115295 0.343771 0.170387
0.200865 0.343771 0.185038
0.264230 0.343771 0.185042
0.329228 0.343772 0.185042
0.382082 0.334082 0.185042
0.433740 0.327468 0.185042
0.489346 0.324732 0.185042
0.551515 0.325391 0.185042
0.617917 0.327415 0.185042
0.685731 0.329439 0.185042
