public/overlays/3.cube
LUT_3D_SIZE 6
-0.080622 -0.081253 -0.073909
0.201730 -0.081177 -0.073909
0.382082 -0.081167 -0.073909
0.551515 -0.081168 -0.073909
0.751892 -0.081167 -0.073909
0.945051 -0.081168 -0.073909
-0.080547 0.212856 -0.073909
0.201620 0.212896 -0.073909
0.382082 0.184769 -0.073909
0.551515 0.174567 -0.073909
0.751892 0.177212 -0.073909
0.945051 0.175674 -0.073909
-0.080537 0.397501 -0.073909
0.173914 0.397501 -0.073909
0.381358 0.397520 -0.073909
0.551515 0.376545 -0.073909
0.751892 0.382228 -0.073909
0.945051 0.378920 -0.073909
-0.080535 0.572450 -0.073909
0.164361 0.572450 -0.073909
0.361016 0.572450 -0.073909
0.551638 0.572451 -0.073909
0.751892 0.580870 -0.073909
0.945051 0.575872 -0.073909
-0.080534 0.778178 -0.073909
0.166945 0.778178 -0.073909
0.366498 0.778178 -0.073909
0.559941 0.778178 -0.073909
0.751934 0.778190 -0.073909
0.945051 0.771435 -0.073909
-0.080553 1.029170 -0.076749
0.164841 1.029170 -0.076676
0.362154 1.029170 -0.076667
0.553290 1.029170 -0.076665
0.743017 1.029170 -0.076666
0.942158 1.029167 -0.076666
-0.080582 -0.437144 0.194043
0.201389 -0.437151 0.194036
0.382082 -0.437151 0.162389
0.551512 -0.437151 0.150846
0.751876 -0.437151 0.153880
0.945048 -0.437151 0.152092
-0.080622 0.212886 0.184435
0.201726 0.212856 0.185040
0.382082 0.211240 0.185037
0.551515 0.210841 0.185038
0.751892 0.211086 0.185041
0.945051 0.211000 0.185038
-0.080622 0.397501 0.153478
0.200543 0.397501 0.185037
0.381574 0.397500 0.185042
0.551515 0.386002 0.185042
0.751892 0.393172 0.185042
0.945051 0.391363 0.185042
-0.080622 0.572450 0.142825
0.200278 0.572450 0.185038
0.370514 0.572450 0.185042
0.551756 0.572448 0.185042
0.751892 0.584650 0.185042
0.945051 0.581494 0.185042
-0.080622 0.778178 0.145676
0.200444 0.778178 0.185041
0.377444 0.778178 0.185042
0.563804 0.778178 0.185042
0.752046 0.778187 0.185042
0.945051 0.773546 0.185042
-0.080600 1.029170 0.129230
0.196122 1.029170 0.169259
0.373188 1.029170 0.169304
0.558387 1.029170 0.169302
0.745276 1.029170 0.169321
0.942470 1.029167 0.169314
-0.080578 -0.437144 0.388859
0.175158 -0.437151 0.388826
0.382092 -0.437151 0.386464
0.551513 -0.437151 0.362887
0.751876 -0.437151 0.369036
0.945048 -0.437151 0.365414
-0.080622 0.186765 0.381685
0.201729 0.212467 0.381685
0.382083 0.212856 0.378690
0.551515 0.212856 0.366872
0.751892 0.212856 0.374342
0.945051 0.212856 0.372528
-0.080622 0.397515 0.376326
0.201730 0.397502 0.378049
0.382081 0.397501 0.381684
0.551515 0.398250 0.381686
0.751892 0.399877 0.381689
0.945051 0.399655 0.381685
-0.080622 0.572450 0.354115
0.201730 0.572450 0.366824
0.382700 0.572450 0.381686
0.551998 0.572448 0.381685
0.751892 0.587016 0.381685
0.945051 0.585362 0.381685
-0.080622 0.778178 0.360095
0.201730 0.778178 0.374175
0.384012 0.778178 0.381689
0.566159 0.778178 0.381685
0.752126 0.778186 0.381685
0.945051 0.775158 0.381685
-0.080599 1.029170 0.343663
0.201756 1.029170 0.360589
0.384623 1.029170 0.372362
0.563862 1.029170 0.372355
0.747625 1.029170 0.372373
0.942838 1.029166 0.372365
-0.080577 -0.437144 0.569475
0.164178 -0.437151 0.569465
0.360741 -0.437151 0.569464
0.551516 -0.437151 0.569721
0.751877 -0.437151 0.578956
0.945048 -0.437151 0.573574
-0.080622 0.174473 0.560159
0.201731 0.212336 0.560159
0.370218 0.212856 0.560159
0.551514 0.212856 0.561664
0.751892 0.212856 0.575038
0.945051 0.212856 0.571879
-0.080622 0.376424 0.560159
0.201730 0.385623 0.560159
0.382089 0.397617 0.560159
0.551514 0.397501 0.562980
0.751892 0.397501 0.576834
0.945051 0.397501 0.575014
-0.080622 0.572451 0.560657
0.201730 0.572449 0.561958
0.382082 0.572449 0.563535
0.551544 0.572450 0.560158
0.751892 0.574039 0.560164
0.945051 0.572694 0.560159
-0.080622 0.778178 0.569707
0.201730 0.778178 0.575156
0.382082 0.778178 0.577150
0.552901 0.778178 0.560164
0.751804 0.778184 0.560159
0.945051 0.770178 0.560159
-0.080599 1.029170 0.551455
0.201768 1.029170 0.559494
0.382043 1.029170 0.563672
0.551761 1.029170 0.549399
0.742400 1.029170 0.549405
0.942118 1.029167 0.549391
-0.080577 -0.437144 0.786858
0.166669 -0.437151 0.786849
0.366109 -0.437151 0.786848
0.559281 -0.437151 0.786852
0.751886 -0.437151 0.787699
0.945048 -0.437151 0.780581
-0.080622 0.176943 0.777111
0.201736 0.212394 0.777111
0.377331 0.212856 0.777111
0.562680 0.212856 0.777111
0.751895 0.212856 0.778829
0.945051 0.212856 0.774451
-0.080622 0.381761 0.777111
0.201730 0.392982 0.777111
0.382093 0.397886 0.777111
0.564105 0.397501 0.777111
0.751894 0.397501 0.779163
0.945051 0.397501 0.775918
-0.080622 0.580099 0.777111
0.201730 0.583593 0.777111
0.382082 0.585155 0.777111
0.551521 0.572659 0.777111
0.751893 0.572450 0.776665
0.945051 0.572450 0.769097
-0.080622 0.778183 0.778328
0.201730 0.778182 0.779114
0.382082 0.778181 0.779258
0.551515 0.778179 0.776538
0.751829 0.778178 0.777115
0.945051 0.775551 0.777095
-0.080599 1.029170 0.757873
0.201751 1.029170 0.761592
0.382068 1.029170 0.763509
0.551532 1.029170 0.756798
0.748469 1.029170 0.765703
0.942871 1.029168 0.765673
-0.080577 -0.437144 0.971969
0.165886 -0.437151 0.971968
0.364334 -0.437151 0.971968
0.556732 -0.437151 0.971968
0.747683 -0.437151 0.971973
0.945042 -0.437151 0.970093
-0.080622 0.176340 0.966655
0.201729 0.212385 0.966655
0.377283 0.212856 0.966655
0.562565 0.212856 0.966655
0.750053 0.212856 0.966655
0.945037 0.212856 0.964576
-0.080622 0.380351 0.966655
0.201730 0.392886 0.966655
0.382085 0.397899 0.966655
0.564516 0.397501 0.966655
0.750659 0.397501 0.966655
0.945037 0.397501 0.964736
-0.080622 0.578019 0.966655
0.201730 0.583432 0.966655
0.382082 0.585669 0.966655
0.551515 0.572488 0.966655
0.746224 0.572450 0.966655
0.945038 0.572450 0.963895
-0.080622 0.774240 0.966655
0.201730 0.776088 0.966655
0.382082 0.776783 0.966655
0.551515 0.772411 0.966655
0.751873 0.777959 0.966655
0.945045 0.778178 0.965407
-0.080622 0.976101 0.963791
0.201730 0.976100 0.964356
0.382082 0.976100 0.964532
0.551515 0.976100 0.963552
0.751892 0.976108 0.965210
0.944964 0.976115 0.966655
