public/overlays/4.cube
LUT_3D_SIZE 6
-0.080435 -0.082580 -0.071864
0.104557 -0.082782 -0.071864
0.396851 -0.084358 -0.071864
0.684792 -0.084717 -0.071864
0.890397 -0.083758 -0.071864
1.033567 -0.082617 -0.071864
-0.080624 0.179718 -0.071864
0.103370 0.177579 -0.071864
0.396851 0.225061 -0.071864
0.684792 0.234963 -0.071864
0.890397 0.220191 -0.071864
1.033567 0.198487 -0.071864
-0.082124 0.467032 -0.071864
0.151580 0.467032 -0.071864
0.395016 0.464286 -0.071864
0.684792 0.488942 -0.071864
0.890397 0.458734 -0.071864
1.033567 0.414584 -0.071864
-0.082459 0.747457 -0.071864
0.161485 0.747457 -0.071864
0.420965 0.747457 -0.071864
0.687725 0.749217 -0.071864
0.890397 0.699310 -0.071864
1.033567 0.631455 -0.071864
-0.081540 0.946085 -0.071864
0.146422 0.946085 -0.071864
0.389772 0.946085 -0.071864
0.637044 0.946085 -0.071864
0.900022 0.954129 -0.071864
1.033567 0.851544 -0.071864
-0.080471 1.158633 -0.076110
0.122541 1.158633 -0.076292
0.329037 1.158633 -0.077708
0.540547 1.158633 -0.078028
0.774800 1.158633 -0.077164
1.034739 1.160238 -0.076146
-0.080525 -0.536111 0.112294
0.107210 -0.536098 0.111279
0.409186 -0.536098 0.155705
0.705383 -0.536098 0.165929
0.906371 -0.536098 0.150396
1.034173 -0.536098 0.127847
-0.080435 0.178885 0.101456
0.104559 0.179718 0.101877
0.396851 0.177364 0.099421
0.684792 0.177107 0.098862
0.890397 0.181865 0.101061
1.033567 0.186706 0.103509
-0.080435 0.467032 0.143529
0.101614 0.467032 0.099421
0.395839 0.465574 0.102506
0.684792 0.477548 0.102506
0.890397 0.448541 0.102506
1.033567 0.410548 0.102506
-0.080435 0.747457 0.152908
0.101104 0.747456 0.098862
0.408536 0.747456 0.102506
0.687783 0.749569 0.102506
0.890397 0.695675 0.102506
1.033567 0.629756 0.102506
-0.080435 0.946085 0.138746
0.105819 0.946086 0.101061
0.378677 0.946086 0.102506
0.632926 0.946086 0.102506
0.899909 0.954216 0.102506
1.033567 0.851068 0.102506
-0.080627 1.158633 0.095127
0.110370 1.158633 0.081665
0.325645 1.158633 0.072976
0.539050 1.158633 0.069988
0.774181 1.158633 0.077929
1.034734 1.160229 0.086778
-0.081297 -0.536206 0.382378
0.155609 -0.536098 0.381952
0.402341 -0.536098 0.376873
0.702941 -0.536098 0.400501
0.905307 -0.536098 0.367741
1.034097 -0.536098 0.320061
-0.080435 0.224323 0.362906
0.099661 0.175389 0.362906
0.395782 0.179718 0.362409
0.684792 0.179718 0.372801
0.890397 0.179718 0.344606
1.033567 0.179718 0.307967
-0.080435 0.465182 0.363153
0.104557 0.466052 0.362938
0.396873 0.467032 0.362797
0.684792 0.468977 0.363377
0.890397 0.473155 0.365987
1.033567 0.476628 0.368467
-0.080435 0.747457 0.385308
0.104557 0.747456 0.373363
0.398616 0.747457 0.363377
0.687382 0.749517 0.362906
0.890397 0.703157 0.362906
1.033567 0.659064 0.362906
-0.080435 0.946085 0.356724
0.104557 0.946086 0.345170
0.402732 0.946086 0.365987
0.639747 0.946086 0.362906
0.898694 0.953405 0.362906
1.033567 0.863582 0.362906
-0.080943 1.158633 0.276826
0.096832 1.158633 0.270183
0.402764 1.158633 0.347466
0.575899 1.158633 0.342865
0.789337 1.158633 0.351614
1.034441 1.159822 0.361375
-0.081470 -0.536233 0.648881
0.166779 -0.536098 0.648778
0.421026 -0.536098 0.643618
0.691186 -0.536098 0.637160
0.899976 -0.536098 0.585460
1.033725 -0.536098 0.510432
-0.080435 0.234457 0.620821
0.098555 0.174522 0.620820
0.406452 0.179718 0.620820
0.685527 0.179718 0.623888
0.890397 0.179718 0.575554
1.033567 0.179718 0.513154
-0.080435 0.487141 0.620821
0.104557 0.476091 0.620820
0.398086 0.468502 0.620820
0.685788 0.467032 0.623100
0.890397 0.467032 0.580308
1.033567 0.467032 0.537742
-0.080435 0.747908 0.625057
0.104557 0.748206 0.624668
0.396851 0.748216 0.623409
0.684773 0.747457 0.621218
0.890397 0.750454 0.623989
1.033567 0.753294 0.626322
-0.080435 0.946085 0.580581
0.104557 0.946086 0.576166
0.396851 0.946086 0.580677
0.687965 0.946085 0.623989
0.894637 0.950064 0.620820
1.033567 0.903482 0.620820
-0.080903 1.158633 0.473341
0.097607 1.158633 0.470241
0.396109 1.158633 0.503187
0.691053 1.158633 0.610536
0.838271 1.158633 0.615343
1.033507 1.158503 0.628153
-0.080995 -0.536140 0.832151
0.148965 -0.536098 0.832034
0.383957 -0.536098 0.829416
0.624960 -0.536098 0.821758
0.895511 -0.536098 0.821286
1.033166 -0.536098 0.715671
-0.080435 0.219933 0.806092
0.103935 0.180017 0.806092
0.376546 0.179718 0.806092
0.630693 0.179718 0.806092
0.895521 0.179718 0.813620
1.033567 0.179718 0.720679
-0.080435 0.457727 0.806092
0.104557 0.447064 0.806092
0.403276 0.473695 0.806092
0.637735 0.467032 0.806092
0.894912 0.467032 0.812339
1.033567 0.467032 0.730882
-0.080435 0.697584 0.806092
0.104557 0.694155 0.806092
0.396851 0.701572 0.806092
0.689338 0.751837 0.806092
0.892665 0.747457 0.809600
1.033567 0.747457 0.767877
-0.080435 0.950954 0.814896
0.104557 0.950919 0.814326
0.396851 0.950392 0.812839
0.684792 0.948324 0.809797
0.890347 0.946085 0.806752
1.033567 0.946287 0.808198
-0.080599 1.158633 0.695211
0.103342 1.158633 0.693823
0.404547 1.158633 0.706924
0.698608 1.158633 0.751855
0.896782 1.158633 0.799596
1.032479 1.157056 0.808391
-0.080435 -0.536098 0.946769
0.123292 -0.536098 0.946842
0.330484 -0.536098 0.946144
0.542635 -0.536098 0.944149
0.777551 -0.536098 0.942196
1.035329 -0.536098 0.944048
-0.080435 0.199196 0.934068
0.109722 0.185833 0.934068
0.338655 0.179718 0.934068
0.565621 0.179718 0.934068
0.794737 0.179718 0.934068
1.035905 0.179718 0.933737
-0.080435 0.415840 0.934068
0.104557 0.410172 0.934068
0.408087 0.478516 0.934068
0.593054 0.467032 0.934068
0.806159 0.467032 0.934068
1.035277 0.467032 0.933506
-0.080435 0.633396 0.934068
0.104557 0.631008 0.934068
0.396851 0.658432 0.934068
0.693555 0.756152 0.934068
0.845781 0.747457 0.934068
1.033436 0.747457 0.933411
-0.080435 0.854140 0.934068
0.104557 0.853427 0.934068
0.396851 0.864932 0.934068
0.684792 0.903628 0.934068
0.891914 0.947662 0.934068
1.031500 0.946085 0.933538
-0.080435 1.082212 0.933915
0.104557 1.082182 0.933754
0.396851 1.081559 0.933534
0.684792 1.079665 0.933429
0.890397 1.077646 0.933486
1.033567 1.079762 0.934068
