public/overlays/4.cube
LUT_3D_SIZE 16
-0.080435 -0.082580 -0.071864
-0.062812 -0.082488 -0.071864
0.027235 -0.082437 -0.071864
0.104557 -0.082782 -0.071864
0.197537 -0.083374 -0.071864
0.295601 -0.083923 -0.071864
0.396851 -0.084358 -0.071864
0.498607 -0.084656 -0.071864
0.595359 -0.084772 -0.071864
0.684792 -0.084717 -0.071864
0.764764 -0.084511 -0.071864
0.833566 -0.084177 -0.071864
0.890397 -0.083758 -0.071864
0.937108 -0.083265 -0.071864
0.959611 -0.082834 -0.071864
1.033567 -0.082617 -0.071864
-0.080342 -0.063844 -0.071864
-0.062557 -0.063572 -0.071864
0.027278 -0.069248 -0.071864
0.104557 -0.066294 -0.071864
0.197537 -0.064170 -0.071864
0.295601 -0.062381 -0.071864
0.396851 -0.060872 -0.071864
0.498607 -0.059711 -0.071864
0.595359 -0.059372 -0.071864
0.684792 -0.059647 -0.071864
0.764764 -0.060433 -0.071864
0.833566 -0.061649 -0.071864
0.890397 -0.063098 -0.071864
0.937108 -0.064515 -0.071864
0.959611 -0.067147 -0.071864
1.033567 -0.067024 -0.071864
-0.080297 0.090052 -0.071864
-0.067869 0.090111 -0.071864
0.027219 0.089138 -0.071864
0.104368 0.110866 -0.071864
0.197537 0.124268 -0.071864
0.295601 0.133238 -0.071864
0.396851 0.139848 -0.071864
0.498607 0.144375 -0.071864
0.595359 0.146315 -0.071864
0.684792 0.146185 -0.071864
0.764764 0.144266 -0.071864
0.833566 0.140703 -0.071864
0.890397 0.135894 -0.071864
0.937108 0.130273 -0.071864
0.959611 0.121828 -0.071864
1.033567 0.120532 -0.071864
-0.080624 0.179718 -0.071864
-0.065097 0.179718 -0.071864
0.042880 0.179502 -0.071864
0.103370 0.177579 -0.071864
0.197171 0.200188 -0.071864
0.295601 0.214941 -0.071864
0.396851 0.225061 -0.071864
0.498607 0.231942 -0.071864
0.595359 0.235009 -0.071864
0.684792 0.234963 -0.071864
0.764764 0.232233 -0.071864
0.833566 0.227132 -0.071864
0.890397 0.220191 -0.071864
0.937108 0.212126 -0.071864
0.959611 0.200529 -0.071864
1.033567 0.198487 -0.071864
-0.081183 0.271813 -0.071864
-0.063116 0.271813 -0.071864
0.053459 0.271813 -0.071864
0.126766 0.271436 -0.071864
0.195679 0.269010 -0.071864
0.295147 0.291576 -0.071864
0.396851 0.306353 -0.071864
0.498607 0.315706 -0.071864
0.595359 0.319926 -0.071864
0.684792 0.319918 -0.071864
0.764764 0.316298 -0.071864
0.833566 0.309454 -0.071864
0.890397 0.300160 -0.071864
0.937108 0.289318 -0.071864
0.959611 0.274012 -0.071864
1.033567 0.271206 -0.071864
-0.081702 0.368056 -0.071864
-0.061449 0.368056 -0.071864
0.061043 0.368056 -0.071864
0.141499 0.368056 -0.071864
0.219372 0.367610 -0.071864
0.293454 0.365001 -0.071864
0.396359 0.386165 -0.071864
0.498607 0.398900 -0.071864
0.595359 0.404349 -0.071864
0.684792 0.404319 -0.071864
0.764764 0.399744 -0.071864
0.833566 0.391112 -0.071864
0.890397 0.379384 -0.071864
0.937108 0.365721 -0.071864
0.959611 0.346524 -0.071864
1.033567 0.342917 -0.071864
-0.082124 0.467032 -0.071864
-0.060044 0.467032 -0.071864
0.066877 0.467032 -0.071864
0.151580 0.467032 -0.071864
0.234240 0.467032 -0.071864
0.315831 0.466565 -0.071864
0.395016 0.464286 -0.071864
0.498180 0.481697 -0.071864
0.595359 0.488921 -0.071864
0.684792 0.488942 -0.071864
0.764764 0.483423 -0.071864
0.833566 0.472921 -0.071864
0.890397 0.458734 -0.071864
0.937108 0.442187 -0.071864
0.959611 0.419006 -0.071864
1.033567 0.414584 -0.071864
-0.082394 0.566244 -0.071864
-0.058965 0.566244 -0.071864
0.070991 0.566244 -0.071864
0.158502 0.566244 -0.071864
0.243725 0.566244 -0.071864
0.328850 0.566244 -0.071864
0.413696 0.565840 -0.071864
0.497787 0.564470 -0.071864
0.595179 0.573697 -0.071864
0.684792 0.574011 -0.071864
0.764764 0.567517 -0.071864
0.833566 0.555116 -0.071864
0.890397 0.538441 -0.071864
0.937108 0.518979 -0.071864
0.959611 0.491688 -0.071864
1.033567 0.486498 -0.071864
-0.082510 0.660403 -0.071864
-0.058650 0.660403 -0.071864
0.072780 0.660403 -0.071864
0.161560 0.660403 -0.071864
0.247938 0.660403 -0.071864
0.334234 0.660403 -0.071864
0.421028 0.660403 -0.071864
0.508074 0.660217 -0.071864
0.596172 0.660219 -0.071864
0.684843 0.659733 -0.071864
0.764764 0.652073 -0.071864
0.833566 0.637859 -0.071864
0.890397 0.618633 -0.071864
0.937108 0.596198 -0.071864
0.959611 0.564797 -0.071864
1.033567 0.558848 -0.071864
-0.082459 0.747457 -0.071864
-0.058905 0.747457 -0.071864
0.072637 0.747457 -0.071864
0.161485 0.747457 -0.071864
0.247887 0.747457 -0.071864
0.334193 0.747457 -0.071864
0.420965 0.747457 -0.071864
0.508358 0.747457 -0.071864
0.596609 0.747518 -0.071864
0.687725 0.749217 -0.071864
0.765225 0.737735 -0.071864
0.833566 0.721000 -0.071864
0.890397 0.699310 -0.071864
0.937108 0.673796 -0.071864
0.959611 0.638326 -0.071864
1.033567 0.631455 -0.071864
-0.082258 0.825047 -0.071864
-0.059634 0.825047 -0.071864
0.070825 0.825047 -0.071864
0.158686 0.825047 -0.071864
0.244138 0.825047 -0.071864
0.329426 0.825047 -0.071864
0.415232 0.825047 -0.071864
0.501616 0.825047 -0.071864
0.588672 0.825047 -0.071864
0.676977 0.825495 -0.071864
0.769953 0.829060 -0.071864
0.834444 0.805745 -0.071864
0.890397 0.780174 -0.071864
0.937108 0.751736 -0.071864
0.959611 0.712049 -0.071864
1.033567 0.704512 -0.071864
-0.081941 0.891888 -0.071864
-0.060767 0.891888 -0.071864
0.067563 0.891888 -0.071864
0.153486 0.891888 -0.071864
0.237116 0.891888 -0.071864
0.320621 0.891888 -0.071864
0.404454 0.891888 -0.071864
0.488898 0.891888 -0.071864
0.573997 0.891888 -0.071864
0.659691 0.891888 -0.071864
0.747033 0.892662 -0.071864
0.841059 0.898049 -0.071864
0.891605 0.863385 -0.071864
0.937108 0.830282 -0.071864
0.959611 0.786399 -0.071864
1.033567 0.778018 -0.071864
-0.081540 0.946085 -0.071864
-0.062116 0.946085 -0.071864
0.063204 0.946085 -0.071864
0.146422 0.946085 -0.071864
0.227588 0.946085 -0.071864
0.308448 0.946085 -0.071864
0.389772 0.946085 -0.071864
0.471594 0.946085 -0.071864
0.554049 0.946085 -0.071864
0.637044 0.946085 -0.071864
0.720372 0.946085 -0.071864
0.806173 0.947263 -0.071864
0.900022 0.954129 -0.071864
0.938759 0.911010 -0.071864
0.959611 0.860728 -0.071864
1.033567 0.851544 -0.071864
-0.081086 0.988657 -0.071864
-0.063439 0.988657 -0.071864
0.058299 0.988657 -0.071864
0.138293 0.988657 -0.071864
0.216566 0.988657 -0.071864
0.294548 0.988657 -0.071864
0.372824 0.988657 -0.071864
0.451567 0.988657 -0.071864
0.530968 0.988657 -0.071864
0.610878 0.988657 -0.071864
0.691197 0.988657 -0.071864
0.772162 0.988657 -0.071864
0.855435 0.989976 -0.071864
0.949141 0.997952 -0.071864
0.961671 0.938017 -0.071864
1.033567 0.925573 -0.071864
-0.080673 1.006295 -0.071864
-0.065901 1.006295 -0.071864
0.051127 1.006295 -0.071864
0.126414 1.006295 -0.071864
0.200732 1.006295 -0.071864
0.274544 1.006295 -0.071864
0.348625 1.006295 -0.071864
0.423093 1.006295 -0.071864
0.498093 1.006295 -0.071864
0.573604 1.006295 -0.071864
0.649519 1.006295 -0.071864
0.725937 1.006295 -0.071864
0.802596 1.006295 -0.071864
0.882735 1.008234 -0.071864
0.967904 1.013991 -0.071864
1.034171 0.996130 -0.071864
-0.080471 1.158633 -0.076110
-0.065149 1.158633 -0.076026
0.050239 1.158633 -0.075983
0.122541 1.158633 -0.076292
0.192604 1.158633 -0.076824
0.261045 1.158633 -0.077311
0.329037 1.158633 -0.077708
0.397696 1.158633 -0.077967
0.467955 1.158633 -0.078076
0.540547 1.158633 -0.078028
0.615770 1.158633 -0.077838
0.694134 1.158633 -0.077538
0.774800 1.158633 -0.077164
0.858412 1.158633 -0.076727
0.942811 1.159111 -0.076340
1.034739 1.160238 -0.076146
-0.080435 -0.536098 -0.023320
-0.063478 -0.536098 -0.022404
0.027077 -0.536098 -0.034554
0.106398 -0.536098 -0.015368
0.202376 -0.536098 0.005051
0.303938 -0.536098 0.008741
0.409103 -0.536098 0.011440
0.514370 -0.536098 0.013240
0.614017 -0.536098 0.013958
0.705133 -0.536098 0.013730
0.785573 -0.536098 0.012660
0.852997 -0.536098 0.010784
0.906291 -0.536098 0.008178
0.947464 -0.536098 0.004774
0.963632 -0.536098 -0.017983
1.034171 -0.536098 -0.023686
-0.080435 -0.063844 -0.037177
-0.062812 -0.063844 -0.037409
0.027235 -0.064857 -0.037519
0.104557 -0.067739 -0.038338
0.197537 -0.071179 -0.039701
0.295601 -0.074037 -0.040916
0.396851 -0.076226 -0.041862
0.498607 -0.077638 -0.042482
0.595359 -0.078185 -0.042729
0.684792 -0.077895 -0.042613
0.764764 -0.076872 -0.042174
0.833566 -0.075211 -0.041468
0.890397 -0.073047 -0.040546
0.937107 -0.070474 -0.039458
0.959610 -0.068087 -0.038465
1.033567 -0.066864 -0.037959
-0.080435 0.090052 -0.044437
-0.063756 0.090052 -0.037519
0.027186 0.089085 -0.037864
0.104368 0.110684 -0.037864
0.197537 0.122480 -0.037864
0.295601 0.130092 -0.037864
0.396851 0.135665 -0.037864
0.498607 0.139486 -0.037864
0.595359 0.141154 -0.037864
0.684792 0.141084 -0.037864
0.764764 0.139541 -0.037864
0.833566 0.136658 -0.037864
0.890397 0.132783 -0.037864
0.937107 0.128324 -0.037864
0.959610 0.121578 -0.037864
1.033567 0.120622 -0.037864
-0.080435 0.179718 -0.035083
-0.066449 0.179718 -0.038338
0.042735 0.179518 -0.037864
0.103484 0.177704 -0.037864
0.197192 0.199678 -0.037864
0.295601 0.213715 -0.037864
0.396851 0.223215 -0.037864
0.498607 0.229724 -0.037864
0.595359 0.232604 -0.037864
0.684792 0.232548 -0.037864
0.764764 0.229972 -0.037864
0.833566 0.225174 -0.037864
0.890397 0.218673 -0.037864
0.937107 0.211174 -0.037864
0.959610 0.200398 -0.037864
1.033567 0.198547 -0.037864
-0.080435 0.271813 -0.020021
-0.069677 0.271813 -0.039701
0.051975 0.271813 -0.037864
0.126227 0.271440 -0.037864
0.195799 0.269150 -0.037864
0.295096 0.291132 -0.037864
0.396851 0.305416 -0.037864
0.498607 0.314476 -0.037864
0.595359 0.318532 -0.037864
0.684792 0.318444 -0.037864
0.764764 0.314908 -0.037864
0.833566 0.308228 -0.037864
0.890397 0.299179 -0.037864
0.937107 0.288731 -0.037864
0.959610 0.273926 -0.037864
1.033567 0.271207 -0.037864
-0.080435 0.368056 0.003478
-0.072369 0.368056 -0.040916
0.058306 0.368056 -0.037864
0.140242 0.368056 -0.037864
0.218935 0.367631 -0.037864
0.293597 0.365142 -0.037864
0.396389 0.385770 -0.037864
0.498607 0.398255 -0.037864
0.595359 0.403443 -0.037864
0.684792 0.403374 -0.037864
0.764764 0.398855 -0.037864
0.833566 0.390278 -0.037864
0.890397 0.378743 -0.037864
0.937107 0.365336 -0.037864
0.959610 0.346450 -0.037864
1.033567 0.342934 -0.037864
-0.080435 0.467032 0.006482
-0.074429 0.467032 -0.041862
0.063118 0.467032 -0.037864
0.149732 0.467032 -0.037864
0.233298 0.467032 -0.037864
0.315399 0.466590 -0.037864
0.395142 0.464415 -0.037864
0.498208 0.481397 -0.037864
0.595359 0.488413 -0.037864
0.684792 0.488361 -0.037864
0.764764 0.482804 -0.037864
0.833566 0.472359 -0.037864
0.890397 0.458250 -0.037864
0.937107 0.441871 -0.037864
0.959610 0.418935 -0.037864
1.033567 0.414608 -0.037864
-0.080435 0.566244 0.008339
-0.075761 0.566244 -0.042482
0.066503 0.566244 -0.037864
0.156231 0.566244 -0.037864
0.242441 0.566244 -0.037864
0.328131 0.566244 -0.037864
0.413417 0.565869 -0.037864
0.497820 0.564526 -0.037864
0.595177 0.573484 -0.037864
0.684792 0.573636 -0.037864
0.764764 0.567079 -0.037864
0.833566 0.554761 -0.037864
0.890397 0.538082 -0.037864
0.937107 0.518740 -0.037864
0.959610 0.491638 -0.037864
1.033567 0.486514 -0.037864
-0.080435 0.660403 0.009026
-0.076280 0.660403 -0.042729
0.067997 0.660403 -0.037864
0.159114 0.660403 -0.037864
0.246490 0.660403 -0.037864
0.333346 0.660403 -0.037864
0.420512 0.660403 -0.037864
0.507866 0.660228 -0.037864
0.596227 0.660280 -0.037864
0.684864 0.659582 -0.037864
0.764764 0.651810 -0.037864
0.833566 0.637582 -0.037864
0.890397 0.618336 -0.037864
0.937107 0.596021 -0.037864
0.959610 0.564774 -0.037864
1.033567 0.558859 -0.037864
-0.080435 0.747457 0.008746
-0.076008 0.747456 -0.042613
0.067911 0.747456 -0.037864
0.159024 0.747456 -0.037864
0.246366 0.747456 -0.037864
0.333226 0.747456 -0.037864
0.420361 0.747456 -0.037864
0.507952 0.747456 -0.037864
0.596467 0.747533 -0.037864
0.687763 0.749270 -0.037864
0.765233 0.737549 -0.037864
0.833566 0.720803 -0.037864
0.890397 0.699086 -0.037864
0.937107 0.673692 -0.037864
0.959610 0.638304 -0.037864
1.033567 0.631492 -0.037864
-0.080435 0.825047 0.007573
-0.075042 0.825047 -0.042174
0.066499 0.825047 -0.037864
0.156386 0.825047 -0.037864
0.242733 0.825047 -0.037864
0.328547 0.825047 -0.037864
0.414558 0.825047 -0.037864
0.501144 0.825047 -0.037864
0.588368 0.825047 -0.037864
0.676839 0.825504 -0.037864
0.769996 0.829054 -0.037864
0.834450 0.805729 -0.037864
0.890397 0.780018 -0.037864
0.937107 0.751750 -0.037864
0.959610 0.712006 -0.037864
1.033567 0.704520 -0.037864
-0.080435 0.891888 0.005467
-0.073473 0.891888 -0.041468
0.063916 0.891888 -0.037864
0.151534 0.891888 -0.037864
0.235901 0.891888 -0.037864
0.319717 0.891888 -0.037864
0.403855 0.891888 -0.037864
0.488480 0.891888 -0.037864
0.573722 0.891888 -0.037864
0.659502 0.891888 -0.037864
0.746861 0.892670 -0.037864
0.841092 0.898024 -0.037864
0.891610 0.863298 -0.037864
0.937107 0.830190 -0.037864
0.959610 0.786381 -0.037864
1.033567 0.778022 -0.037864
-0.080435 0.946085 0.002079
-0.071436 0.946085 -0.040546
0.060475 0.946085 -0.037864
0.144919 0.946085 -0.037864
0.226623 0.946085 -0.037864
0.307871 0.946085 -0.037864
0.389298 0.946085 -0.037864
0.471260 0.946085 -0.037864
0.553740 0.946085 -0.037864
0.636835 0.946085 -0.037864
0.720233 0.946085 -0.037864
0.806190 0.947269 -0.037864
0.900048 0.954155 -0.037864
0.938761 0.910956 -0.037864
0.959610 0.860732 -0.037864
1.033567 0.851547 -0.037864
-0.080435 0.988657 -0.023656
-0.069015 0.988656 -0.039458
0.056623 0.988656 -0.037864
0.137329 0.988656 -0.037864
0.215972 0.988656 -0.037864
0.294077 0.988656 -0.037864
0.372511 0.988656 -0.037864
0.451353 0.988656 -0.037864
0.530767 0.988656 -0.037864
0.610693 0.988656 -0.037864
0.691040 0.988656 -0.037864
0.772075 0.988656 -0.037864
0.855385 0.989978 -0.037864
0.949149 0.997959 -0.037864
0.961672 0.938007 -0.037864
1.033567 0.925574 -0.037864
-0.080435 1.006295 -0.036128
-0.066782 1.006295 -0.038465
0.050917 1.006295 -0.037864
0.126300 1.006295 -0.037864
0.200658 1.006295 -0.037864
0.274483 1.006295 -0.037864
0.348572 1.006295 -0.037864
0.423049 1.006295 -0.037864
0.498088 1.006295 -0.037864
0.573590 1.006295 -0.037864
0.649538 1.006295 -0.037864
0.725911 1.006295 -0.037864
0.802582 1.006295 -0.037864
0.882724 1.008235 -0.037864
0.967905 1.013992 -0.037864
1.034171 0.996131 -0.037864
-0.080342 1.158633 -0.064988
-0.064753 1.158633 -0.064901
0.050351 1.158633 -0.065682
0.122598 1.158633 -0.068167
0.192644 1.158633 -0.071361
0.261055 1.158633 -0.074156
0.329058 1.158633 -0.076327
0.397717 1.158633 -0.077734
0.467969 1.158633 -0.078292
0.540556 1.158633 -0.078036
0.615775 1.158633 -0.077038
0.694140 1.158633 -0.075423
0.774803 1.158633 -0.073314
0.858413 1.158633 -0.070798
0.942811 1.159111 -0.068470
1.034739 1.160238 -0.067270
-0.080253 -0.536069 0.039912
-0.067464 -0.536089 0.039912
0.029538 -0.536098 0.039164
0.106398 -0.536098 0.052591
0.202376 -0.536098 0.063900
0.303938 -0.536098 0.072650
0.409103 -0.536098 0.079384
0.514370 -0.536098 0.084066
0.614017 -0.536098 0.086156
0.705133 -0.536098 0.086051
0.785573 -0.536098 0.084065
0.852997 -0.536098 0.080387
0.906291 -0.536098 0.075492
0.947464 -0.536098 0.069853
0.963632 -0.536098 0.062616
1.034171 -0.536098 0.060936
-0.080342 -0.067921 0.033843
-0.062557 -0.063572 0.033843
0.028559 -0.063844 0.033070
0.104557 -0.063844 0.046801
0.197537 -0.063844 0.056349
0.295601 -0.063844 0.063574
0.396851 -0.063844 0.069061
0.498607 -0.063844 0.072863
0.595359 -0.063844 0.074568
0.684792 -0.063844 0.074494
0.764764 -0.063844 0.072868
0.833566 -0.063844 0.069921
0.890397 -0.063844 0.065995
0.937107 -0.063844 0.061485
0.959610 -0.063844 0.055613
1.033567 -0.063844 0.054327
-0.080435 0.091219 0.032796
-0.062812 0.091203 0.033070
0.027235 0.090088 0.033340
0.104557 0.089212 0.033286
0.197537 0.086745 0.032768
0.295601 0.083628 0.032453
0.396851 0.081003 0.032282
0.498608 0.079219 0.032206
0.595359 0.078598 0.032214
0.684792 0.079185 0.032292
0.764764 0.080792 0.032435
0.833566 0.083144 0.032631
0.890397 0.085968 0.032877
0.937108 0.089018 0.033176
0.959610 0.091576 0.033447
1.033567 0.092824 0.033592
-0.080435 0.179718 0.046555
-0.062812 0.179718 0.047245
0.026703 0.179718 0.033641
0.104262 0.179029 0.033843
0.197333 0.191971 0.033843
0.295601 0.200773 0.033843
0.396851 0.206876 0.033843
0.498608 0.211114 0.033843
0.595359 0.212888 0.033843
0.684792 0.212570 0.033843
0.764764 0.210499 0.033843
0.833566 0.206830 0.033843
0.890397 0.202008 0.033843
0.937108 0.196521 0.033843
0.959610 0.188738 0.033843
1.033567 0.187443 0.033843
-0.080435 0.271813 0.056523
-0.062812 0.271813 0.056696
0.025147 0.271813 0.033294
0.117573 0.271591 0.033843
0.196311 0.270035 0.033843
0.295241 0.286542 0.033843
0.396851 0.297553 0.033843
0.498608 0.304550 0.033843
0.595359 0.307445 0.033843
0.684792 0.306924 0.033843
0.764764 0.303429 0.033843
0.833566 0.297239 0.033843
0.890397 0.289098 0.033843
0.937108 0.279779 0.033843
0.959610 0.266726 0.033843
1.033567 0.264369 0.033843
-0.080435 0.368056 0.064289
-0.062812 0.368056 0.063864
0.023244 0.368056 0.033080
0.126359 0.368056 0.033843
0.213619 0.367765 0.033843
0.293959 0.365797 0.033843
0.396458 0.382716 0.033843
0.498608 0.392957 0.033843
0.595359 0.396850 0.033843
0.684792 0.396078 0.033843
0.764764 0.391283 0.033843
0.833566 0.382962 0.033843
0.890397 0.371880 0.033843
0.937108 0.359157 0.033843
0.959610 0.341471 0.033843
1.033567 0.338185 0.033843
-0.080435 0.467032 0.070251
-0.062812 0.467032 0.069298
0.021682 0.467032 0.032943
0.132448 0.467032 0.033843
0.224760 0.467032 0.033843
0.311871 0.466681 0.033843
0.395379 0.464855 0.033843
0.498178 0.479196 0.033843
0.595359 0.484670 0.033843
0.684792 0.483712 0.033843
0.764764 0.477741 0.033843
0.833566 0.467256 0.033843
0.890397 0.453383 0.033843
0.937108 0.437451 0.033843
0.959610 0.415269 0.033843
1.033567 0.411077 0.033843
-0.080435 0.566244 0.074428
-0.062812 0.566244 0.073074
0.020648 0.566244 0.032900
0.136700 0.566244 0.033843
0.231868 0.566244 0.033843
0.322226 0.566244 0.033843
0.410813 0.565919 0.033843
0.498034 0.564866 0.033843
0.595210 0.571866 0.033843
0.684792 0.570948 0.033843
0.764764 0.563768 0.033843
0.833566 0.551186 0.033843
0.890397 0.534530 0.033843
0.937108 0.515468 0.033843
0.959610 0.488904 0.033843
1.033567 0.483851 0.033843
-0.080435 0.660403 0.076291
-0.062812 0.660403 0.074759
0.020293 0.660403 0.032934
0.138413 0.660403 0.033843
0.234710 0.660403 0.033843
0.326205 0.660403 0.033843
0.416296 0.660403 0.033843
0.505980 0.660289 0.033843
0.596358 0.660531 0.033843
0.685018 0.658448 0.033843
0.764764 0.649874 0.033843
0.833566 0.635209 0.033843
0.890397 0.615875 0.033843
0.937108 0.593564 0.033843
0.959610 0.562700 0.033843
1.033567 0.556777 0.033843
-0.080435 0.747457 0.076181
-0.062812 0.747456 0.074659
0.020630 0.747457 0.033039
0.138075 0.747457 0.033843
0.234125 0.747457 0.033843
0.325355 0.747457 0.033843
0.415288 0.747457 0.033843
0.504911 0.747457 0.033843
0.595038 0.747517 0.033843
0.687769 0.749309 0.033843
0.765278 0.736851 0.033843
0.833566 0.719463 0.033843
0.890397 0.697335 0.033843
0.937108 0.671912 0.033843
0.959610 0.636718 0.033843
1.033567 0.629970 0.033843
-0.080435 0.825047 0.074362
-0.062812 0.825047 0.073027
0.021556 0.825047 0.033202
0.135921 0.825047 0.033843
0.230512 0.825047 0.033843
0.320415 0.825047 0.033843
0.409091 0.825047 0.033843
0.497481 0.825047 0.033843
0.586076 0.825047 0.033843
0.675754 0.825488 0.033843
0.769953 0.829146 0.033843
0.834489 0.805132 0.033843
0.890397 0.779032 0.033843
0.937108 0.750549 0.033843
0.959610 0.710970 0.033843
1.033567 0.703300 0.033843
-0.080435 0.891888 0.071068
-0.062812 0.891888 0.070056
0.022958 0.891888 0.033436
0.132214 0.891888 0.033843
0.224231 0.891888 0.033843
0.311865 0.891888 0.033843
0.398311 0.891888 0.033843
0.484537 0.891888 0.033843
0.571013 0.891888 0.033843
0.657807 0.891888 0.033843
0.745969 0.892712 0.033843
0.841113 0.898230 0.033843
0.891640 0.862960 0.033843
0.937108 0.829491 0.033843
0.959610 0.785600 0.033843
1.033567 0.777128 0.033843
-0.080435 0.946085 0.066669
-0.062812 0.946085 0.066095
0.024674 0.946086 0.033717
0.127290 0.946086 0.033843
0.215844 0.946086 0.033843
0.300470 0.946086 0.033843
0.383967 0.946086 0.033843
0.467338 0.946086 0.033843
0.550906 0.946086 0.033843
0.634840 0.946086 0.033843
0.718938 0.946086 0.033843
0.805495 0.947209 0.033843
0.899882 0.954127 0.033843
0.938752 0.910617 0.033843
0.959610 0.860302 0.033843
1.033567 0.851016 0.033843
-0.080435 0.988657 0.061644
-0.062812 0.988656 0.061586
0.026570 0.988657 0.034049
0.121733 0.988657 0.033843
0.206336 0.988657 0.033843
0.287427 0.988657 0.033843
0.367623 0.988657 0.033843
0.447687 0.988657 0.033843
0.528028 0.988657 0.033843
0.608698 0.988657 0.033843
0.689631 0.988657 0.033843
0.770993 0.988657 0.033843
0.854873 0.990000 0.033843
0.949264 0.997924 0.033843
0.961683 0.937918 0.033843
1.033567 0.925180 0.033843
-0.080435 1.006295 0.054791
-0.062812 1.006295 0.055612
0.028221 1.006295 0.034332
0.113694 1.006295 0.033843
0.192818 1.006295 0.033843
0.269025 1.006295 0.033843
0.344494 1.006295 0.033843
0.420007 1.006295 0.033843
0.495752 1.006295 0.033843
0.571817 1.006295 0.033843
0.648079 1.006295 0.033843
0.725054 1.006295 0.033843
0.801967 1.006295 0.033843
0.882438 1.008238 0.033843
0.967851 1.014007 0.033843
1.034173 0.996107 0.033843
-0.080477 1.158633 0.035637
-0.063918 1.158633 0.036441
0.032580 1.158633 0.016454
0.113263 1.158633 0.016234
0.187244 1.158633 0.013571
0.257565 1.158633 0.010224
0.326675 1.158633 0.007412
0.396013 1.158633 0.005470
0.466710 1.158633 0.004674
0.539526 1.158633 0.005050
0.614992 1.158633 0.006436
0.693527 1.158633 0.008605
0.774306 1.158633 0.011270
0.858085 1.158633 0.014210
0.942658 1.159113 0.016733
1.034743 1.160244 0.017955
-0.080525 -0.536111 0.112294
-0.063703 -0.536102 0.112414
0.045026 -0.536098 0.112631
0.107210 -0.536098 0.111279
0.202697 -0.536098 0.131121
0.304206 -0.536098 0.145264
0.409186 -0.536098 0.155705
0.514468 -0.536098 0.162778
0.614099 -0.536098 0.166000
0.705383 -0.536098 0.165929
0.785670 -0.536098 0.163035
0.852957 -0.536098 0.157660
0.906371 -0.536098 0.150396
0.947520 -0.536098 0.141837
0.963662 -0.536098 0.130497
1.034173 -0.536098 0.127847
-0.080477 -0.065960 0.102506
-0.065742 -0.066979 0.102506
0.043623 -0.064857 0.102506
0.103941 -0.063844 0.100829
0.197537 -0.063844 0.120468
0.295601 -0.063844 0.133251
0.396851 -0.063844 0.142607
0.498607 -0.063844 0.148968
0.595359 -0.063844 0.151833
0.684792 -0.063844 0.151790
0.764764 -0.063844 0.149282
0.833566 -0.063844 0.144573
0.890397 -0.063844 0.138219
0.937107 -0.063844 0.130772
0.959610 -0.063844 0.120575
1.033567 -0.063844 0.118499
-0.080435 0.112132 0.102506
-0.063756 0.112376 0.102506
0.026616 0.089582 0.102506
0.104368 0.090052 0.101451
0.197537 0.090052 0.112764
0.295601 0.090052 0.120883
0.396851 0.090052 0.127110
0.498608 0.090052 0.131399
0.595359 0.090052 0.133110
0.684792 0.090052 0.132695
0.764764 0.090052 0.130385
0.833566 0.090052 0.126423
0.890397 0.090052 0.121190
0.937108 0.090052 0.115205
0.959611 0.090052 0.107218
1.033567 0.090052 0.105515
-0.080435 0.178885 0.101456
-0.062812 0.179083 0.101703
0.027235 0.179518 0.101872
0.104559 0.179718 0.101877
0.197537 0.179560 0.101345
0.295601 0.178601 0.100277
0.396851 0.177364 0.099421
0.498607 0.176607 0.098871
0.595359 0.176519 0.098685
0.684792 0.177107 0.098862
0.764764 0.178282 0.099369
0.833566 0.179900 0.100113
0.890397 0.181865 0.101061
0.937108 0.183972 0.102125
0.959610 0.185827 0.103063
1.033567 0.186706 0.103509
-0.080435 0.271813 0.121065
-0.062812 0.271813 0.121135
0.027235 0.271813 0.113300
0.104185 0.271813 0.101345
0.197326 0.271325 0.102506
0.295406 0.280398 0.102506
0.396851 0.286530 0.102506
0.498607 0.290369 0.102506
0.595359 0.291668 0.102506
0.684792 0.290877 0.102506
0.764764 0.288305 0.102506
0.833566 0.284110 0.102506
0.890397 0.278789 0.102506
0.937108 0.272835 0.102506
0.959610 0.264642 0.102506
1.033567 0.263243 0.102506
-0.080435 0.368056 0.133986
-0.062812 0.368056 0.133772
0.027235 0.368056 0.121455
0.103004 0.368056 0.100277
0.206735 0.367872 0.102506
0.294650 0.366710 0.102506
0.396532 0.378416 0.102506
0.498607 0.385497 0.102506
0.595359 0.387667 0.102506
0.684792 0.386195 0.102506
0.764764 0.381728 0.102506
0.833566 0.374384 0.102506
0.890397 0.365013 0.102506
