public/overlays/5.cube
LUT_3D_SIZE 16
-0.081546 -0.081701 -0.070969
-0.058035 -0.081532 -0.070969
0.052548 -0.081263 -0.070969
0.125240 -0.081369 -0.070969
0.214334 -0.081801 -0.070969
0.318823 -0.082267 -0.070969
0.431586 -0.082683 -0.070969
0.541649 -0.082991 -0.070969
0.639189 -0.083163 -0.070969
0.722408 -0.083200 -0.070969
0.791553 -0.083107 -0.070969
0.847424 -0.082908 -0.070969
0.892368 -0.082639 -0.070969
0.928239 -0.082312 -0.070969
0.952199 -0.081984 -0.070969
0.997038 -0.081763 -0.070969
-0.081382 -0.058142 -0.070969
-0.057485 -0.057593 -0.070969
0.052643 -0.068181 -0.070969
0.125240 -0.065955 -0.070969
0.214334 -0.063046 -0.070969
0.318823 -0.060199 -0.070969
0.431586 -0.057540 -0.070969
0.541649 -0.055302 -0.070969
0.639189 -0.054178 -0.070969
0.722408 -0.054030 -0.070969
0.791553 -0.054749 -0.070969
0.847424 -0.056180 -0.070969
0.892368 -0.058014 -0.070969
0.928239 -0.060006 -0.070969
0.952199 -0.062468 -0.070969
0.997038 -0.064218 -0.070969
-0.081118 0.062694 -0.070969
-0.068058 0.062807 -0.070969
0.052329 0.062448 -0.070969
0.125113 0.073483 -0.070969
0.214334 0.089608 -0.070969
0.318823 0.107188 -0.070969
0.431586 0.123274 -0.070969
0.541649 0.134718 -0.070969
0.639189 0.140076 -0.070969
0.722408 0.140829 -0.070969
0.791553 0.138178 -0.070969
0.847424 0.133104 -0.070969
0.892368 0.126540 -0.070969
0.928239 0.119006 -0.070969
0.952199 0.110055 -0.070969
0.997038 0.103444 -0.070969
-0.081214 0.142090 -0.070969
-0.065832 0.142090 -0.070969
0.062189 0.141939 -0.070969
0.123635 0.140330 -0.070969
0.213985 0.167601 -0.070969
0.318823 0.195337 -0.070969
0.431586 0.219105 -0.070969
0.541649 0.235787 -0.070969
0.639189 0.243565 -0.070969
0.722408 0.244683 -0.070969
0.791553 0.240887 -0.070969
0.847424 0.233762 -0.070969
0.892368 0.224659 -0.070969
0.928239 0.214345 -0.070969
0.952199 0.202425 -0.070969
0.997038 0.193710 -0.070969
-0.081647 0.236911 -0.070969
-0.062929 0.236911 -0.070969
0.076763 0.236911 -0.070969
0.149333 0.236551 -0.070969
0.211679 0.234018 -0.070969
0.318371 0.273701 -0.070969
0.431586 0.305947 -0.070969
0.541649 0.327809 -0.070969
0.639189 0.338022 -0.070969
0.722408 0.339485 -0.070969
0.791553 0.334529 -0.070969
0.847424 0.325282 -0.070969
0.892368 0.313493 -0.070969
0.928239 0.300218 -0.070969
0.952199 0.284964 -0.070969
0.997038 0.273894 -0.070969
-0.082120 0.348292 -0.070969
-0.060086 0.348292 -0.070969
0.092812 0.348292 -0.070969
0.175438 0.348292 -0.070969
0.249028 0.347776 -0.070969
0.315590 0.344736 -0.070969
0.431041 0.388150 -0.070969
0.541649 0.416119 -0.070969
0.639189 0.428716 -0.070969
0.722408 0.430522 -0.070969
0.791553 0.424464 -0.070969
0.847424 0.413034 -0.070969
0.892368 0.398634 -0.070969
0.928239 0.382341 -0.070969
0.952199 0.363755 -0.070969
0.997038 0.350250 -0.070969
-0.082525 0.468558 -0.070969
-0.057433 0.468558 -0.070969
0.107655 0.468558 -0.070969
0.197780 0.468558 -0.070969
0.279348 0.468558 -0.070969
0.356472 0.467980 -0.070969
0.428452 0.465035 -0.070969
0.541163 0.501467 -0.070969
0.639189 0.517265 -0.070969
0.722408 0.519425 -0.070969
0.791553 0.512230 -0.070969
0.847424 0.498727 -0.070969
0.892368 0.481640 -0.070969
0.928239 0.462385 -0.070969
0.952199 0.440390 -0.070969
0.997038 0.424537 -0.070969
-0.082833 0.585833 -0.070969
-0.055197 0.585833 -0.070969
0.118387 0.585833 -0.070969
0.213387 0.585833 -0.070969
0.299769 0.585833 -0.070969
0.382681 0.585833 -0.070969
0.462738 0.585368 -0.070969
0.539435 0.583391 -0.070969
0.638891 0.603791 -0.070969
0.722408 0.606794 -0.070969
0.791553 0.598499 -0.070969
0.847424 0.582904 -0.070969
0.892368 0.563190 -0.070969
0.928239 0.540963 -0.070969
0.952199 0.515665 -0.070969
0.997038 0.497431 -0.070969
-0.083010 0.689843 -0.070969
-0.054072 0.689843 -0.070969
0.123406 0.689843 -0.070969
0.220679 0.689843 -0.070969
0.309310 0.689843 -0.070969
0.394465 0.689843 -0.070969
0.477488 0.689843 -0.070969
0.558697 0.689562 -0.070969
0.638321 0.688805 -0.070969
0.722400 0.693056 -0.070969
0.791553 0.683646 -0.070969
0.847424 0.666064 -0.070969
0.892368 0.643748 -0.070969
0.928239 0.618610 -0.070969
0.952199 0.589980 -0.070969
0.997038 0.569327 -0.070969
-0.083041 0.778653 -0.070969
-0.053926 0.778653 -0.070969
0.124121 0.778653 -0.070969
0.221715 0.778653 -0.070969
0.310724 0.778653 -0.070969
0.396124 0.778653 -0.070969
0.479498 0.778653 -0.070969
0.561429 0.778653 -0.070969
0.642237 0.778622 -0.070969
0.722989 0.779116 -0.070969
0.791610 0.768340 -0.070969
0.847424 0.748189 -0.070969
0.892368 0.723413 -0.070969
0.928239 0.695376 -0.070969
0.952199 0.663456 -0.070969
0.997038 0.640362 -0.070969
-0.082954 0.852177 -0.070969
-0.054647 0.852177 -0.070969
0.121587 0.852177 -0.070969
0.218087 0.852177 -0.070969
0.305981 0.852177 -0.070969
0.390269 0.852177 -0.070969
0.472638 0.852177 -0.070969
0.553499 0.852177 -0.070969
0.633440 0.852177 -0.070969
0.712696 0.852216 -0.070969
0.793171 0.854016 -0.070969
0.847839 0.830382 -0.070969
0.892368 0.802177 -0.070969
0.928239 0.771298 -0.070969
0.952199 0.736101 -0.070969
0.997038 0.710738 -0.070969
-0.082759 0.911721 -0.070969
-0.056075 0.911721 -0.070969
0.116803 0.911721 -0.070969
0.211383 0.911721 -0.070969
0.297253 0.911721 -0.070969
0.379612 0.911721 -0.070969
0.459944 0.911721 -0.070969
0.538876 0.911721 -0.070969
0.616796 0.911721 -0.070969
0.693904 0.911721 -0.070969
0.770880 0.912117 -0.070969
0.850356 0.915012 -0.070969
0.892992 0.881628 -0.070969
0.928239 0.846818 -0.070969
0.952199 0.808400 -0.070969
0.997038 0.780601 -0.070969
-0.082486 0.956029 -0.070969
-0.057907 0.956029 -0.070969
0.110626 0.956029 -0.070969
0.202820 0.956029 -0.070969
0.286216 0.956029 -0.070969
0.366111 0.956029 -0.070969
0.443914 0.956029 -0.070969
0.520352 0.956029 -0.070969
0.595858 0.956029 -0.070969
0.670543 0.956029 -0.070969
0.744421 0.956029 -0.070969
0.818936 0.956686 -0.070969
0.896576 0.960057 -0.070969
0.928962 0.922454 -0.070969
0.952199 0.879923 -0.070969
0.997038 0.849856 -0.070969
-0.082164 0.985829 -0.070969
-0.059897 0.985829 -0.070969
0.103614 0.985829 -0.070969
0.193183 0.985829 -0.070969
0.273787 0.985829 -0.070969
0.350843 0.985829 -0.070969
0.425898 0.985829 -0.070969
0.499610 0.985829 -0.070969
0.572371 0.985829 -0.070969
0.644273 0.985829 -0.070969
0.715543 0.985829 -0.070969
0.786364 0.985829 -0.070969
0.857492 0.986474 -0.070969
0.933639 0.989690 -0.070969
0.953195 0.950102 -0.070969
0.997038 0.918725 -0.070969
-0.081830 0.999826 -0.070969
-0.062351 0.999826 -0.070969
0.095359 0.999826 -0.070969
0.181948 0.999826 -0.070969
0.259434 0.999826 -0.070969
0.333331 0.999826 -0.070969
0.405225 0.999826 -0.070969
0.475804 0.999826 -0.070969
0.545463 0.999826 -0.070969
0.614322 0.999826 -0.070969
0.682370 0.999826 -0.070969
0.750142 0.999826 -0.070969
0.817181 0.999826 -0.070969
0.885588 1.000031 -0.070969
0.957199 1.004332 -0.070969
0.998149 0.979150 -0.070969
-0.081617 1.100834 -0.074006
-0.062824 1.100834 -0.073852
0.091347 1.100834 -0.073612
0.174692 1.100834 -0.073701
0.247752 1.100834 -0.074095
0.316185 1.100834 -0.074523
0.382018 1.100834 -0.074895
0.446569 1.100834 -0.075176
0.510902 1.100834 -0.075335
0.575695 1.100834 -0.075363
0.641315 1.100834 -0.075281
0.708140 1.100834 -0.075108
0.775868 1.100834 -0.074858
0.844805 1.100834 -0.074565
0.914978 1.101766 -0.074267
0.999205 1.103696 -0.074073
-0.081546 -0.463884 -0.032443
-0.059449 -0.463884 -0.031446
0.050640 -0.463884 -0.046764
0.124355 -0.463884 -0.040897
0.215723 -0.463884 -0.029735
0.323591 -0.463884 0.000423
0.439848 -0.463884 0.002704
0.552505 -0.463884 0.004476
0.651564 -0.463884 0.005405
0.735550 -0.463884 0.005549
0.804096 -0.463884 0.005025
0.858989 -0.463884 0.003986
0.902107 -0.463884 0.002566
0.935312 -0.463884 0.000756
0.954523 -0.463884 -0.024696
0.998149 -0.463884 -0.032810
-0.081546 -0.058142 -0.039296
-0.058035 -0.058142 -0.039665
0.052548 -0.058878 -0.039461
0.125240 -0.061136 -0.039676
0.214334 -0.064149 -0.040607
0.318823 -0.066954 -0.041573
0.431586 -0.069273 -0.042410
0.541649 -0.070945 -0.043028
0.639189 -0.071855 -0.043370
0.722408 -0.072022 -0.043437
0.791553 -0.071528 -0.043256
0.847423 -0.070481 -0.042872
0.892368 -0.068995 -0.042329
0.928239 -0.067166 -0.041669
0.952199 -0.065260 -0.040990
0.997038 -0.063946 -0.040527
-0.081546 0.062694 -0.051317
-0.058768 0.062694 -0.039461
0.051985 0.062056 -0.040396
0.125123 0.074868 -0.040396
0.214334 0.089341 -0.040396
0.318823 0.104989 -0.040396
0.431586 0.119309 -0.040396
0.541649 0.129472 -0.040396
0.639189 0.134183 -0.040396
0.722408 0.134818 -0.040396
0.791553 0.132469 -0.040396
0.847423 0.128070 -0.040396
0.892368 0.122488 -0.040396
0.928239 0.116211 -0.040396
0.952199 0.108916 -0.040396
0.997038 0.103627 -0.040396
-0.081546 0.142090 -0.046434
-0.061022 0.142090 -0.039676
0.063424 0.141921 -0.040396
0.123629 0.140331 -0.040396
0.213991 0.167568 -0.040396
0.318823 0.194527 -0.040396
0.431586 0.217497 -0.040396
0.541649 0.233530 -0.040396
0.639189 0.240945 -0.040396
0.722408 0.241973 -0.040396
0.791553 0.238292 -0.040396
0.847423 0.231447 -0.040396
0.892368 0.222829 -0.040396
0.928239 0.213070 -0.040396
0.952199 0.201915 -0.040396
0.997038 0.193791 -0.040396
-0.081546 0.236911 -0.038679
-0.064033 0.236911 -0.040607
0.076517 0.236911 -0.040396
0.149305 0.236556 -0.040396
0.211744 0.234068 -0.040396
0.318382 0.273432 -0.040396
0.431586 0.305217 -0.040396
0.541649 0.326616 -0.040396
0.639189 0.336529 -0.040396
0.722408 0.337900 -0.040396
0.791553 0.333013 -0.040396
0.847423 0.323881 -0.040396
0.892368 0.312409 -0.040396
0.928239 0.299460 -0.040396
0.952199 0.284645 -0.040396
0.997038 0.273944 -0.040396
-0.081546 0.348292 -0.027810
-0.066829 0.348292 -0.041573
0.090801 0.348292 -0.040396
0.174676 0.348292 -0.040396
0.248765 0.347788 -0.040396
0.315663 0.344790 -0.040396
0.431055 0.387866 -0.040396
0.541649 0.415436 -0.040396
0.639189 0.427833 -0.040396
0.722408 0.429580 -0.040396
0.791553 0.423488 -0.040396
0.847423 0.412151 -0.040396
0.892368 0.397875 -0.040396
0.928239 0.381851 -0.040396
0.952199 0.363482 -0.040396
0.997038 0.350282 -0.040396
-0.081546 0.468558 0.000208
-0.069147 0.468558 -0.042410
0.103980 0.468558 -0.040396
0.196270 0.468558 -0.040396
0.278643 0.468558 -0.040396
0.356220 0.467996 -0.040396
0.428511 0.465102 -0.040396
0.541178 0.501190 -0.040396
0.639189 0.516793 -0.040396
0.722408 0.518774 -0.040396
0.791553 0.511582 -0.040396
0.847423 0.498112 -0.040396
0.892368 0.481122 -0.040396
0.928239 0.462004 -0.040396
0.952199 0.440269 -0.040396
0.997038 0.424579 -0.040396
-0.081546 0.585833 0.002001
-0.070812 0.585833 -0.043028
0.113462 0.585833 -0.040396
0.211251 0.585833 -0.040396
0.298638 0.585833 -0.040396
0.382046 0.585833 -0.040396
0.462470 0.585379 -0.040396
0.539485 0.583428 -0.040396
0.638898 0.603610 -0.040396
0.722408 0.606418 -0.040396
0.791553 0.598069 -0.040396
0.847423 0.582498 -0.040396
0.892368 0.562799 -0.040396
0.928239 0.540705 -0.040396
0.952199 0.515562 -0.040396
0.997038 0.497419 -0.040396
-0.081546 0.689843 0.002874
-0.071724 0.689843 -0.043370
0.117864 0.689843 -0.040396
0.218231 0.689843 -0.040396
0.307940 0.689843 -0.040396
0.393603 0.689843 -0.040396
0.477017 0.689843 -0.040396
0.558471 0.689571 -0.040396
0.638319 0.688803 -0.040396
0.722415 0.692870 -0.040396
0.791553 0.683428 -0.040396
0.847423 0.665775 -0.040396
0.892368 0.643481 -0.040396
0.928239 0.618416 -0.040396
0.952199 0.589878 -0.040396
0.997038 0.569294 -0.040396
-0.081546 0.778653 0.003016
-0.071882 0.778653 -0.043437
0.118455 0.778653 -0.040396
0.219164 0.778653 -0.040396
0.309198 0.778653 -0.040396
0.395159 0.778653 -0.040396
0.478898 0.778653 -0.040396
0.561100 0.778653 -0.040396
0.642029 0.778633 -0.040396
0.723067 0.779176 -0.040396
0.791615 0.768101 -0.040396
0.847423 0.748124 -0.040396
0.892368 0.723260 -0.040396
0.928239 0.695237 -0.040396
0.952199 0.663342 -0.040396
0.997038 0.640373 -0.040396
-0.081546 0.852177 0.002524
-0.071393 0.852177 -0.043256
0.116215 0.852177 -0.040396
0.215653 0.852177 -0.040396
0.304542 0.852177 -0.040396
0.389373 0.852177 -0.040396
0.472028 0.852177 -0.040396
0.553130 0.852177 -0.040396
0.633173 0.852177 -0.040396
0.712489 0.852222 -0.040396
0.793198 0.854047 -0.040396
0.847843 0.830366 -0.040396
0.892368 0.802135 -0.040396
0.928239 0.771221 -0.040396
0.952199 0.736117 -0.040396
0.997038 0.710752 -0.040396
-0.081546 0.911721 0.001492
-0.070349 0.911721 -0.042872
0.112069 0.911721 -0.040396
0.209241 0.911721 -0.040396
0.295995 0.911721 -0.040396
0.378725 0.911721 -0.040396
0.459364 0.911721 -0.040396
0.538458 0.911721 -0.040396
0.616503 0.911721 -0.040396
0.693715 0.911721 -0.040396
0.770771 0.912122 -0.040396
0.850376 0.915035 -0.040396
0.892995 0.881611 -0.040396
0.928239 0.846766 -0.040396
0.952199 0.808349 -0.040396
0.997038 0.780608 -0.040396
-0.081546 0.956029 -0.009566
-0.068863 0.956029 -0.042329
0.106833 0.956029 -0.040396
0.201100 0.956029 -0.040396
0.285154 0.956029 -0.040396
0.365351 0.956029 -0.040396
0.443399 0.956029 -0.040396
0.520027 0.956029 -0.040396
0.595641 0.956029 -0.040396
0.670386 0.956029 -0.040396
0.744319 0.956029 -0.040396
0.818859 0.956689 -0.040396
0.896497 0.959982 -0.040396
0.928964 0.922508 -0.040396
0.952199 0.879884 -0.040396
0.997038 0.849861 -0.040396
-0.081546 0.985829 -0.026609
-0.067044 0.985829 -0.041669
0.101033 0.985829 -0.040396
0.191969 0.985829 -0.040396
0.273057 0.985829 -0.040396
0.350317 0.985829 -0.040396
0.425547 0.985829 -0.040396
0.499369 0.985829 -0.040396
0.572191 0.985829 -0.040396
0.644200 0.985829 -0.040396
0.715499 0.985829 -0.040396
0.786314 0.985829 -0.040396
0.857442 0.986475 -0.040396
0.933645 0.989695 -0.040396
0.953196 0.950083 -0.040396
0.997038 0.918727 -0.040396
-0.081546 0.999826 -0.035868
-0.065136 0.999826 -0.040990
0.094311 0.999826 -0.040396
0.181459 0.999826 -0.040396
0.259128 0.999826 -0.040396
0.333125 0.999826 -0.040396
0.405097 0.999826 -0.040396
0.475697 0.999826 -0.040396
0.545345 0.999826 -0.040396
0.614256 0.999826 -0.040396
0.682361 0.999826 -0.040396
0.750117 0.999826 -0.040396
0.817147 0.999826 -0.040396
0.885568 1.000031 -0.040396
0.957200 1.004332 -0.040396
0.998148 0.979150 -0.040396
-0.081382 1.100834 -0.057397
-0.062053 1.100834 -0.057232
0.091607 1.100834 -0.057660
0.174781 1.100834 -0.059450
0.247810 1.100834 -0.062188
0.316227 1.100834 -0.064955
0.382073 1.100834 -0.067297
0.446571 1.100834 -0.068996
0.510925 1.100834 -0.069928
0.575704 1.100834 -0.070104
0.641323 1.100834 -0.069614
0.708153 1.100834 -0.068564
0.775873 1.100834 -0.067070
0.844807 1.100834 -0.065227
0.914978 1.101766 -0.063298
0.999205 1.103696 -0.061964
-0.081209 -0.463831 0.019112
-0.068932 -0.463866 0.019112
0.051049 -0.463884 0.018828
0.124354 -0.463884 0.023103
0.215723 -0.463884 0.031260
0.323591 -0.463884 0.042045
0.439848 -0.463884 0.052976
0.552505 -0.463884 0.061312
0.651564 -0.463884 0.065374
0.735550 -0.463884 0.065853
0.804096 -0.463884 0.063640
0.858989 -0.463884 0.059733
0.902107 -0.463884 0.054926
0.935312 -0.463884 0.049717
0.954523 -0.463884 0.043993
0.998149 -0.463884 0.040135
-0.081382 -0.067474 0.016775
-0.057485 -0.057593 0.016775
0.052675 -0.058142 0.016480
0.125240 -0.058142 0.021376
0.214334 -0.058142 0.028439
0.318823 -0.058142 0.037447
0.431586 -0.058142 0.046535
0.541649 -0.058142 0.053508
0.639189 -0.058142 0.056962
0.722408 -0.058142 0.057447
0.791553 -0.058142 0.055720
0.847423 -0.058142 0.052545
0.892368 -0.058142 0.048645
0.928239 -0.058142 0.044406
0.952199 -0.058142 0.039840
0.997038 -0.058142 0.036695
-0.081546 0.063055 0.016407
-0.058035 0.062836 0.016480
0.052548 0.062702 0.016571
0.125240 0.061986 0.016387
0.214334 0.059860 0.016101
0.318823 0.057051 0.016154
0.431586 0.054494 0.016466
0.541649 0.052523 0.016800
0.639189 0.051450 0.016968
0.722408 0.051342 0.016961
0.791553 0.052108 0.016833
0.847423 0.053568 0.016668
0.892368 0.055481 0.016520
0.928239 0.057649 0.016402
0.952199 0.059749 0.016320
0.997038 0.061110 0.016286
-0.081546 0.142090 0.020346
-0.058035 0.142090 0.021386
0.051925 0.142090 0.016395
0.124622 0.141380 0.016775
0.214126 0.160615 0.016775
0.318823 0.180557 0.016775
0.431586 0.197795 0.016775
0.541649 0.209821 0.016775
0.639189 0.215150 0.016775
0.722408 0.215564 0.016775
0.791553 0.212367 0.016775
0.847423 0.206802 0.016775
0.892368 0.199955 0.016775
0.928239 0.192402 0.016775
0.952199 0.183903 0.016775
0.997038 0.177773 0.016775
-0.081546 0.236911 0.027629
-0.058035 0.236911 0.028452
0.050039 0.236911 0.016121
0.142765 0.236701 0.016775
0.212528 0.234921 0.016775
0.318425 0.268508 0.016775
0.431586 0.296081 0.016775
0.541649 0.314488 0.016775
0.639189 0.322714 0.016775
0.722408 0.323302 0.016775
0.791553 0.318402 0.016775
0.847423 0.309779 0.016775
0.892368 0.299181 0.016775
0.928239 0.287386 0.016775
0.952199 0.274079 0.016775
0.997038 0.264526 0.016775
-0.081546 0.348292 0.037121
-0.058035 0.348292 0.037481
0.047551 0.348292 0.016180
0.161499 0.348292 0.016775
0.244181 0.347902 0.016775
0.316273 0.345456 0.016775
0.431125 0.384296 0.016775
0.541649 0.409152 0.016775
0.639189 0.419815 0.016775
0.722408 0.420547 0.016775
0.791553 0.414177 0.016775
0.847423 0.403012 0.016775
0.892368 0.389160 0.016775
0.928239 0.373806 0.016775
0.952199 0.356394 0.016775
0.997038 0.343944 0.016775
-0.081546 0.468558 0.046803
-0.058035 0.468558 0.046572
0.045293 0.468558 0.016502
0.177724 0.468558 0.016775
0.270045 0.468558 0.016775
0.352872 0.468073 0.016775
0.428999 0.465610 0.016775
0.541294 0.498594 0.016775
0.639189 0.512260 0.016775
0.722408 0.513200 0.016775
0.791553 0.505442 0.016775
0.847423 0.491890 0.016775
0.892368 0.475066 0.016775
0.928239 0.456317 0.016775
0.952199 0.435171 0.016775
0.997038 0.419960 0.016775
-0.081546 0.585833 0.054340
-0.058035 0.585833 0.053531
0.043559 0.585833 0.016838
0.188987 0.585833 0.016775
0.287282 0.585833 0.016775
0.376049 0.585833 0.016775
0.459988 0.585446 0.016775
0.539769 0.583763 0.016775
0.638973 0.601689 0.016775
0.722408 0.603172 0.016775
0.791553 0.594131 0.016775
0.847423 0.578272 0.016775
0.892368 0.558529 0.016775
0.928239 0.536609 0.016775
0.952199 0.511835 0.016775
0.997038 0.493995 0.016775
-0.081546 0.689843 0.058101
-0.058035 0.689843 0.056974
0.042613 0.689843 0.017006
0.193986 0.689843 0.016775
0.294954 0.689843 0.016775
0.386077 0.689843 0.016775
0.472790 0.689843 0.016775
0.556654 0.689575 0.016775
0.638525 0.689043 0.016775
0.722354 0.691390 0.016775
0.791553 0.681068 0.016775
0.847423 0.662936 0.016775
0.892368 0.640438 0.016775
0.928239 0.615394 0.016775
0.952199 0.587110 0.016775
0.997038 0.566717 0.016775
-0.081546 0.778653 0.058665
-0.058035 0.778653 0.057454
0.042526 0.778653 0.017000
0.194350 0.778653 0.016775
0.295505 0.778653 0.016775
0.386802 0.778653 0.016775
0.473658 0.778653 0.016775
0.558029 0.778653 0.016775
0.640724 0.778606 0.016775
0.723144 0.779372 0.016775
0.791633 0.767067 0.016775
0.847423 0.746328 0.016775
0.892368 0.721165 0.016775
0.928239 0.693067 0.016775
0.952199 0.661235 0.016775
0.997038 0.638449 0.016775
-0.081546 0.852177 0.056765
-0.058035 0.852177 0.055697
0.043202 0.852177 0.016868
0.191273 0.852177 0.016775
0.290835 0.852177 0.016775
0.380665 0.852177 0.016775
0.466266 0.852177 0.016775
0.549398 0.852177 0.016775
0.630913 0.852177 0.016775
0.711615 0.852264 0.016775
0.793274 0.854140 0.016775
0.847834 0.829459 0.016775
0.892368 0.800904 0.016775
0.928239 0.769755 0.016775
0.952199 0.734547 0.016775
0.997038 0.709327 0.016775
-0.081546 0.911721 0.053267
-0.058035 0.911721 0.052518
0.044477 0.911721 0.016705
0.186003 0.911721 0.016775
0.282738 0.911721 0.016775
0.370213 0.911721 0.016775
0.453519 0.911721 0.016775
0.534467 0.911721 0.016775
0.613926 0.911721 0.016775
0.692114 0.911721 0.016775
0.770026 0.912157 0.016775
0.850474 0.915036 0.016775
0.893021 0.881025 0.016775
0.928239 0.845910 0.016775
0.952199 0.807329 0.016775
0.997038 0.779601 0.016775
-0.081546 0.956029 0.048924
-0.058035 0.956029 0.048622
0.046163 0.956029 0.016554
0.179586 0.956029 0.016775
0.272763 0.956029 0.016775
0.357209 0.956029 0.016775
0.437699 0.956029 0.016775
0.516013 0.956029 0.016775
0.592758 0.956029 0.016775
0.668470 0.956029 0.016775
0.743104 0.956029 0.016775
0.818269 0.956625 0.016775
0.896618 0.960057 0.016775
0.928984 0.922076 0.016775
0.952199 0.879218 0.016775
0.997038 0.849095 0.016775
-0.081546 0.985829 0.044186
-0.058035 0.985829 0.044394
0.048077 0.985829 0.016440
0.172537 0.985829 0.016775
0.261719 0.985829 0.016775
0.342806 0.985829 0.016775
0.420189 0.985829 0.016775
0.495496 0.985829 0.016775
0.569373 0.985829 0.016775
0.642159 0.985829 0.016775
0.713971 0.985829 0.016775
0.785411 0.985829 0.016775
0.857075 0.986386 0.016775
0.933738 0.989768 0.016775
0.953211 0.949851 0.016775
0.997038 0.918261 0.016775
-0.081546 0.999826 0.038957
-0.058035 0.999826 0.039815
0.049936 0.999826 0.016361
0.164518 0.999826 0.016775
0.249185 0.999826 0.016775
0.326462 0.999826 0.016775
0.400370 0.999826 0.016775
0.472206 0.999826 0.016775
0.542706 0.999826 0.016775
0.612259 0.999826 0.016775
0.681050 0.999826 0.016775
0.749141 0.999826 0.016775
0.816498 0.999826 0.016775
0.885272 1.000031 0.016775
0.957242 1.004360 0.016775
0.998160 0.978950 0.016775
-0.081456 1.100834 0.027359
-0.058366 1.100834 0.028450
0.058546 1.100834 0.009859
0.161697 1.100834 0.010173
0.240360 1.100834 0.008948
0.311412 1.100834 0.007307
0.378765 1.100834 0.005800
0.444190 1.100834 0.004616
0.509124 1.100834 0.003929
0.574353 1.100834 0.003794
0.640275 1.100834 0.004161
0.707288 1.100834 0.004922
0.775301 1.100834 0.005948
0.844433 1.100834 0.007141
0.914813 1.101770 0.008310
0.999218 1.103707 0.009070
-0.081362 -0.463855 0.061258
-0.065459 -0.463874 0.061461
0.063333 -0.463884 0.061831
0.125090 -0.463884 0.061147
0.216408 -0.463884 0.081150
0.324013 -0.463884 0.106795
0.440182 -0.463884 0.131842
0.552761 -0.463884 0.148978
0.651889 -0.463884 0.156817
0.735646 -0.463884 0.157674
0.804121 -0.463884 0.153445
0.859013 -0.463884 0.145914
0.902215 -0.463884 0.136410
0.935358 -0.463884 0.125653
0.954523 -0.463884 0.113254
0.998160 -0.463884 0.104720
-0.081456 -0.065863 0.056488
-0.059810 -0.059920 0.056488
0.064628 -0.058878 0.056488
0.124854 -0.058142 0.055829
0.214334 -0.058142 0.074393
0.318823 -0.058142 0.096996
0.431586 -0.058142 0.119640
0.541649 -0.058142 0.135850
0.639189 -0.058142 0.143387
0.722408 -0.058142 0.144486
0.791553 -0.058142 0.140796
0.847423 -0.058142 0.133928
0.892368 -0.058142 0.125176
0.928239 -0.058142 0.115266
0.952199 -0.058142 0.104198
0.997038 -0.058142 0.096584
-0.081546 0.074276 0.056488
-0.058768 0.076218 0.056488
0.051987 0.062081 0.056488
0.125123 0.062694 0.056138
0.214334 0.062694 0.068824
0.318823 0.062694 0.084570
0.431586 0.062694 0.100350
0.541649 0.062694 0.112243
0.639189 0.062694 0.117760
0.722408 0.062694 0.118137
0.791553 0.062694 0.114719
0.847423 0.062694 0.108841
0.892368 0.062694 0.101765
0.928239 0.062694 0.094227
0.952199 0.062694 0.086152
0.997038 0.062694 0.080662
-0.081546 0.141525 0.055707
-0.058035 0.141627 0.055832
0.052548 0.141922 0.056139
0.125260 0.142090 0.056064
0.214334 0.142840 0.055637
0.318823 0.143105 0.054819
0.431586 0.142714 0.054115
0.541649 0.142188 0.053593
0.639189 0.141831 0.053309
0.722408 0.141974 0.053285
0.791553 0.142640 0.053485
0.847423 0.143782 0.053860
0.892368 0.145293 0.054383
0.928239 0.147068 0.054997
0.952199 0.148852 0.055608
0.997038 0.150052 0.056013
-0.081546 0.236911 0.073997
-0.058035 0.236911 0.074455
0.052548 0.236911 0.068880
0.125940 0.236911 0.055637
0.213831 0.236321 0.056488
0.318608 0.258255 0.056488
0.431586 0.276597 0.056488
0.541649 0.288677 0.056488
0.639189 0.293462 0.056488
0.722408 0.293002 0.056488
0.791553 0.288726 0.056488
0.847423 0.282063 0.056488
0.892368 0.274195 0.056488
0.928239 0.265781 0.056488
0.952199 0.256560 0.056488
0.997038 0.250119 0.056488
-0.081546 0.348292 0.096844
-0.058035 0.348292 0.097071
0.052548 0.348292 0.084645
0.126148 0.348292 0.054819
0.234462 0.348072 0.056488
0.317294 0.346576 0.056488
0.431244 0.376978 0.056488
0.541649 0.396216 0.056488
0.639189 0.403636 0.056488
0.722408 0.402903 0.056488
0.791553 0.396243 0.056488
0.847423 0.385897 0.056488
0.892368 0.373461 0.056488
