public/overlays/5.cube
LUT_3D_SIZE 6
-0.081546 -0.081701 -0.070969
0.125240 -0.081369 -0.070969
0.431586 -0.082683 -0.070969
0.722408 -0.083200 -0.070969
0.892368 -0.082639 -0.070969
0.997038 -0.081763 -0.070969
-0.081214 0.142090 -0.070969
0.123635 0.140330 -0.070969
0.431586 0.219105 -0.070969
0.722408 0.244683 -0.070969
0.892368 0.224659 -0.070969
0.997038 0.193710 -0.070969
-0.082525 0.468558 -0.070969
0.197780 0.468558 -0.070969
0.428452 0.465035 -0.070969
0.722408 0.519425 -0.070969
0.892368 0.481640 -0.070969
0.997038 0.424537 -0.070969
-0.083041 0.778653 -0.070969
0.221715 0.778653 -0.070969
0.479498 0.778653 -0.070969
0.722989 0.779116 -0.070969
0.892368 0.723413 -0.070969
0.997038 0.640362 -0.070969
-0.082486 0.956029 -0.070969
0.202820 0.956029 -0.070969
0.443914 0.956029 -0.070969
0.670543 0.956029 -0.070969
0.896576 0.960057 -0.070969
0.997038 0.849856 -0.070969
-0.081617 1.100834 -0.074006
0.174692 1.100834 -0.073701
0.382018 1.100834 -0.074895
0.575695 1.100834 -0.075363
0.775868 1.100834 -0.074858
0.999205 1.103696 -0.074073
-0.081362 -0.463855 0.061258
0.125090 -0.463884 0.061147
0.440182 -0.463884 0.131842
0.735646 -0.463884 0.157674
0.902215 -0.463884 0.136410
0.998160 -0.463884 0.104720
-0.081546 0.141525 0.055707
0.125260 0.142090 0.056064
0.431586 0.142714 0.054115
0.722408 0.141974 0.053285
0.892368 0.145293 0.054383
0.997038 0.150052 0.056013
-0.081546 0.468558 0.119904
0.125745 0.468558 0.054115
0.429718 0.466408 0.056488
0.722408 0.502460 0.056488
0.892368 0.464321 0.056488
0.997038 0.413289 0.056488
-0.081546 0.778653 0.145339
0.124994 0.778653 0.053285
0.463546 0.778653 0.056488
0.723373 0.779612 0.056488
0.892368 0.717613 0.056488
0.997038 0.635620 0.056488
-0.081546 0.956029 0.125337
0.128135 0.956029 0.054383
0.427648 0.956029 0.056488
0.665052 0.956029 0.056488
0.896601 0.960055 0.056488
0.997038 0.848055 0.056488
-0.081576 1.100834 0.081582
0.136231 1.100834 0.045005
0.372680 1.100834 0.040215
0.571812 1.100834 0.037111
0.774262 1.100834 0.040458
0.999223 1.103713 0.045606
-0.082050 -0.463962 0.364516
0.199129 -0.463884 0.364769
0.435540 -0.463884 0.367470
0.734675 -0.463884 0.418312
0.901752 -0.463884 0.378970
0.998098 -0.463884 0.320394
-0.081546 0.214157 0.348108
0.120102 0.136736 0.348109
0.430338 0.142090 0.353640
0.722408 0.142090 0.385881
0.892368 0.142090 0.348899
0.997039 0.142090 0.298906
-0.081546 0.466242 0.354844
0.125240 0.467216 0.353855
0.431603 0.468558 0.347896
0.722408 0.468886 0.348045
0.892368 0.468494 0.350288
0.997038 0.470444 0.352932
-0.081546 0.778653 0.404709
0.125240 0.778653 0.385893
0.431914 0.778653 0.348046
0.723680 0.780069 0.348108
0.892368 0.718078 0.348108
0.997038 0.659157 0.348108
-0.081546 0.956029 0.368478
0.125240 0.956029 0.348797
0.431552 0.956029 0.350288
0.665421 0.956029 0.348108
0.896358 0.959827 0.348108
0.997038 0.857548 0.348108
-0.081886 1.100834 0.286336
0.117643 1.100834 0.270290
0.428436 1.100834 0.333027
0.596496 1.100834 0.327237
0.784258 1.100834 0.333910
0.998974 1.103468 0.343951
-0.082315 -0.463984 0.668575
0.227970 -0.463884 0.668655
0.481810 -0.463884 0.665239
0.726702 -0.463884 0.659111
0.899024 -0.463884 0.601857
0.997773 -0.463884 0.515053
-0.081546 0.244386 0.647456
0.117699 0.134262 0.647456
0.462800 0.142090 0.647456
0.722735 0.142090 0.647972
0.892368 0.142090 0.589952
0.997039 0.142090 0.511593
-0.081546 0.518313 0.647456
0.125240 0.501718 0.647456
0.431983 0.468995 0.647456
0.723021 0.468558 0.645141
0.892368 0.468558 0.590102
0.997039 0.468558 0.535407
-0.081546 0.778489 0.648798
0.125240 0.778823 0.647899
0.431586 0.779133 0.645004
0.722465 0.778653 0.647854
0.892368 0.774834 0.649869
0.997038 0.775481 0.652077
-0.081546 0.956029 0.596719
0.125240 0.956029 0.589725
0.431586 0.956029 0.589892
0.719028 0.956029 0.649869
0.894506 0.958181 0.647456
0.997038 0.905124 0.647456
-0.081913 1.100834 0.485733
0.117082 1.100834 0.478814
0.428480 1.100834 0.507659
0.717929 1.100834 0.639280
0.835085 1.100834 0.641851
0.998199 1.102435 0.652286
-0.082022 -0.463958 0.844821
0.209496 -0.463884 0.844814
0.447148 -0.463884 0.843401
0.671328 -0.463884 0.838428
0.895647 -0.463884 0.827261
0.997270 -0.463884 0.711012
-0.081546 0.227392 0.827461
0.121395 0.138171 0.827461
0.431348 0.142090 0.827461
0.672325 0.142090 0.827461
0.894923 0.142090 0.820810
0.997039 0.142090 0.713224
-0.081546 0.486702 0.827461
0.125240 0.468216 0.827461
0.436028 0.473206 0.827461
0.673074 0.468558 0.827461
0.894720 0.468558 0.819784
0.997039 0.468558 0.722453
-0.081546 0.730729 0.827461
0.125240 0.725173 0.827461
0.431586 0.725956 0.827461
0.725453 0.781554 0.827461
0.893575 0.778653 0.826028
0.997038 0.778653 0.778993
-0.081546 0.958346 0.821277
0.125240 0.958402 0.820589
0.431586 0.958218 0.819584
0.722408 0.957255 0.825916
0.892295 0.956029 0.827788
0.997038 0.955283 0.829117
-0.081705 1.100834 0.694624
0.121269 1.100834 0.691578
0.434995 1.100834 0.702753
0.730181 1.100834 0.767617
0.894396 1.100834 0.823153
0.997094 1.100994 0.829530
-0.081546 -0.463884 0.930302
0.177465 -0.463884 0.930210
0.387108 -0.463884 0.929912
0.583151 -0.463884 0.928728
0.785680 -0.463884 0.927179
1.000297 -0.463884 0.919180
-0.081546 0.196901 0.922611
0.126739 0.143833 0.922611
0.383062 0.142090 0.922611
0.595680 0.142090 0.922611
0.798073 0.142090 0.922611
1.001390 0.142090 0.913790
-0.081546 0.430378 0.922611
0.125240 0.416772 0.922611
0.440840 0.478279 0.922611
0.617209 0.468558 0.922611
0.806726 0.468558 0.922611
1.000957 0.468558 0.913752
-0.081546 0.648948 0.922611
0.125240 0.643363 0.922611
0.431586 0.666344 0.922611
0.728922 0.785358 0.922611
0.847940 0.778653 0.922611
0.999378 0.778653 0.918564
-0.081546 0.861014 0.922611
0.125240 0.859221 0.922611
0.431586 0.868473 0.922611
0.722408 0.912238 0.922611
0.894194 0.957824 0.922611
0.997322 0.956029 0.922274
-0.081546 1.045983 0.914273
0.125240 1.045996 0.913792
0.431586 1.045597 0.913737
0.722408 1.044127 0.918477
0.892368 1.042148 0.922300
0.997038 1.041911 0.922611
